;PYCAM-META-DATA: Filename: /Users/jordan/Desktop/Knot.svg
;PYCAM-META-DATA: Timestamp: 2014-04-13 14:26:53.197718
;PYCAM-META-DATA: Version: 0.5.1
;Estimated machine time: 352 minutes
G40 (disable tool radius compensation)
G49 (disable tool length compensation)
G80 (cancel modal motion)
G54 (select coordinate system 1)
G90 (disable incremental moves)
G21 (metric)
G61 (exact path mode)
F200.00000
S1000.00000
;PYCAM_TOOLPATH_SETTINGS: START
;[Bounds]
;maxz = 0.0
;maxx = 329.5
;maxy = 322.45763032
;minx = -29.5
;miny = -28.8597845746
;minz = 0.0
;
;[Tool]
;torus_radius = 0.25
;speed = 1000.0
;shape = SphericalCutter
;tool_radius = 0.5
;feedrate = 200.0
;
;[Process]
;engrave_offset = 0.0
;step_down = 3.0
;generator = EngraveCutter
;postprocessor = SimpleCutter
;milling_style = conventional
;material_allowance = 0.0
;pocketing_type = none
;path_direction = x
;
;PYCAM_TOOLPATH_SETTINGS: END
T3 M6
G0 Z90.0
M3 (start spindle)
G04 P1 (wait for 1 seconds)
G1 X69.4099 Y226.3507
G1 Z0.0000
G1 X80.8559 Y223.0214
G1 X65.2844 Y203.2196
G1 X80.8559 Y223.0214
G1 X69.4099 Y226.3507
G0 Z90.0
G1 X60.1529 Y228.3185
G1 Z0.0000
G1 X52.6299 Y205.3451
G1 X60.1529 Y228.3185
G1 X55.8850 Y204.3156
G1 X60.1529 Y228.3185
G0 Z90.0
G1 X26.2807 Y117.9434
G1 Z0.0000
G1 X42.9740 Y103.0526
G1 X26.2807 Y117.9434
G0 Z90.0
G1 X81.4741 Y54.5914
G1 Z0.0000
G1 X91.0561 Y40.5824
G1 X81.4741 Y54.5914
G0 Z90.0
G1 X147.5870 Y57.6078
G1 Z0.0000
G1 X147.3986 Y60.6623
G1 X147.5870 Y57.6078
G0 Z90.0
G1 X206.7864 Y94.6034
G1 Z0.0000
G1 X204.1429 Y97.3595
G1 X206.7864 Y94.6034
G0 Z90.0
G1 X242.6994 Y121.5301
G1 Z0.0000
G1 X229.7017 Y137.4504
G1 X242.6994 Y121.5301
G1 X232.7986 Y139.5717
G1 X242.6994 Y121.5301
G0 Z90.0
G1 X238.3862 Y190.9442
G1 Z0.0000
G1 X215.8487 Y192.9244
G1 X238.3862 Y190.9442
G0 Z90.0
G1 X236.9914 Y198.4207
G1 Z0.0000
G1 X216.2763 Y200.0107
G1 X236.9914 Y198.4207
G1 X216.0397 Y199.9442
G1 X236.9914 Y198.4207
G0 Z90.0
G1 X203.5982 Y118.7695
G1 Z0.0000
G1 X205.9441 Y124.6187
G1 X209.6550 Y129.7621
G1 X214.9188 Y136.9813
G1 X218.7754 Y139.0528
G1 X227.8419 Y146.9403
G1 X239.4282 Y159.2406
G1 X251.1557 Y173.8864
G1 X238.3738 Y158.7840
G1 X239.4282 Y159.2406
G1 X227.5513 Y149.6469
G1 X227.8419 Y146.9403
G1 X217.8040 Y145.6492
G1 X218.7754 Y139.0528
G1 X212.2952 Y135.9393
G1 X214.9188 Y136.9813
G1 X212.2952 Y135.9393
G1 X209.6550 Y129.7621
G1 X212.2952 Y135.9393
G1 X218.7754 Y139.0528
G1 X217.8040 Y145.6492
G1 X227.8419 Y146.9403
G1 X227.5513 Y149.6469
G1 X239.4282 Y159.2406
G1 X238.3738 Y158.7840
G1 X227.5513 Y149.6469
G1 X217.8040 Y145.6492
G1 X227.5513 Y149.6469
G1 X238.3738 Y158.7840
G1 X222.8479 Y156.3098
G1 X227.5513 Y149.6469
G1 X222.8479 Y156.3098
G1 X238.3738 Y158.7840
G1 X248.9181 Y171.1009
G1 X251.1557 Y173.8864
G1 X260.7244 Y189.9271
G1 X248.9181 Y171.1009
G1 X232.7861 Y162.7817
G1 X238.3738 Y158.7840
G1 X232.7861 Y162.7817
G1 X222.8479 Y156.3098
G1 X212.2828 Y154.2632
G1 X227.5513 Y149.6469
G1 X212.2828 Y154.2632
G1 X217.8040 Y145.6492
G1 X209.2980 Y144.7401
G1 X218.7754 Y139.0528
G1 X209.2980 Y144.7401
G1 X212.2952 Y135.9393
G1 X207.6790 Y132.4979
G1 X209.6550 Y129.7621
G1 X207.6790 Y132.4979
G1 X205.9441 Y124.6187
G1 X207.6790 Y132.4979
G1 X212.2952 Y135.9393
G1 X209.2980 Y144.7401
G1 X217.8040 Y145.6492
G1 X212.2828 Y154.2632
G1 X222.8479 Y156.3098
G1 X232.7861 Y162.7817
G1 X248.9181 Y171.1009
G1 X260.7244 Y189.9271
G1 X257.4698 Y185.1780
G1 X248.9181 Y171.1009
G1 X241.8526 Y172.5622
G1 X232.7861 Y162.7817
G1 X215.5249 Y164.3841
G1 X208.4719 Y170.6526
G1 X204.4455 Y172.6909
G1 X193.5255 Y162.2379
G1 X183.0613 Y149.0367
G1 X197.2143 Y164.5252
G1 X193.5255 Y162.2379
G1 X208.4719 Y170.6526
G1 X217.5466 Y176.8505
G1 X213.8603 Y181.4086
G1 X204.4455 Y172.6909
G1 X217.5466 Y176.8505
G1 X204.4455 Y172.6909
G1 X208.4719 Y170.6526
G1 X197.2143 Y164.5252
G1 X185.5101 Y155.3176
G1 X204.3890 Y161.4865
G1 X197.2143 Y164.5252
G1 X215.5249 Y164.3841
G1 X197.2143 Y164.5252
G1 X204.3890 Y161.4865
G1 X215.5249 Y164.3841
G1 X224.7948 Y169.7061
G1 X217.5466 Y176.8505
G1 X224.9152 Y184.6965
G1 X221.6938 Y190.5955
G1 X213.8603 Y181.4086
G1 X224.9152 Y184.6965
G1 X213.8603 Y181.4086
G1 X217.5466 Y176.8505
G1 X208.4719 Y170.6526
G1 X224.7948 Y169.7061
G1 X208.4719 Y170.6526
G1 X215.5249 Y164.3841
G1 X222.8479 Y156.3098
G1 X215.5249 Y164.3841
G1 X232.7861 Y162.7817
G1 X224.7948 Y169.7061
G1 X215.5249 Y164.3841
G1 X204.3890 Y161.4865
G1 X185.5101 Y155.3176
G1 X192.6317 Y156.7581
G1 X204.3890 Y161.4865
G1 X222.8479 Y156.3098
G1 X204.3890 Y161.4865
G1 X212.2828 Y154.2632
G1 X204.3890 Y161.4865
G1 X192.6317 Y156.7581
G1 X185.5101 Y155.3176
G1 X176.7571 Y144.7733
G1 X192.6317 Y156.7581
G1 X212.2828 Y154.2632
G1 X201.7513 Y152.7231
G1 X217.8040 Y145.6492
G1 X201.7513 Y152.7231
G1 X212.2828 Y154.2632
G1 X192.6317 Y156.7581
G1 X201.7513 Y152.7231
G1 X209.2980 Y144.7401
G1 X203.1474 Y141.2945
G1 X212.2952 Y135.9393
G1 X203.1474 Y141.2945
G1 X207.6790 Y132.4979
G1 X205.0628 Y126.8106
G1 X205.9441 Y124.6187
G1 X205.0628 Y126.8106
G1 X203.5982 Y118.7695
G0 Z90.0
G1 X222.2542 Y147.4675
G1 Z0.0000
G1 X229.7017 Y137.4504
G1 X232.7986 Y139.5717
G1 X222.2542 Y147.4675
G1 X219.4521 Y150.1866
G1 X212.6730 Y157.2729
G1 X207.7993 Y162.3707
G1 X204.6116 Y168.1120
G1 X203.2728 Y174.6005
G1 X203.7987 Y167.0409
G1 X203.2159 Y175.8417
G1 X203.2728 Y174.6005
G1 X203.9303 Y181.7449
G1 X197.9865 Y187.1125
G1 X203.9303 Y181.7449
G1 X205.4638 Y190.8404
G1 X197.9865 Y187.1125
G1 X202.4894 Y194.6347
G1 X197.9865 Y187.1125
G1 X205.4638 Y190.8404
G1 X202.4894 Y194.6347
G1 X193.7708 Y197.6112
G1 X200.0289 Y207.4083
G1 X189.7320 Y208.0144
G1 X192.9073 Y219.4596
G1 X178.9888 Y207.9231
G1 X192.9073 Y219.4596
G1 X181.8665 Y218.2764
G1 X181.0142 Y229.2317
G1 X173.2907 Y218.1643
G1 X181.0142 Y229.2317
G1 X171.9918 Y228.6713
G1 X167.8911 Y238.7009
G1 X168.0900 Y230.9670
G1 X167.8911 Y238.7009
G1 X163.3832 Y241.8517
G1 X168.0900 Y230.9670
G1 X171.9918 Y228.6713
G1 X173.2907 Y218.1643
G1 X181.8665 Y218.2764
G1 X178.9888 Y207.9231
G1 X189.7320 Y208.0144
G1 X182.6897 Y198.5826
G1 X173.6112 Y197.1670
G1 X178.9888 Y207.9231
G1 X172.0383 Y207.1758
G1 X171.4994 Y206.0467
G1 X173.2451 Y190.1845
G1 X172.0383 Y207.1758
G1 X173.2907 Y218.1643
G1 X170.4699 Y219.1482
G1 X171.4994 Y206.0467
G1 X173.2907 Y218.1643
G1 X171.4994 Y206.0467
G1 X172.0383 Y207.1758
G1 X170.0461 Y193.9414
G1 X169.4861 Y178.5816
G1 X173.6112 Y197.1670
G1 X170.0461 Y193.9414
G1 X178.9888 Y207.9231
G1 X170.0461 Y193.9414
G1 X173.6112 Y197.1670
G1 X169.9556 Y184.5014
G1 X169.4861 Y178.5816
G1 X169.8123 Y164.6166
G1 X169.9556 Y184.5014
G1 X182.6897 Y198.5826
G1 X189.7320 Y208.0144
G1 X200.0289 Y207.4083
G1 X205.8636 Y206.3290
G1 X205.7320 Y222.9384
G1 X202.2088 Y241.2996
G1 X202.0431 Y221.2529
G1 X205.7320 Y222.9384
G1 X200.0289 Y207.4083
G1 X205.7320 Y222.9384
G1 X202.0431 Y221.2529
G1 X200.0289 Y207.4083
G1 X193.7708 Y197.6112
G1 X202.4894 Y194.6347
G1 X205.4638 Y190.8404
G1 X205.0288 Y205.2164
G1 X202.4894 Y194.6347
G1 X205.8636 Y206.3290
G1 X193.7708 Y197.6112
G1 X205.8636 Y206.3290
G1 X200.0289 Y207.4083
G1 X202.0431 Y221.2529
G1 X202.2088 Y241.2996
G1 X199.7952 Y237.0943
G1 X202.0431 Y221.2529
G1 X189.7320 Y208.0144
G1 X178.9888 Y207.9231
G1 X181.8665 Y218.2764
G1 X173.2907 Y218.1643
G1 X171.9918 Y228.6713
G1 X168.0900 Y230.9670
G1 X170.4699 Y219.1482
G1 X171.9918 Y228.6713
G1 X170.4699 Y219.1482
G1 X173.2907 Y218.1643
G1 X172.0383 Y207.1758
G1 X181.8665 Y218.2764
G1 X172.0383 Y207.1758
G1 X178.9888 Y207.9231
G1 X173.6112 Y197.1670
G1 X189.7320 Y208.0144
G1 X202.0431 Y221.2529
G1 X199.7952 Y237.0943
G1 X202.2088 Y241.2996
G1 X194.8228 Y258.8472
G1 X199.7952 Y237.0943
G1 X192.9073 Y219.4596
G1 X202.0431 Y221.2529
G1 X192.9073 Y219.4596
G1 X189.7320 Y208.0144
G1 X173.6112 Y197.1670
G1 X182.6897 Y198.5826
G1 X200.0289 Y207.4083
G1 X182.6897 Y198.5826
G1 X193.7708 Y197.6112
G1 X187.6086 Y189.8482
G1 X202.4894 Y194.6347
G1 X187.6086 Y189.8482
G1 X197.9865 Y187.1125
G1 X196.2653 Y180.3334
G1 X203.9303 Y181.7449
G1 X196.2653 Y180.3334
G1 X203.2728 Y174.6005
G1 X196.2653 Y180.3334
G1 X197.9865 Y187.1125
G1 X187.6086 Y189.8482
G1 X193.7708 Y197.6112
G1 X182.6897 Y198.5826
G1 X169.9556 Y184.5014
G1 X176.8667 Y188.8312
G1 X182.6897 Y198.5826
G1 X176.8667 Y188.8312
G1 X169.9556 Y184.5014
G1 X169.0742 Y172.1637
G1 X176.8667 Y188.8312
G1 X193.7708 Y197.6112
G1 X176.8667 Y188.8312
G1 X187.6086 Y189.8482
G1 X176.8667 Y188.8312
G1 X169.0742 Y172.1637
G1 X169.8123 Y164.6166
G1 X171.9698 Y152.8434
G1 X169.0742 Y172.1637
G1 X175.0243 Y178.8058
G1 X176.8667 Y188.8312
G1 X175.0243 Y178.8058
G1 X187.6086 Y189.8482
G1 X185.4412 Y181.9441
G1 X197.9865 Y187.1125
G1 X185.4412 Y181.9441
G1 X196.2653 Y180.3334
G1 X197.5053 Y173.5917
G1 X203.2728 Y174.6005
G1 X197.5053 Y173.5917
G1 X204.6116 Y168.1120
G1 X197.5053 Y173.5917
G1 X196.2653 Y180.3334
G1 X185.4412 Y181.9441
G1 X187.6086 Y189.8482
G1 X175.0243 Y178.8058
G1 X169.0742 Y172.1637
G1 X171.9698 Y152.8434
G1 X170.9735 Y161.1627
G1 X169.0742 Y172.1637
G1 X170.9735 Y161.1627
G1 X175.0243 Y178.8058
G1 X185.4412 Y181.9441
G1 X175.0243 Y178.8058
G1 X176.6209 Y169.2909
G1 X185.4412 Y181.9441
G1 X186.7916 Y174.0608
G1 X196.2653 Y180.3334
G1 X186.7916 Y174.0608
G1 X197.5053 Y173.5917
G1 X200.9268 Y166.8541
G1 X204.6116 Y168.1120
G1 X200.9268 Y166.8541
G1 X207.7993 Y162.3707
G1 X200.9268 Y166.8541
G1 X197.5053 Y173.5917
G1 X186.7916 Y174.0608
G1 X185.4412 Y181.9441
G1 X176.6209 Y169.2909
G1 X175.0243 Y178.8058
G1 X170.9735 Y161.1627
G1 X171.9698 Y152.8434
G1 X177.4495 Y142.0915
G1 X170.9735 Y161.1627
G1 X176.6209 Y169.2909
G1 X186.7916 Y174.0608
G1 X190.7952 Y165.7457
G1 X197.5053 Y173.5917
G1 X190.7952 Y165.7457
G1 X200.9268 Y166.8541
G1 X205.9441 Y159.1368
G1 X207.7993 Y162.3707
G1 X205.9441 Y159.1368
G1 X212.6730 Y157.2729
G1 X205.9441 Y159.1368
G1 X200.9268 Y166.8541
G1 X190.7952 Y165.7457
G1 X186.7916 Y174.0608
G1 X176.6209 Y169.2909
G1 X170.9735 Y161.1627
G1 X177.4495 Y142.0915
G1 X176.2427 Y150.3610
G1 X170.9735 Y161.1627
G1 X176.2427 Y150.3610
G1 X176.6209 Y169.2909
G1 X181.3277 Y159.4191
G1 X186.7916 Y174.0608
G1 X181.3277 Y159.4191
G1 X176.6209 Y169.2909
G1 X176.2427 Y150.3610
G1 X177.4495 Y142.0915
G1 X186.8718 Y131.0989
G1 X176.2427 Y150.3610
G1 X181.3277 Y159.4191
G1 X190.7952 Y165.7457
G1 X196.7577 Y155.2346
G1 X200.9268 Y166.8541
G1 X196.7577 Y155.2346
G1 X205.9441 Y159.1368
G1 X212.6854 Y147.3139
G1 X212.6730 Y157.2729
G1 X212.6854 Y147.3139
G1 X219.4521 Y150.1866
G1 X229.7017 Y137.4504
G1 X222.2542 Y147.4675
G0 Z90.0
G1 X229.7017 Y137.4504
G1 Z0.0000
G1 X222.9226 Y130.8207
G1 X212.6854 Y147.3139
G1 X204.5485 Y139.8747
G1 X215.0932 Y122.2441
G1 X204.5485 Y139.8747
G1 X209.3187 Y115.1288
G1 X215.0932 Y122.2441
G1 X212.6854 Y147.3139
G1 X215.0932 Y122.2441
G1 X222.9226 Y130.8207
G1 X235.6339 Y113.7713
G1 X229.7017 Y137.4504
G0 Z90.0
G1 X242.6994 Y121.5301
G1 Z0.0000
G1 X254.9998 Y104.5720
G1 X247.4859 Y96.9933
G1 X237.5186 Y91.5012
G1 X229.0375 Y90.2495
G1 X220.0291 Y102.3012
G1 X225.2847 Y93.6412
G1 X220.0291 Y102.3012
G1 X217.5798 Y103.0277
G1 X225.2847 Y93.6412
G1 X229.0375 Y90.2495
G1 X235.3765 Y78.1555
G1 X237.5186 Y91.5012
G1 X245.0491 Y76.8678
G1 X247.4859 Y96.9933
G1 X255.9380 Y80.3918
G1 X247.4859 Y96.9933
G1 X245.0491 Y76.8678
G1 X237.5186 Y91.5012
G1 X235.3765 Y78.1555
G1 X229.0375 Y90.2495
G1 X230.6274 Y83.6871
G1 X229.0375 Y90.2495
G1 X225.2847 Y93.6412
G1 X230.6274 Y83.6871
G1 X235.3765 Y78.1555
G1 X245.0491 Y76.8678
G1 X255.9380 Y80.3918
G1 X254.9998 Y104.5720
G1 X245.3729 Y126.6113
G1 X242.6994 Y121.5301
G1 X235.6339 Y113.7713
G1 X226.9286 Y106.4027
G1 X215.0932 Y122.2441
G1 X209.3187 Y115.1288
G1 X198.2326 Y130.7875
G1 X196.2301 Y123.6224
G1 X199.2161 Y121.1191
G1 X211.0540 Y114.5227
G1 X196.2301 Y123.6224
G1 X188.6967 Y147.0441
G1 X184.9372 Y137.7991
G1 X196.2301 Y123.6224
G1 X207.8077 Y112.2187
G1 X198.2326 Y130.7875
G1 X188.6967 Y147.0441
G1 X196.2301 Y123.6224
G1 X198.2326 Y130.7875
G1 X196.7577 Y155.2346
G1 X188.6967 Y147.0441
G1 X198.2326 Y130.7875
G1 X207.8077 Y112.2187
G1 X209.3187 Y115.1288
G1 X204.5485 Y139.8747
G1 X196.7577 Y155.2346
G1 X198.2326 Y130.7875
G1 X204.5485 Y139.8747
G1 X198.2326 Y130.7875
G1 X209.3187 Y115.1288
G1 X220.0291 Y102.3012
G1 X215.0932 Y122.2441
G1 X220.0291 Y102.3012
G1 X226.9286 Y106.4027
G1 X237.5186 Y91.5012
G1 X235.6339 Y113.7713
G1 X247.4859 Y96.9933
G1 X242.6994 Y121.5301
G1 X247.4859 Y96.9933
G1 X254.9998 Y104.5720
G1 X242.6994 Y121.5301
G0 Z90.0
G1 X291.8344 Y122.3022
G1 Z0.0000
G1 X297.1979 Y134.3784
G1 X283.7850 Y117.8396
G1 X273.3237 Y119.2178
G1 X257.3453 Y118.5993
G1 X264.5229 Y125.9471
G1 X254.0948 Y128.4296
G1 X260.7992 Y135.3747
G1 X256.4735 Y136.4997
G1 X254.0948 Y128.4296
G1 X257.3453 Y118.5993
G1 X264.9795 Y110.8446
G1 X273.3237 Y119.2178
G1 X264.9795 Y110.8446
G1 X283.7850 Y117.8396
G1 X291.8344 Y122.3022
G1 X283.7850 Y117.8396
G1 X274.0377 Y108.1836
G1 X283.7850 Y117.8396
G1 X264.9795 Y110.8446
G1 X257.3453 Y118.5993
G1 X254.0948 Y128.4296
G1 X256.4735 Y136.4997
G1 X246.6017 Y130.6754
G1 X254.0948 Y128.4296
G1 X244.7253 Y122.9208
G1 X257.3453 Y118.5993
G1 X247.2783 Y112.7667
G1 X264.9795 Y110.8446
G1 X274.0377 Y108.1836
G1 X291.8344 Y122.3022
G0 Z90.0
G1 X280.9953 Y111.6043
G1 Z0.0000
G1 X274.0377 Y108.1836
G1 X260.3757 Y100.4829
G1 X265.8098 Y103.0858
G1 X280.9953 Y111.6043
G1 X291.8344 Y122.3022
G1 X274.0377 Y108.1836
G1 X264.9795 Y110.8446
G1 X247.2783 Y112.7667
G1 X257.3453 Y118.5993
G1 X244.7253 Y122.9208
G1 X254.0948 Y128.4296
G1 X246.6017 Y130.6754
G1 X244.7253 Y122.9208
G1 X247.2783 Y112.7667
G1 X253.2894 Y104.1693
G1 X264.9795 Y110.8446
G1 X253.2894 Y104.1693
G1 X274.0377 Y108.1836
G1 X280.9953 Y111.6043
G1 X260.3757 Y100.4829
G1 X253.2894 Y104.1693
G1 X239.4739 Y99.5863
G1 X235.4803 Y108.7773
G1 X233.7575 Y119.1846
G1 X222.2750 Y117.2833
G1 X235.4803 Y108.7773
G1 X223.1800 Y106.7763
G1 X235.4803 Y108.7773
G1 X222.2750 Y117.2833
G1 X223.1800 Y106.7763
G1 X239.4739 Y99.5863
G1 X260.3757 Y100.4829
G1 X274.0377 Y108.1836
G1 X253.2894 Y104.1693
G1 X235.4803 Y108.7773
G1 X239.4739 Y99.5863
G1 X253.2894 Y104.1693
G1 X247.2783 Y112.7667
G1 X233.7575 Y119.1846
G1 X244.7253 Y122.9208
G1 X246.6017 Y130.6754
G1 X234.9655 Y126.6943
G1 X244.7253 Y122.9208
G1 X234.9655 Y126.6943
G1 X233.7575 Y119.1846
G1 X235.4803 Y108.7773
G1 X247.2783 Y112.7667
G1 X244.7253 Y122.9208
G1 X233.7575 Y119.1846
G1 X247.2783 Y112.7667
G1 X235.4803 Y108.7773
G1 X253.2894 Y104.1693
G1 X260.3757 Y100.4829
G1 X280.9953 Y111.6043
G0 Z90.0
G1 X257.1211 Y111.2556
G1 Z0.0000
G1 X245.3729 Y126.6113
G1 X254.9998 Y104.5720
G1 X255.9380 Y80.3918
G1 X245.0491 Y76.8678
G1 X235.3765 Y78.1555
G1 X230.6274 Y83.6871
G1 X232.9605 Y73.6592
G1 X235.3765 Y78.1555
G1 X238.1164 Y66.3587
G1 X245.0491 Y76.8678
G1 X248.2622 Y62.8534
G1 X255.9380 Y80.3918
G1 X263.7632 Y87.3656
G1 X254.9998 Y104.5720
G1 X257.1211 Y111.2556
G1 X254.9998 Y104.5720
G1 X263.7632 Y87.3656
G1 X255.9380 Y80.3918
G1 X259.4624 Y64.5633
G1 X255.9380 Y80.3918
G1 X248.2622 Y62.8534
G1 X245.0491 Y76.8678
G1 X238.1164 Y66.3587
G1 X235.3765 Y78.1555
G1 X232.9605 Y73.6592
G1 X238.1164 Y66.3587
G1 X248.2622 Y62.8534
G1 X259.4624 Y64.5633
G1 X263.7632 Y87.3656
G1 X257.1211 Y111.2556
G0 Z90.0
G1 X265.4735 Y95.0144
G1 Z0.0000
G1 X257.1211 Y111.2556
G1 X263.7632 Y87.3656
G1 X265.4735 Y95.0144
G1 X263.7632 Y87.3656
G1 X267.3209 Y70.8214
G1 X263.7632 Y87.3656
G1 X259.4624 Y64.5633
G1 X248.2622 Y62.8534
G1 X238.1164 Y66.3587
G1 X232.9605 Y73.6592
G1 X231.7234 Y64.3628
G1 X238.1164 Y66.3587
G1 X236.6966 Y55.6272
G1 X248.2622 Y62.8534
G1 X246.5269 Y50.3064
G1 X259.4624 Y64.5633
G1 X267.3209 Y70.8214
G1 X265.4735 Y95.0144
G0 Z90.0
G1 X268.8361 Y79.1510
G1 Z0.0000
G1 X265.4735 Y95.0144
G1 X267.3209 Y70.8214
G1 X259.4624 Y64.5633
G1 X246.5269 Y50.3064
G1 X248.2622 Y62.8534
G1 X236.6966 Y55.6272
G1 X238.1164 Y66.3587
G1 X231.7234 Y64.3628
G1 X236.6966 Y55.6272
G1 X246.5269 Y50.3064
G1 X257.3785 Y50.4957
G1 X259.4624 Y64.5633
G1 X257.3785 Y50.4957
G1 X267.3209 Y70.8214
G1 X268.8361 Y79.1510
G1 X267.3209 Y70.8214
G1 X265.0293 Y56.1075
G1 X267.3209 Y70.8214
G1 X257.3785 Y50.4957
G1 X246.5269 Y50.3064
G1 X236.6966 Y55.6272
G1 X231.7234 Y64.3628
G1 X233.4420 Y73.1279
G1 X228.7303 Y65.8278
G1 X231.7234 Y64.3628
G1 X226.7833 Y56.7036
G1 X236.6966 Y55.6272
G1 X231.0052 Y46.8874
G1 X246.5269 Y50.3064
G1 X239.8060 Y40.1930
G1 X246.5269 Y50.3064
G1 X231.0052 Y46.8874
G1 X236.6966 Y55.6272
G1 X226.7833 Y56.7036
G1 X231.7234 Y64.3628
G1 X228.7303 Y65.8278
G1 X226.7833 Y56.7036
G1 X231.0052 Y46.8874
G1 X239.8060 Y40.1930
G1 X257.3785 Y50.4957
G1 X265.0293 Y56.1075
G1 X268.8361 Y79.1510
G0 Z90.0
G1 X266.5612 Y64.9178
G1 Z0.0000
G1 X268.8361 Y79.1510
G1 X265.0293 Y56.1075
G1 X257.3785 Y50.4957
G1 X249.7484 Y39.2494
G1 X256.9883 Y44.3522
G1 X265.0293 Y56.1075
G1 X249.7484 Y39.2494
G1 X257.3785 Y50.4957
G1 X239.8060 Y40.1930
G1 X228.6597 Y33.3915
G1 X249.7484 Y39.2494
G1 X239.8060 Y40.1930
G1 X231.0052 Y46.8874
G1 X226.7833 Y56.7036
G1 X228.7303 Y65.8278
G1 X236.0283 Y70.7874
G1 X227.6302 Y65.3981
G1 X228.7303 Y65.8278
G1 X220.8469 Y60.7823
G1 X226.7833 Y56.7036
G1 X218.4558 Y51.4285
G1 X231.0052 Y46.8874
G1 X221.4489 Y40.9307
G1 X228.6597 Y33.3915
G1 X239.8060 Y40.1930
G1 X221.4489 Y40.9307
G1 X231.0052 Y46.8874
G1 X218.4558 Y51.4285
G1 X226.7833 Y56.7036
G1 X220.8469 Y60.7823
G1 X228.7303 Y65.8278
G1 X227.6302 Y65.3981
G1 X220.8469 Y60.7823
G1 X218.4558 Y51.4285
G1 X221.4489 Y40.9307
G1 X239.8060 Y40.1930
G1 X249.7484 Y39.2494
G1 X265.0293 Y56.1075
G1 X266.5612 Y64.9178
G0 Z90.0
G1 X244.1648 Y95.1684
G1 Z0.0000
G1 X260.3757 Y100.4829
G1 X239.4739 Y99.5863
G1 X244.1648 Y95.1684
G0 Z90.0
G1 X242.6994 Y121.5301
G1 Z0.0000
G1 X245.3729 Y126.6113
G1 X232.7986 Y139.5717
G1 X229.7017 Y137.4504
G1 X219.4521 Y150.1866
G1 X212.6854 Y147.3139
G1 X205.9441 Y159.1368
G1 X196.7577 Y155.2346
G1 X190.7952 Y165.7457
G1 X181.3277 Y159.4191
G1 X176.2427 Y150.3610
G1 X184.9372 Y137.7991
G1 X176.2427 Y150.3610
G1 X186.8718 Y131.0989
G1 X184.9372 Y137.7991
G1 X186.8718 Y131.0989
G1 X199.2161 Y121.1191
G1 X184.9372 Y137.7991
G1 X181.3277 Y159.4191
G1 X188.6967 Y147.0441
G1 X190.7952 Y165.7457
G1 X188.6967 Y147.0441
G1 X181.3277 Y159.4191
G1 X184.9372 Y137.7991
G1 X188.6967 Y147.0441
G1 X196.7577 Y155.2346
G1 X204.5485 Y139.8747
G1 X205.9441 Y159.1368
G1 X204.5485 Y139.8747
G1 X212.6854 Y147.3139
G1 X222.9226 Y130.8207
G1 X219.4521 Y150.1866
G1 X222.9226 Y130.8207
G1 X229.7017 Y137.4504
G1 X235.6339 Y113.7713
G1 X237.5186 Y91.5012
G1 X226.9286 Y106.4027
G1 X220.0291 Y102.3012
G1 X209.3187 Y115.1288
G1 X207.8077 Y112.2187
G1 X217.5798 Y103.0277
G1 X209.3187 Y115.1288
G1 X217.5798 Y103.0277
G1 X220.0291 Y102.3012
G1 X229.0375 Y90.2495
G1 X226.9286 Y106.4027
G1 X229.0375 Y90.2495
G1 X237.5186 Y91.5012
G1 X247.4859 Y96.9933
G1 X235.6339 Y113.7713
G1 X242.6994 Y121.5301
G0 Z90.0
G1 X235.6339 Y113.7713
G1 Z0.0000
G1 X222.9226 Y130.8207
G1 X215.0932 Y122.2441
G1 X226.9286 Y106.4027
G1 X222.9226 Y130.8207
G1 X226.9286 Y106.4027
G1 X235.6339 Y113.7713
G0 Z90.0
G1 X224.9609 Y97.1939
G1 Z0.0000
G1 X239.4739 Y99.5863
G1 X223.1800 Y106.7763
G1 X224.9609 Y97.1939
G0 Z90.0
G1 X206.7864 Y94.6034
G1 Z0.0000
G1 X201.0584 Y79.3860
G1 X207.3759 Y79.3739
G1 X206.7864 Y94.6034
G1 X204.2570 Y104.3520
G1 X204.1429 Y97.3595
G1 X204.5368 Y109.9977
G1 X204.2334 Y119.3050
G1 X205.0628 Y126.8106
G1 X207.6790 Y132.4979
G1 X203.1474 Y141.2945
G1 X209.2980 Y144.7401
G1 X201.7513 Y152.7231
G1 X192.6317 Y156.7581
G1 X183.9434 Y148.8872
G1 X192.6317 Y156.7581
G1 X176.7571 Y144.7733
G1 X183.9434 Y148.8872
G1 X201.7513 Y152.7231
G1 X194.0390 Y147.5713
G1 X209.2980 Y144.7401
G1 X194.0390 Y147.5713
G1 X201.7513 Y152.7231
G1 X183.9434 Y148.8872
G1 X176.7571 Y144.7733
G1 X171.8037 Y134.1086
G1 X183.9434 Y148.8872
G1 X194.0390 Y147.5713
G1 X203.1474 Y141.2945
G1 X199.8637 Y134.7894
G1 X207.6790 Y132.4979
G1 X199.8637 Y134.7894
G1 X205.0628 Y126.8106
G1 X199.8637 Y134.7894
G1 X203.1474 Y141.2945
G1 X194.0390 Y147.5713
G1 X183.9434 Y148.8872
G1 X171.8037 Y134.1086
G1 X170.5272 Y126.0509
G1 X168.9954 Y114.7551
G1 X171.8037 Y134.1086
G1 X179.2055 Y139.3143
G1 X183.9434 Y148.8872
G1 X179.2055 Y139.3143
G1 X194.0390 Y147.5713
G1 X189.9670 Y139.5841
G1 X203.1474 Y141.2945
G1 X189.9670 Y139.5841
G1 X194.0390 Y147.5713
G1 X179.2055 Y139.3143
G1 X189.9670 Y139.5841
G1 X199.8637 Y134.7894
G1 X198.7242 Y125.8267
G1 X205.0628 Y126.8106
G1 X198.7242 Y125.8267
G1 X204.2334 Y119.3050
G1 X198.7242 Y125.8267
G1 X199.8637 Y134.7894
G1 X189.9670 Y139.5841
G1 X179.2055 Y139.3143
G1 X171.8037 Y134.1086
G1 X168.9954 Y114.7551
G1 X170.0585 Y122.1030
G1 X171.8037 Y134.1086
G1 X170.0585 Y122.1030
G1 X179.2055 Y139.3143
G1 X177.5130 Y127.5703
G1 X189.9670 Y139.5841
G1 X188.5024 Y129.0149
G1 X199.8637 Y134.7894
G1 X188.5024 Y129.0149
G1 X198.7242 Y125.8267
G1 X198.1646 Y114.1740
G1 X204.2334 Y119.3050
G1 X198.1646 Y114.1740
G1 X204.5368 Y109.9977
G1 X198.1646 Y114.1740
G1 X198.7242 Y125.8267
G1 X188.5024 Y129.0149
G1 X189.9670 Y139.5841
G1 X177.5130 Y127.5703
G1 X179.2055 Y139.3143
G1 X170.0585 Y122.1030
G1 X168.9954 Y114.7551
G1 X170.0461 Y101.9650
G1 X170.0585 Y122.1030
G1 X177.5130 Y127.5703
G1 X188.5024 Y129.0149
G1 X177.5130 Y127.5703
G1 X170.0585 Y122.1030
G1 X170.0461 Y101.9650
G1 X170.0814 Y107.5983
G1 X170.0585 Y122.1030
G1 X170.0814 Y107.5983
G1 X170.0461 Y101.9650
G1 X173.5369 Y88.8871
G1 X170.0814 Y107.5983
G1 X177.5130 Y127.5703
G1 X176.7351 Y112.6795
G1 X188.5024 Y129.0149
G1 X187.5003 Y115.2035
G1 X198.7242 Y125.8267
G1 X187.5003 Y115.2035
G1 X198.1646 Y114.1740
G1 X195.4920 Y98.5152
G1 X204.5368 Y109.9977
G1 X195.4920 Y98.5152
G1 X204.1429 Y97.3595
G1 X201.0584 Y79.3860
G1 X206.7864 Y94.6034
G0 Z90.0
G1 X201.0584 Y79.3860
G1 Z0.0000
G1 X190.3273 Y79.1398
G1 X195.4920 Y98.5152
G1 X179.3828 Y78.7164
G1 X190.3273 Y79.1398
G1 X185.6185 Y59.9474
G1 X201.0584 Y79.3860
G0 Z90.0
G1 X191.2186 Y39.6318
G1 Z0.0000
G1 X196.8880 Y59.0259
G1 X207.3759 Y79.3739
G1 X201.0584 Y79.3860
G1 X196.8880 Y59.0259
G1 X191.2186 Y39.6318
G0 Z90.0
G1 X196.8880 Y59.0259
G1 Z0.0000
G1 X185.6185 Y59.9474
G1 X180.3214 Y42.6298
G1 X196.8880 Y59.0259
G0 Z90.0
G1 X191.2186 Y39.6318
G1 Z0.0000
G1 X182.5361 Y22.9281
G1 X200.0057 Y40.1357
G1 X207.1642 Y62.0459
G1 X205.1255 Y59.8437
G1 X207.1642 Y62.0459
G1 X206.8944 Y79.1062
G1 X205.1255 Y59.8437
G1 X200.0057 Y40.1357
G1 X191.2186 Y39.6318
G1 X180.3214 Y42.6298
G1 X185.6185 Y59.9474
G1 X175.7508 Y62.2469
G1 X168.4619 Y53.4714
G1 X171.6153 Y47.9385
G1 X163.4285 Y43.3459
G1 X165.2874 Y35.6851
G1 X171.6153 Y47.9385
G1 X175.7508 Y62.2469
G1 X179.3828 Y78.7164
G1 X172.5406 Y78.2992
G1 X172.3750 Y78.0239
G1 X173.4792 Y67.1545
G1 X172.5406 Y78.2992
G1 X174.6640 Y94.9123
G1 X170.6426 Y91.5821
G1 X176.7351 Y112.6795
G1 X177.5130 Y127.5703
G1 X170.0814 Y107.5983
G1 X176.7351 Y112.6795
G1 X170.0814 Y107.5983
G1 X170.6426 Y91.5821
G1 X172.3750 Y78.0239
G1 X174.6640 Y94.9123
G1 X172.3750 Y78.0239
G1 X172.5406 Y78.2992
G1 X171.1570 Y64.9988
G1 X168.4619 Y53.4714
G1 X163.4285 Y43.3459
G1 X171.6153 Y47.9385
G1 X168.4619 Y53.4714
G1 X175.7508 Y62.2469
G1 X171.1570 Y64.9988
G1 X179.3828 Y78.7164
G1 X171.1570 Y64.9988
G1 X175.7508 Y62.2469
G1 X171.6153 Y47.9385
G1 X165.2874 Y35.6851
G1 X172.5975 Y27.8491
G1 X180.3214 Y42.6298
G1 X165.2874 Y35.6851
G1 X180.3214 Y42.6298
G1 X171.6153 Y47.9385
G1 X185.6185 Y59.9474
G1 X171.6153 Y47.9385
G1 X180.3214 Y42.6298
G1 X191.2186 Y39.6318
G1 X200.0057 Y40.1357
G1 X205.1255 Y59.8437
G1 X191.2186 Y39.6318
G0 Z90.0
G1 X196.8880 Y59.0259
G1 Z0.0000
G1 X201.0584 Y79.3860
G1 X204.1429 Y97.3595
G1 X195.4920 Y98.5152
G1 X198.1646 Y114.1740
G1 X187.5003 Y115.2035
G1 X188.5024 Y129.0149
G1 X176.7351 Y112.6795
G1 X187.5003 Y115.2035
G1 X176.7351 Y112.6795
G1 X170.6426 Y91.5821
G1 X174.6640 Y94.9123
G1 X176.7351 Y112.6795
G1 X174.6640 Y94.9123
G1 X187.5003 Y115.2035
G1 X184.1775 Y97.5720
G1 X198.1646 Y114.1740
G1 X184.1775 Y97.5720
G1 X174.6640 Y94.9123
G1 X172.5406 Y78.2992
G1 X184.1775 Y97.5720
G1 X187.5003 Y115.2035
G1 X174.6640 Y94.9123
G1 X184.1775 Y97.5720
G1 X195.4920 Y98.5152
G1 X190.3273 Y79.1398
G1 X204.1429 Y97.3595
G1 X190.3273 Y79.1398
G1 X201.0584 Y79.3860
G1 X185.6185 Y59.9474
G1 X190.3273 Y79.1398
G1 X179.3828 Y78.7164
G1 X184.1775 Y97.5720
G1 X172.5406 Y78.2992
G1 X179.3828 Y78.7164
G1 X195.4920 Y98.5152
G1 X184.1775 Y97.5720
G1 X179.3828 Y78.7164
G1 X175.7508 Y62.2469
G1 X190.3273 Y79.1398
G1 X175.7508 Y62.2469
G1 X185.6185 Y59.9474
G1 X196.8880 Y59.0259
G0 Z90.0
G1 X191.2186 Y39.6318
G1 Z0.0000
G1 X172.5975 Y27.8491
G1 X182.5361 Y22.9281
G1 X191.2186 Y39.6318
G0 Z90.0
G1 X191.1671 Y22.8434
G1 Z0.0000
G1 X182.5361 Y22.9281
G1 X172.5975 Y27.8491
G1 X165.2874 Y35.6851
G1 X163.4285 Y43.3459
G1 X155.8025 Y35.3190
G1 X165.2874 Y35.6851
G1 X156.2322 Y26.1840
G1 X172.5975 Y27.8491
G1 X161.7870 Y16.5662
G1 X170.2927 Y10.2629
G1 X182.5361 Y22.9281
G1 X161.7870 Y16.5662
G1 X172.5975 Y27.8491
G1 X156.2322 Y26.1840
G1 X165.2874 Y35.6851
G1 X155.8025 Y35.3190
G1 X163.4285 Y43.3459
G1 X167.6449 Y47.8929
G1 X160.5786 Y40.4682
G1 X163.4285 Y43.3459
G1 X160.5786 Y40.4682
G1 X155.8025 Y35.3190
G1 X156.2322 Y26.1840
G1 X161.7870 Y16.5662
G1 X182.5361 Y22.9281
G1 X191.1671 Y22.8434
G1 X203.2948 Y43.8777
G1 X200.0057 Y40.1357
G1 X182.5361 Y22.9281
G1 X170.2927 Y10.2629
G1 X191.1671 Y22.8434
G0 Z90.0
G1 X178.4105 Y9.7024
G1 Z0.0000
G1 X191.1671 Y22.8434
G1 X170.2927 Y10.2629
G1 X161.7870 Y16.5662
G1 X144.6363 Y20.3261
G1 X156.2322 Y26.1840
G1 X145.8315 Y30.2743
G1 X155.8025 Y35.3190
G1 X151.1750 Y35.7424
G1 X145.8315 Y30.2743
G1 X144.6363 Y20.3261
G1 X148.1143 Y9.7477
G1 X161.7870 Y16.5662
G1 X156.2322 Y26.1840
G1 X155.8025 Y35.3190
G1 X160.5786 Y40.4682
G1 X151.1750 Y35.7424
G1 X155.8025 Y35.3190
G1 X145.8315 Y30.2743
G1 X156.2322 Y26.1840
G1 X144.6363 Y20.3261
G1 X161.7870 Y16.5662
G1 X148.1143 Y9.7477
G1 X170.2927 Y10.2629
G1 X178.4105 Y9.7024
G1 X170.2927 Y10.2629
G1 X154.9095 Y2.6950
G1 X170.2927 Y10.2629
G1 X148.1143 Y9.7477
G1 X144.6363 Y20.3261
G1 X145.8315 Y30.2743
G1 X151.1750 Y35.7424
G1 X140.1230 Y34.4434
G1 X145.8315 Y30.2743
G1 X134.1609 Y28.9002
G1 X144.6363 Y20.3261
G1 X131.2097 Y18.7805
G1 X148.1143 Y9.7477
G1 X154.9095 Y2.6950
G1 X178.4105 Y9.7024
G0 Z90.0
G1 X162.3358 Y1.8706
G1 Z0.0000
G1 X154.9095 Y2.6950
G1 X137.4043 Y0.8643
G1 X154.9095 Y2.6950
G1 X132.4505 Y8.0369
G1 X116.0159 Y11.6411
G1 X137.4043 Y0.8643
G1 X144.0987 Y0.0000
G1 X162.3358 Y1.8706
G1 X178.4105 Y9.7024
G1 X154.9095 Y2.6950
G1 X148.1143 Y9.7477
G1 X131.2097 Y18.7805
G1 X144.6363 Y20.3261
G1 X134.1609 Y28.9002
G1 X145.8315 Y30.2743
G1 X140.1230 Y34.4434
G1 X134.1609 Y28.9002
G1 X131.2097 Y18.7805
G1 X132.4505 Y8.0369
G1 X148.1143 Y9.7477
G1 X132.4505 Y8.0369
G1 X154.9095 Y2.6950
G1 X162.3358 Y1.8706
G1 X137.4043 Y0.8643
G1 X132.4505 Y8.0369
G1 X131.2097 Y18.7805
G1 X134.1609 Y28.9002
G1 X140.1230 Y34.4434
G1 X146.7701 Y33.3629
G1 X134.3161 Y35.9666
G1 X140.1230 Y34.4434
G1 X128.3719 Y36.9035
G1 X134.1609 Y28.9002
G1 X121.7418 Y31.5259
G1 X131.2097 Y18.7805
G1 X117.0002 Y21.8475
G1 X116.0159 Y11.6411
G1 X132.4505 Y8.0369
G1 X117.0002 Y21.8475
G1 X131.2097 Y18.7805
G1 X121.7418 Y31.5259
G1 X134.1609 Y28.9002
G1 X128.3719 Y36.9035
G1 X140.1230 Y34.4434
G1 X134.3161 Y35.9666
G1 X128.3719 Y36.9035
G1 X121.7418 Y31.5259
G1 X117.0002 Y21.8475
G1 X132.4505 Y8.0369
G1 X137.4043 Y0.8643
G1 X162.3358 Y1.8706
G0 Z90.0
G1 X191.1671 Y22.8434
G1 Z0.0000
G1 X200.0057 Y40.1357
G1 X203.2948 Y43.8777
G1 X207.1642 Y62.0459
G1 X200.0057 Y40.1357
G1 X191.1671 Y22.8434
G0 Z90.0
G1 X202.7235 Y29.6952
G1 Z0.0000
G1 X221.1500 Y28.4656
G1 X197.4368 Y31.5379
G1 X179.3944 Y43.4310
G1 X169.5546 Y59.3293
G1 X165.0288 Y50.3994
G1 X179.3944 Y43.4310
G1 X180.0408 Y36.4805
G1 X197.4368 Y31.5379
G1 X202.7235 Y29.6952
G0 Z90.0
G1 X191.1671 Y22.8434
G1 Z0.0000
G1 X195.1889 Y27.5676
G1 X203.2948 Y43.8777
G1 X191.1671 Y22.8434
G0 Z90.0
G1 X237.2944 Y31.7148
G1 Z0.0000
G1 X249.7484 Y39.2494
G1 X228.6597 Y33.3915
G1 X221.4489 Y40.9307
G1 X207.4755 Y49.0664
G1 X218.4558 Y51.4285
G1 X210.4935 Y58.4829
G1 X220.8469 Y60.7823
G1 X216.6998 Y62.9380
G1 X210.4935 Y58.4829
G1 X207.4755 Y49.0664
G1 X208.8621 Y38.3228
G1 X221.4489 Y40.9307
G1 X218.4558 Y51.4285
G1 X220.8469 Y60.7823
G1 X227.6302 Y65.3981
G1 X216.6998 Y62.9380
G1 X220.8469 Y60.7823
G1 X210.4935 Y58.4829
G1 X218.4558 Y51.4285
G1 X207.4755 Y49.0664
G1 X221.4489 Y40.9307
G1 X208.8621 Y38.3228
G1 X228.6597 Y33.3915
G1 X237.2944 Y31.7148
G1 X228.6597 Y33.3915
G1 X214.1052 Y30.4337
G1 X228.6597 Y33.3915
G1 X208.8621 Y38.3228
G1 X207.4755 Y49.0664
G1 X210.4935 Y58.4829
G1 X216.6998 Y62.9380
G1 X204.2790 Y63.5458
G1 X210.4935 Y58.4829
G1 X198.6905 Y59.1056
G1 X207.4755 Y49.0664
G1 X194.9091 Y49.7929
G1 X208.8621 Y38.3228
G1 X214.1052 Y30.4337
G1 X237.2944 Y31.7148
G0 Z90.0
G1 X221.1500 Y28.4656
G1 Z0.0000
G1 X237.2944 Y31.7148
G1 X214.1052 Y30.4337
G1 X194.4288 Y39.2208
G1 X181.8769 Y53.3846
G1 X194.9091 Y49.7929
G1 X186.5280 Y62.4237
G1 X181.8769 Y53.3846
G1 X179.3944 Y43.4310
G1 X194.4288 Y39.2208
G1 X194.9091 Y49.7929
G1 X198.6905 Y59.1056
G1 X186.5280 Y62.4237
G1 X194.9091 Y49.7929
G1 X181.8769 Y53.3846
G1 X194.4288 Y39.2208
G1 X197.4368 Y31.5379
G1 X214.1052 Y30.4337
G1 X208.8621 Y38.3228
G1 X194.9091 Y49.7929
G1 X207.4755 Y49.0664
G1 X198.6905 Y59.1056
G1 X210.4935 Y58.4829
G1 X204.2790 Y63.5458
G1 X198.6905 Y59.1056
G1 X194.9091 Y49.7929
G1 X194.4288 Y39.2208
G1 X208.8621 Y38.3228
G1 X194.4288 Y39.2208
G1 X214.1052 Y30.4337
G1 X221.1500 Y28.4656
G1 X214.1052 Y30.4337
G1 X197.4368 Y31.5379
G1 X194.4288 Y39.2208
G1 X179.3944 Y43.4310
G1 X181.8769 Y53.3846
G1 X175.0584 Y67.9391
G1 X169.5546 Y59.3293
G1 X181.8769 Y53.3846
G1 X186.5280 Y62.4237
G1 X198.6905 Y59.1056
G1 X204.2790 Y63.5458
G1 X191.5113 Y67.0242
G1 X198.6905 Y59.1056
G1 X191.5113 Y67.0242
G1 X186.5280 Y62.4237
G1 X175.0584 Y67.9391
G1 X181.8769 Y53.3846
G1 X169.5546 Y59.3293
G1 X179.3944 Y43.4310
G1 X197.4368 Y31.5379
G1 X221.1500 Y28.4656
G0 Z90.0
G1 X202.7235 Y29.6952
G1 Z0.0000
G1 X197.4368 Y31.5379
G1 X180.0408 Y36.4805
G1 X202.7235 Y29.6952
G0 Z90.0
G1 X191.2186 Y39.6318
G1 Z0.0000
G1 X205.1255 Y59.8437
G1 X196.8880 Y59.0259
G1 X205.1255 Y59.8437
G1 X207.3759 Y79.3739
G1 X196.8880 Y59.0259
G1 X180.3214 Y42.6298
G1 X172.5975 Y27.8491
G1 X191.2186 Y39.6318
G0 Z90.0
G1 X147.5870 Y57.6078
G1 Z0.0000
G1 X131.1014 Y49.5351
G1 X134.3381 Y45.4328
G1 X147.5870 Y57.6078
G1 X153.6002 Y68.9118
G1 X147.3986 Y60.6623
G1 X158.1198 Y71.2677
G1 X163.4405 Y80.2553
G1 X167.3519 Y87.2000
G1 X171.1333 Y91.8852
G1 X174.7097 Y93.8985
G1 X177.6621 Y93.2119
G1 X174.7097 Y93.8985
G1 X169.6114 Y92.9437
G1 X177.6621 Y93.2119
G1 X183.9766 Y99.8063
G1 X177.6621 Y93.2119
G1 X182.0890 Y92.1309
G1 X183.9766 Y99.8063
G1 X188.1479 Y95.1178
G1 X183.9766 Y99.8063
G1 X182.0890 Y92.1309
G1 X188.1479 Y95.1178
G1 X192.2718 Y103.6462
G1 X188.1479 Y95.1178
G1 X182.0890 Y92.1309
G1 X192.9530 Y92.1882
G1 X188.1479 Y95.1178
G1 X196.6884 Y92.3534
G1 X192.2718 Y103.6462
G1 X199.9837 Y98.8141
G1 X201.5168 Y109.1094
G1 X211.2532 Y96.9028
G1 X211.5438 Y106.7763
G1 X223.1800
G1 X211.1661 Y117.2293
G1 X211.5438 Y106.7763
G1 X224.9609 Y97.1939
G1 X223.1800 Y106.7763
G1 X222.2750 Y117.2833
G1 X233.7575 Y119.1846
G1 X222.6154 Y124.5605
G1 X233.7575 Y119.1846
G1 X234.9655 Y126.6943
G1 X246.6017 Y130.6754
G1 X238.5979 Y128.4503
G1 X246.6017 Y130.6754
G1 X252.1146 Y133.0666
G1 X238.5979 Y128.4503
G1 X234.9655 Y126.6943
G1 X222.6154 Y124.5605
G1 X222.2750 Y117.2833
G1 X211.1661 Y117.2293
G1 X223.1800 Y106.7763
G1 X211.5438
G1 X201.5168 Y109.1094
G1 X199.9837 Y98.8141
G1 X192.2718 Y103.6462
G1 X196.6884 Y92.3534
G1 X199.9837 Y98.8141
G1 X211.2532 Y96.9028
G1 X201.5168 Y109.1094
G1 X200.6927 Y119.2054
G1 X211.5438 Y106.7763
G1 X211.2532 Y96.9028
G1 X199.9837 Y98.8141
G1 X210.3939 Y91.4796
G1 X199.9837 Y98.8141
G1 X196.6884 Y92.3534
G1 X188.1479 Y95.1178
G1 X192.9530 Y92.1882
G1 X196.6884 Y92.3534
G1 X192.9530 Y92.1882
G1 X209.3312 Y92.4971
G1 X196.6884 Y92.3534
G1 X210.3939 Y91.4796
G1 X211.2532 Y96.9028
G1 X224.9609 Y97.1939
G1 X244.1648 Y95.1684
G1 X239.4739 Y99.5863
G1 X224.9609 Y97.1939
G1 X211.2532 Y96.9028
G1 X226.9161 Y92.2629
G1 X224.9609 Y97.1939
G1 X226.9161 Y92.2629
G1 X211.2532 Y96.9028
G1 X210.3939 Y91.4796
G1 X226.9161 Y92.2629
G1 X244.1648 Y95.1684
G1 X224.9609 Y97.1939
G1 X211.5438 Y106.7763
G1 X211.1661 Y117.2293
G1 X200.6927 Y119.2054
G1 X189.6120 Y123.2280
G1 X183.8861 Y126.6487
G1 X168.2793 Y125.9346
G1 X189.6120 Y123.2280
G1 X200.6927 Y119.2054
G1 X197.8499 Y125.1459
G1 X183.8861 Y126.6487
G1 X200.6927 Y119.2054
G1 X211.1661 Y117.2293
G1 X210.2694 Y124.1288
G1 X209.1983 Y124.8885
G1 X194.0963 Y124.7266
G1 X210.2694 Y124.1288
G1 X222.6154 Y124.5605
G1 X224.0434 Y125.8475
G1 X209.1983 Y124.8885
G1 X222.6154 Y124.5605
G1 X209.1983 Y124.8885
G1 X210.2694 Y124.1288
G1 X197.8499 Y125.1459
G1 X211.1661 Y117.2293
G1 X222.2750 Y117.2833
G1 X222.6154 Y124.5605
G1 X234.9655 Y126.6943
G1 X238.5979 Y128.4503
G1 X224.0434 Y125.8475
G1 X234.9655 Y126.6943
G1 X224.0434 Y125.8475
G1 X222.6154 Y124.5605
G1 X210.2694 Y124.1288
G1 X222.2750 Y117.2833
G1 X210.2694 Y124.1288
G1 X211.1661 Y117.2293
G1 X197.8499 Y125.1459
G1 X200.6927 Y119.2054
G1 X183.8861 Y126.6487
G1 X189.6120 Y123.2280
G1 X201.5168 Y109.1094
G1 X211.5438 Y106.7763
G1 X200.6927 Y119.2054
G1 X201.5168 Y109.1094
G1 X192.8322 Y114.4313
G1 X199.9837 Y98.8141
G1 X192.8322 Y114.4313
G1 X201.5168 Y109.1094
G1 X189.6120 Y123.2280
G1 X192.8322 Y114.4313
G1 X189.6120 Y123.2280
G1 X176.3175 Y126.3913
G1 X168.2793 Y125.9346
G1 X155.7282 Y122.8045
G1 X176.3175 Y126.3913
G1 X192.8322 Y114.4313
G1 X192.2718 Y103.6462
G1 X186.0872 Y110.2219
G1 X188.1479 Y95.1178
G1 X186.0872 Y110.2219
G1 X183.9766 Y99.8063
G1 X179.8411 Y102.2929
G1 X177.6621 Y93.2119
G1 X179.8411 Y102.2929
G1 X174.7097 Y93.8985
G1 X179.8411 Y102.2929
G1 X183.9766 Y99.8063
G1 X186.0872 Y110.2219
G1 X192.2718 Y103.6462
G1 X192.8322 Y114.4313
G1 X176.3175 Y126.3913
G1 X183.1360 Y120.4051
G1 X192.8322 Y114.4313
G1 X183.1360 Y120.4051
G1 X192.2718 Y103.6462
G1 X183.1360 Y120.4051
G1 X176.3175 Y126.3913
G1 X164.3895 Y125.7354
G1 X183.1360 Y120.4051
G1 X186.0872 Y110.2219
G1 X183.1360 Y120.4051
G1 X173.4219 Y122.0324
G1 X186.0872 Y110.2219
G1 X179.3492 Y113.0573
G1 X183.9766 Y99.8063
G1 X179.3492 Y113.0573
G1 X179.8411 Y102.2929
G1 X175.3788 Y100.4165
G1 X174.7097 Y93.8985
G1 X175.3788 Y100.4165
G1 X171.1333 Y91.8852
G1 X175.3788 Y100.4165
G1 X179.8411 Y102.2929
G1 X179.3492 Y113.0573
G1 X186.0872 Y110.2219
G1 X173.4219 Y122.0324
G1 X183.1360 Y120.4051
G1 X164.3895 Y125.7354
G1 X173.4219 Y122.0324
G1 X179.3492 Y113.0573
G1 X173.4219 Y122.0324
G1 X164.3895 Y125.7354
G1 X155.7282 Y122.8045
G1 X147.3409 Y118.1094
G1 X164.3895 Y125.7354
G1 X156.0375 Y121.7003
G1 X173.4219 Y122.0324
G1 X166.0131 Y118.9148
G1 X179.3492 Y113.0573
G1 X173.4335 Y110.7657
G1 X179.8411 Y102.2929
G1 X173.4335 Y110.7657
G1 X175.3788 Y100.4165
G1 X170.8772 Y94.9580
G1 X171.1333 Y91.8852
G1 X170.8772 Y94.9580
G1 X167.3519 Y87.2000
G1 X170.8772 Y94.9580
G1 X175.3788 Y100.4165
G1 X173.4335 Y110.7657
G1 X179.3492 Y113.0573
G1 X166.0131 Y118.9148
G1 X173.4219 Y122.0324
G1 X156.0375 Y121.7003
G1 X164.3895 Y125.7354
G1 X147.3409 Y118.1094
G1 X156.0375 Y121.7003
G1 X166.0131 Y118.9148
G1 X173.4335 Y110.7657
G1 X168.0111 Y104.3852
G1 X175.3788 Y100.4165
G1 X168.0111 Y104.3852
G1 X170.8772 Y94.9580
G1 X165.4643 Y86.8853
G1 X167.3519 Y87.2000
G1 X165.4643 Y86.8853
G1 X163.4405 Y80.2553
G1 X165.4643 Y86.8853
G1 X170.8772 Y94.9580
G1 X168.0111 Y104.3852
G1 X173.4335 Y110.7657
G1 X166.0131 Y118.9148
G1 X156.0375 Y121.7003
G1 X147.3409 Y118.1094
G1 X141.0263 Y111.0314
G1 X156.0375 Y121.7003
G1 X149.4747 Y114.3442
G1 X166.0131 Y118.9148
G1 X159.8185 Y111.8160
G1 X173.4335 Y110.7657
G1 X159.8185 Y111.8160
G1 X166.0131 Y118.9148
G1 X149.4747 Y114.3442
G1 X156.0375 Y121.7003
G1 X141.0263 Y111.0314
G1 X149.4747 Y114.3442
G1 X159.8185 Y111.8160
G1 X168.0111 Y104.3852
G1 X161.1909 Y95.1053
G1 X170.8772 Y94.9580
G1 X161.1909 Y95.1053
G1 X165.4643 Y86.8853
G1 X156.7876 Y77.2854
G1 X163.4405 Y80.2553
G1 X156.7876 Y77.2854
G1 X158.1198 Y71.2677
G1 X156.7876 Y77.2854
G1 X165.4643 Y86.8853
G1 X161.1909 Y95.1053
G1 X168.0111 Y104.3852
G1 X159.8185 Y111.8160
G1 X149.4747 Y114.3442
G1 X141.0263 Y111.0314
G1 X134.6408 Y101.3630
G1 X149.4747 Y114.3442
G1 X142.0326 Y104.0946
G1 X159.8185 Y111.8160
G1 X152.2050 Y101.7117
G1 X168.0111 Y104.3852
G1 X152.2050 Y101.7117
G1 X159.8185 Y111.8160
G1 X142.0326 Y104.0946
G1 X149.4747 Y114.3442
G1 X134.6408 Y101.3630
G1 X142.0326 Y104.0946
G1 X134.6408 Y101.3630
G1 X127.3992 Y90.0719
G1 X142.0326 Y104.0946
G1 X152.2050 Y101.7117
G1 X161.1909 Y95.1053
G1 X150.0023 Y84.6942
G1 X165.4643 Y86.8853
G1 X150.0023 Y84.6942
G1 X156.7876 Y77.2854
G1 X142.1522 Y67.3210
G1 X158.1198 Y71.2677
G1 X142.1522 Y67.3210
G1 X147.3986 Y60.6623
G1 X131.1014 Y49.5351
G1 X147.5870 Y57.6078
G0 Z90.0
G1 X147.3986 Y60.6623
G1 Z0.0000
G1 X142.1522 Y67.3210
G1 X156.7876 Y77.2854
G1 X150.0023 Y84.6942
G1 X161.1909 Y95.1053
G1 X152.2050 Y101.7117
G1 X142.0326 Y104.0946
G1 X131.7353 Y92.5996
G1 X127.3992 Y90.0719
G1 X121.4724 Y78.9277
G1 X131.7353 Y92.5996
G1 X142.0326 Y104.0946
G1 X127.3992 Y90.0719
G1 X131.7353 Y92.5996
G1 X152.2050 Y101.7117
G1 X140.3787 Y90.5646
G1 X161.1909 Y95.1053
G1 X140.3787 Y90.5646
G1 X131.7353 Y92.5996
G1 X121.0610 Y82.1375
G1 X112.4744 Y73.8307
G1 X103.3490 Y67.8810
G1 X92.6295 Y64.5753
G1 X101.7532 Y66.7311
G1 X103.3490 Y67.8810
G1 X113.2694 Y72.6874
G1 X112.4744 Y73.8307
G1 X125.7748 Y80.6729
G1 X121.0610 Y82.1375
G1 X140.3787 Y90.5646
G1 X152.2050 Y101.7117
G1 X131.7353 Y92.5996
G1 X140.3787 Y90.5646
G1 X150.0023 Y84.6942
G1 X140.3787 Y90.5646
G1 X121.0610 Y82.1375
G1 X125.7748 Y80.6729
G1 X112.4744 Y73.8307
G1 X113.2694 Y72.6874
G1 X103.3490 Y67.8810
G1 X101.7532 Y66.7311
G1 X92.6295 Y64.5753
G1 X89.5571 Y63.3565
G1 X101.7532 Y66.7311
G1 X113.2694 Y72.6874
G1 X125.7748 Y80.6729
G1 X140.3787 Y90.5646
G1 X125.7748 Y80.6729
G1 X150.0023 Y84.6942
G1 X133.8475 Y75.0038
G1 X156.7876 Y77.2854
G1 X133.8475 Y75.0038
G1 X125.7748 Y80.6729
G1 X113.2694 Y72.6874
G1 X101.7532 Y66.7311
G1 X89.5571 Y63.3565
G1 X76.6004 Y63.2764
G1 X88.2361 Y55.7982
G1 X89.5571 Y63.3565
G1 X103.2643 Y59.7237
G1 X101.7532 Y66.7311
G1 X117.9840 Y66.4966
G1 X113.2694 Y72.6874
G1 X133.8475 Y75.0038
G1 X150.0023 Y84.6942
G1 X125.7748 Y80.6729
G1 X133.8475 Y75.0038
G1 X142.1522 Y67.3210
G1 X124.8246 Y57.6078
G1 X147.3986 Y60.6623
G1 X124.8246 Y57.6078
G1 X131.1014 Y49.5351
G1 X112.3486 Y40.1025
G1 X92.1371 Y34.6103
G1 X70.7309 Y44.6727
G1 X72.7443 Y55.7193
G1 X88.2361 Y55.7982
G1 X76.6004 Y63.2764
G1 X72.7443 Y55.7193
G1 X57.5837 Y60.0558
G1 X70.7309 Y44.6727
G1 X71.3432 Y34.4899
G1 X92.1371 Y34.6103
G1 X116.3642 Y35.2048
G1 X112.3486 Y40.1025
G1 X134.3381 Y45.4328
G1 X112.3486 Y40.1025
G1 X116.3642 Y35.2048
G1 X134.3381 Y45.4328
G1 X131.1014 Y49.5351
G1 X147.3986 Y60.6623
G0 Z90.0
G1 X131.1014 Y49.5351
G1 Z0.0000
G1 X124.8246 Y57.6078
G1 X117.9840 Y66.4966
G1 X103.2643 Y59.7237
G1 X124.8246 Y57.6078
G1 X142.1522 Y67.3210
G1 X133.8475 Y75.0038
G1 X117.9840 Y66.4966
G1 X133.8475 Y75.0038
G1 X113.2694 Y72.6874
G1 X117.9840 Y66.4966
G1 X142.1522 Y67.3210
G1 X117.9840 Y66.4966
G1 X124.8246 Y57.6078
G1 X107.3193 Y49.5131
G1 X131.1014 Y49.5351
G0 Z90.0
G1 X107.3193 Y49.5131
G1 Z0.0000
G1 X124.8246 Y57.6078
G1 X103.2643 Y59.7237
G1 X107.3193 Y49.5131
G0 Z90.0
G1 X112.3486 Y40.1025
G1 Z0.0000
G1 X131.1014 Y49.5351
G1 X107.3193 Y49.5131
G1 X88.2361 Y55.7982
G1 X89.2196 Y44.7756
G1 X107.3193 Y49.5131
G1 X103.2643 Y59.7237
G1 X117.9840 Y66.4966
G1 X101.7532 Y66.7311
G1 X103.2643 Y59.7237
G1 X88.2361 Y55.7982
G1 X107.3193 Y49.5131
G1 X112.3486 Y40.1025
G1 X107.3193 Y49.5131
G1 X89.2196 Y44.7756
G1 X112.3486 Y40.1025
G0 Z90.0
G1 X92.1371 Y34.6103
G1 Z0.0000
G1 X112.3486 Y40.1025
G1 X89.2196 Y44.7756
G1 X92.1371 Y34.6103
G0 Z90.0
G1 X119.1493 Y4.9193
G1 Z0.0000
G1 X137.4043 Y0.8643
G1 X116.0159 Y11.6411
G1 X103.2178 Y29.3232
G1 X109.6993 Y38.0198
G1 X99.0702 Y47.7907
G1 X103.2178 Y29.3232
G1 X100.1525 Y20.3261
G1 X116.0159 Y11.6411
G1 X117.0002 Y21.8475
G1 X109.6993 Y38.0198
G1 X121.7418 Y31.5259
G1 X117.0097 Y42.9839
G1 X109.6993 Y38.0198
G1 X103.2178 Y29.3232
G1 X117.0002 Y21.8475
G1 X121.7418 Y31.5259
G1 X128.3719 Y36.9035
G1 X117.0097 Y42.9839
G1 X121.7418 Y31.5259
G1 X109.6993 Y38.0198
G1 X117.0002 Y21.8475
G1 X103.2178 Y29.3232
G1 X116.0159 Y11.6411
G1 X119.1493 Y4.9193
G1 X116.0159 Y11.6411
G1 X100.1525 Y20.3261
G1 X103.2178 Y29.3232
G1 X91.0561 Y40.5824
G1 X103.2178 Y29.3232
G1 X99.0702 Y47.7907
G1 X109.6993 Y38.0198
G1 X117.0097 Y42.9839
G1 X128.3719 Y36.9035
G1 X134.3161 Y35.9666
G1 X122.3143 Y42.3504
G1 X128.3719 Y36.9035
G1 X122.3143 Y42.3504
G1 X117.0097 Y42.9839
G1 X107.0399 Y52.1214
G1 X109.6993 Y38.0198
G1 X107.0399 Y52.1214
G1 X99.0702 Y47.7907
G1 X91.0561 Y40.5824
G1 X100.1525 Y20.3261
G1 X119.1493 Y4.9193
G0 Z90.0
G1 X101.6287 Y14.5250
G1 Z0.0000
G1 X119.1493 Y4.9193
G1 X100.1525 Y20.3261
G1 X91.0561 Y40.5824
G1 X99.0702 Y47.7907
G1 X90.7535 Y59.9122
G1 X91.0561 Y40.5824
G1 X86.1356 Y33.3288
G1 X100.1525 Y20.3261
G1 X101.6287 Y14.5250
G1 X100.1525 Y20.3261
G1 X86.1356 Y33.3288
G1 X101.6287 Y14.5250
G0 Z90.0
G1 X95.8277 Y29.3016
G1 Z0.0000
G1 X116.3642 Y35.2048
G1 X92.1371 Y34.6103
G1 X95.8277 Y29.3016
G0 Z90.0
G1 X92.1371 Y34.6103
G1 Z0.0000
G1 X89.2196 Y44.7756
G1 X72.7443 Y55.7193
G1 X70.7309 Y44.6727
G1 X89.2196 Y44.7756
G1 X88.2361 Y55.7982
G1 X103.2643 Y59.7237
G1 X89.5571 Y63.3565
G1 X88.2361 Y55.7982
G1 X72.7443 Y55.7193
G1 X89.2196 Y44.7756
G1 X70.7309 Y44.6727
G1 X92.1371 Y34.6103
G0 Z90.0
G1 X81.4741 Y54.5914
G1 Z0.0000
G1 X85.2949 Y73.2130
G1 X75.1126 Y70.0949
G1 X81.4741 Y54.5914
G1 X90.7535 Y59.9122
G1 X99.0702 Y47.7907
G1 X107.0399 Y52.1214
G1 X117.0097 Y42.9839
G1 X122.3143 Y42.3504
G1 X111.8563 Y51.9209
G1 X117.0097 Y42.9839
G1 X111.8563 Y51.9209
G1 X107.0399 Y52.1214
G1 X99.2824 Y63.4200
G1 X99.0702 Y47.7907
G1 X99.2824 Y63.4200
G1 X90.7535 Y59.9122
G1 X81.4741 Y54.5914
G1 X86.1356 Y33.3288
G1 X91.0561 Y40.5824
G1 X90.7535 Y59.9122
G1 X85.2949 Y73.2130
G1 X81.4741 Y54.5914
G0 Z90.0
G1 X76.7657 Y83.4011
G1 Z0.0000
G1 X80.7596 Y86.6848
G1 X96.3536 Y84.3738
G1 X100.5344 Y90.8556
G1 X112.9668 Y89.6032
G1 X116.2612 Y98.3907
G1 X126.7180 Y99.7980
G1 X126.5926 Y110.5872
G1 X134.2867 Y113.4807
G1 X128.8065 Y123.1076
G1 X119.2245 Y127.7695
G1 X109.2422 Y125.7105
G1 X102.8060 Y122.8627
G1 X119.2245 Y127.7695
G1 X111.7479 Y124.8636
G1 X128.8065 Y123.1076
G1 X120.8601 Y120.1892
G1 X134.2867 Y113.4807
G1 X120.8601 Y120.1892
G1 X128.8065 Y123.1076
G1 X111.7479 Y124.8636
G1 X119.2245 Y127.7695
G1 X102.8060 Y122.8627
G1 X111.7479 Y124.8636
G1 X120.8601 Y120.1892
G1 X126.5926 Y110.5872
G1 X120.8601 Y120.1892
G1 X111.7479 Y124.8636
G1 X102.8060 Y122.8627
G1 X93.8242 Y118.6242
G1 X111.7479 Y124.8636
G1 X100.6444 Y121.9369
G1 X93.8242 Y118.6242
G1 X83.6299 Y112.5757
G1 X100.6444 Y121.9369
G1 X120.8601 Y120.1892
G1 X108.5954 Y118.4706
G1 X126.5926 Y110.5872
G1 X114.5845 Y109.4456
G1 X126.7180 Y99.7980
G1 X114.5845 Y109.4456
G1 X116.2612 Y98.3907
G1 X101.4614 Y101.6245
G1 X112.9668 Y89.6032
G1 X101.4614 Y101.6245
G1 X100.5344 Y90.8556
G1 X83.8876 Y95.8318
G1 X96.3536 Y84.3738
G1 X83.8876 Y95.8318
G1 X80.7596 Y86.6848
G1 X61.8865 Y92.7773
G1 X76.7657 Y83.4011
G0 Z90.0
G1 X81.4741 Y54.5914
G1 Z0.0000
G1 X75.0889 Y49.5580
G1 X86.1356 Y33.3288
G1 X86.2161 Y28.8549
G1 X101.6287 Y14.5250
G1 X86.1356 Y33.3288
G1 X81.4741 Y54.5914
G0 Z90.0
G1 X95.8277 Y29.3016
G1 Z0.0000
G1 X92.1371 Y34.6103
G1 X71.3432 Y34.4899
G1 X70.7309 Y44.6727
G1 X52.8304 Y49.8166
G1 X51.2807 Y40.3014
G1 X71.3432 Y34.4899
G1 X52.8304 Y49.8166
G1 X70.7309 Y44.6727
G1 X57.5837 Y60.0558
G1 X43.9010 Y68.8881
G1 X52.8304 Y49.8166
G1 X57.5837 Y60.0558
G1 X72.7443 Y55.7193
G1 X76.6004 Y63.2764
G1 X89.5571 Y63.3565
G1 X92.6295 Y64.5753
G1 X80.7596 Y64.4711
G1 X89.5571 Y63.3565
G1 X80.7596 Y64.4711
G1 X76.6004 Y63.2764
G1 X63.6662 Y66.9889
G1 X72.7443 Y55.7193
G1 X63.6662 Y66.9889
G1 X57.5837 Y60.0558
G1 X52.8304 Y49.8166
G1 X71.3432 Y34.4899
G1 X95.8277 Y29.3016
G0 Z90.0
G1 X74.3293 Y29.1464
G1 Z0.0000
G1 X95.8277 Y29.3016
G1 X71.3432 Y34.4899
G1 X74.3293 Y29.1464
G1 X71.3432 Y34.4899
G1 X51.2807 Y40.3014
G1 X52.8304 Y49.8166
G1 X36.8583 Y60.1583
G1 X52.8304 Y49.8166
G1 X43.9010 Y68.8881
G1 X57.5837 Y60.0558
G1 X63.6662 Y66.9889
G1 X76.6004 Y63.2764
G1 X80.7596 Y64.4711
G1 X68.6822 Y67.9732
G1 X76.6004 Y63.2764
G1 X68.6822 Y67.9732
G1 X63.6662 Y66.9889
G1 X51.8358 Y74.6319
G1 X57.5837 Y60.0558
G1 X51.8358 Y74.6319
G1 X43.9010 Y68.8881
G1 X36.8583 Y60.1583
G1 X51.2807 Y40.3014
G1 X74.3293 Y29.1464
G0 Z90.0
G1 X53.5229 Y35.2384
G1 Z0.0000
G1 X74.3293 Y29.1464
G1 X51.2807 Y40.3014
G1 X36.8583 Y60.1583
G1 X43.9010 Y68.8881
G1 X51.8358 Y74.6319
G1 X63.6662 Y66.9889
G1 X68.6822 Y67.9732
G1 X57.5741 Y75.1931
G1 X63.6662 Y66.9889
G1 X57.5741 Y75.1931
G1 X51.8358 Y74.6319
G1 X42.2699 Y85.7591
G1 X43.9010 Y68.8881
G1 X32.9116 Y81.6912
G1 X36.8583 Y60.1583
G1 X33.4832 Y51.8972
G1 X51.2807 Y40.3014
G1 X53.5229 Y35.2384
G1 X51.2807 Y40.3014
G1 X33.4832 Y51.8972
G1 X36.8583 Y60.1583
G1 X24.1249 Y75.0495
G1 X19.3812 Y68.4535
G1 X33.4832 Y51.8972
G1 X24.1249 Y75.0495
G1 X25.6227 Y97.5206
G1 X15.7372 Y93.3497
G1 X24.1249 Y75.0495
G1 X32.9116 Y81.6912
G1 X35.9093 Y99.5406
G1 X25.6227 Y97.5206
G1 X32.9116 Y81.6912
G1 X42.2699 Y85.7591
G1 X51.8358 Y74.6319
G1 X57.5741 Y75.1931
G1 X48.5513 Y85.6906
G1 X51.8358 Y74.6319
G1 X48.5513 Y85.6906
G1 X42.2699 Y85.7591
G1 X35.9093 Y99.5406
G1 X32.9116 Y81.6912
G1 X25.6227 Y97.5206
G1 X24.1249 Y75.0495
G1 X36.8583 Y60.1583
G1 X32.9116 Y81.6912
G1 X43.9010 Y68.8881
G1 X42.2699 Y85.7591
G1 X32.9116 Y81.6912
G1 X24.1249 Y75.0495
G1 X33.4832 Y51.8972
G1 X53.5229 Y35.2384
G0 Z90.0
G1 X35.0553 Y47.3104
G1 Z0.0000
G1 X53.5229 Y35.2384
G1 X33.4832 Y51.8972
G1 X35.0553 Y47.3104
G1 X33.4832 Y51.8972
G1 X19.3812 Y68.4535
G1 X24.1249 Y75.0495
G1 X15.7372 Y93.3497
G1 X25.6227 Y97.5206
G1 X33.3683 Y114.7427
G1 X22.7172 Y115.0001
G1 X25.6227 Y97.5206
G1 X35.9093 Y99.5406
G1 X42.2699 Y85.7591
G1 X48.5513 Y85.6906
G1 X42.5671 Y98.6356
G1 X42.2699 Y85.7591
G1 X42.5671 Y98.6356
G1 X35.9093 Y99.5406
G1 X33.3683 Y114.7427
G1 X25.6227 Y97.5206
G1 X22.7172 Y115.0001
G1 X15.7372 Y93.3497
G1 X19.3812 Y68.4535
G1 X35.0553 Y47.3104
G0 Z90.0
G1 X10.1371 Y88.6762
G1 Z0.0000
G1 X20.4693 Y64.4612
G1 X19.3812 Y68.4535
G1 X10.1371 Y88.6762
G1 X19.3812 Y68.4535
G1 X20.4693 Y64.4612
G1 X35.0553 Y47.3104
G1 X19.3812 Y68.4535
G1 X15.7372 Y93.3497
G1 X22.7172 Y115.0001
G1 X12.3975 Y113.5388
G1 X15.7372 Y93.3497
G1 X10.1371 Y88.6762
G1 X15.7372 Y93.3497
G1 X12.3975 Y113.5388
G1 X22.7172 Y115.0001
G1 X34.7760 Y130.0195
G1 X24.3474 Y132.6556
G1 X22.7172 Y115.0001
G1 X33.3683 Y114.7427
G1 X35.9093 Y99.5406
G1 X42.5671 Y98.6356
G1 X40.1772 Y112.8788
G1 X35.9093 Y99.5406
G1 X40.1772 Y112.8788
G1 X33.3683 Y114.7427
G1 X34.7760 Y130.0195
G1 X22.7172 Y115.0001
G1 X24.3474 Y132.6556
G1 X12.3975 Y113.5388
G1 X10.1371 Y88.6762
G0 Z90.0
G1 X21.7101 Y112.9991
G1 Z0.0000
G1 X38.9808 Y97.7427
G1 X58.2770 Y87.8343
G1 X76.7657 Y83.4011
G1 X90.5762 Y84.6199
G1 X96.3536 Y84.3738
G1 X106.0440 Y86.4735
G1 X112.9668 Y89.6032
G1 X121.2042 Y91.9939
G1 X126.8732 Y94.6997
G1 X130.2823 Y95.7413
G1 X131.0781 Y94.0878
G1 X139.3965 Y101.0724
G1 X142.2331 Y111.3926
G1 X138.5090 Y121.0734
G1 X129.6995 Y126.4162
G1 X124.3443 Y128.8281
G1 X138.5090 Y121.0734
G1 X133.9263 Y124.1911
G1 X142.2331 Y111.3926
G1 X139.0009 Y114.5891
G1 X139.3965 Y101.0724
G1 X137.6048 Y103.7085
G1 X131.0781 Y94.0878
G1 X137.6048 Y103.7085
G1 X130.2823 Y95.7413
G1 X137.6048 Y103.7085
G1 X139.3965 Y101.0724
G1 X139.0009 Y114.5891
G1 X142.2331 Y111.3926
G1 X133.9263 Y124.1911
G1 X139.0009 Y114.5891
G1 X137.6048 Y103.7085
G1 X133.5382 Y102.6167
G1 X130.2823 Y95.7413
G1 X133.5382 Y102.6167
G1 X126.8732 Y94.6997
G1 X133.5382 Y102.6167
G1 X137.6048 Y103.7085
G1 X139.0009 Y114.5891
G1 X133.9263 Y124.1911
G1 X124.3443 Y128.8281
G1 X113.9510 Y126.7649
G1 X109.2422 Y125.7105
G1 X124.3443 Y128.8281
G1 X119.2245 Y127.7695
G1 X133.9263 Y124.1911
G1 X128.8065 Y123.1076
G1 X139.0009 Y114.5891
G1 X134.2867 Y113.4807
G1 X137.6048 Y103.7085
G1 X134.2867 Y113.4807
G1 X133.5382 Y102.6167
G1 X126.7180 Y99.7980
G1 X126.8732 Y94.6997
G1 X126.7180 Y99.7980
G1 X121.2042 Y91.9939
G1 X126.7180 Y99.7980
G1 X133.5382 Y102.6167
G1 X134.2867 Y113.4807
G1 X139.0009 Y114.5891
G1 X128.8065 Y123.1076
G1 X133.9263 Y124.1911
G1 X119.2245 Y127.7695
G1 X128.8065 Y123.1076
G1 X134.2867 Y113.4807
G1 X126.5926 Y110.5872
G1 X133.5382 Y102.6167
G1 X126.5926 Y110.5872
G1 X126.7180 Y99.7980
G1 X116.2612 Y98.3907
G1 X121.2042 Y91.9939
G1 X116.2612 Y98.3907
G1 X112.9668 Y89.6032
G1 X100.5344 Y90.8556
G1 X106.0440 Y86.4735
G1 X100.5344 Y90.8556
G1 X96.3536 Y84.3738
G1 X80.7596 Y86.6848
G1 X90.5762 Y84.6199
G1 X80.7596 Y86.6848
G1 X76.7657 Y83.4011
G1 X61.8865 Y92.7773
G1 X58.2770 Y87.8343
G1 X42.9740 Y103.0526
G1 X38.9808 Y97.7427
G1 X26.2807 Y117.9434
G1 X21.7101 Y112.9991
G0 Z90.0
G1 X26.2807 Y117.9434
G1 Z0.0000
G1 X38.9808 Y97.7427
G1 X42.9740 Y103.0526
G1 X61.8865 Y92.7773
G1 X42.9740 Y103.0526
G1 X58.2770 Y87.8343
G1 X61.8865 Y92.7773
G1 X80.7596 Y86.6848
G1 X83.8876 Y95.8318
G1 X100.5344 Y90.8556
G1 X101.4614 Y101.6245
G1 X116.2612 Y98.3907
G1 X114.5845 Y109.4456
G1 X126.5926 Y110.5872
G1 X108.5954 Y118.4706
G1 X120.8601 Y120.1892
G1 X100.6444 Y121.9369
G1 X108.5954 Y118.4706
G1 X100.6444 Y121.9369
G1 X87.6807 Y119.1389
G1 X108.5954 Y118.4706
G1 X114.5845 Y109.4456
G1 X108.5954 Y118.4706
G1 X93.4477 Y119.1514
G1 X87.6807 Y119.1389
G1 X76.0848 Y116.5817
G1 X93.4477 Y119.1514
G1 X114.5845 Y109.4456
G1 X98.7452 Y112.4761
G1 X116.2612 Y98.3907
G1 X98.7452 Y112.4761
G1 X114.5845 Y109.4456
G1 X93.4477 Y119.1514
G1 X98.7452 Y112.4761
G1 X93.4477 Y119.1514
G1 X80.0315 Y120.0771
G1 X98.7452 Y112.4761
G1 X101.4614 Y101.6245
G1 X98.7452 Y112.4761
G1 X80.0315 Y120.0771
G1 X68.6424 Y122.3354
G1 X83.4186 Y116.5817
G1 X80.0315 Y120.0771
G1 X83.4186 Y116.5817
G1 X98.7452 Y112.4761
G1 X83.4186 Y116.5817
G1 X68.6424 Y122.3354
G1 X58.1217 Y127.4582
G1 X70.3191 Y120.9074
G1 X68.6424 Y122.3354
G1 X70.3191 Y120.9074
G1 X83.4186 Y116.5817
G1 X101.4614 Y101.6245
G1 X84.9068 Y107.3035
G1 X100.5344 Y90.8556
G1 X84.9068 Y107.3035
G1 X101.4614 Y101.6245
G1 X83.4186 Y116.5817
G1 X84.9068 Y107.3035
G1 X83.4186 Y116.5817
G1 X70.3191 Y120.9074
G1 X84.9068 Y107.3035
G1 X83.8876 Y95.8318
G1 X66.1483 Y102.5710
G1 X80.7596 Y86.6848
G1 X66.1483 Y102.5710
G1 X61.8865 Y92.7773
G1 X66.1483 Y102.5710
G1 X83.8876 Y95.8318
G1 X84.9068 Y107.3035
G1 X70.3191 Y120.9074
G1 X58.5680 Y127.2548
G1 X69.3863 Y113.3728
G1 X70.3191 Y120.9074
G1 X69.3863 Y113.3728
G1 X84.9068 Y107.3035
G1 X69.3863 Y113.3728
G1 X83.8876 Y95.8318
G1 X69.3863 Y113.3728
G1 X58.5680 Y127.2548
G1 X48.2715 Y136.5122
G1 X41.3147 Y147.1146
G1 X40.2798 Y148.6631
G1 X48.2715 Y136.5122
G1 X40.2798 Y148.6631
G1 X35.5593 Y163.0847
G1 X33.3462 Y146.8946
G1 X40.2798 Y148.6631
G1 X42.8245 Y132.5767
G1 X48.2715 Y136.5122
G1 X55.1709 Y121.4222
G1 X58.5680 Y127.2548
G1 X55.1709 Y121.4222
G1 X69.3863 Y113.3728
G1 X66.1483 Y102.5710
G1 X69.3863 Y113.3728
G1 X55.1709 Y121.4222
G1 X48.2715 Y136.5122
G1 X42.8245 Y132.5767
G1 X40.2798 Y148.6631
G1 X33.3462 Y146.8946
G1 X35.5593 Y163.0847
G1 X27.8022 Y163.6701
G1 X33.3462 Y146.8946
G1 X42.8245 Y132.5767
G1 X55.1709 Y121.4222
G1 X66.1483 Y102.5710
G1 X49.1980 Y112.1315
G1 X61.8865 Y92.7773
G1 X49.1980 Y112.1315
G1 X42.9740 Y103.0526
G1 X34.3866 Y125.4531
G1 X42.8245 Y132.5767
G1 X33.3462 Y146.8946
G1 X34.3866 Y125.4531
G1 X33.3462 Y146.8946
G1 X23.1054 Y142.4278
G1 X34.3866 Y125.4531
G1 X26.2807 Y117.9434
G0 Z90.0
G1 X42.9740 Y103.0526
G1 Z0.0000
G1 X49.1980 Y112.1315
G1 X34.3866 Y125.4531
G1 X42.9740 Y103.0526
G0 Z90.0
G1 X26.2807 Y117.9434
G1 Z0.0000
G1 X34.3866 Y125.4531
G1 X49.1980 Y112.1315
G1 X55.1709 Y121.4222
G1 X42.8245 Y132.5767
G1 X49.1980 Y112.1315
G1 X66.1483 Y102.5710
G1 X55.1709 Y121.4222
G1 X49.1980 Y112.1315
G1 X42.8245 Y132.5767
G1 X34.3866 Y125.4531
G1 X23.1054 Y142.4278
G1 X26.2807 Y117.9434
G0 Z90.0
G1 X21.7101 Y112.9991
G1 Z0.0000
G1 X13.6155 Y137.0145
G1 X8.5866 Y132.8009
G1 X6.3386 Y159.0621
G1 X1.0810 Y155.7037
G1 X6.3386 Y159.0621
G1 X5.2755 Y182.3800
G1 X15.5944 Y183.0733
G1 X26.9495 Y181.6411
G1 X27.8022 Y163.6701
G1 X34.8328 Y178.6563
G1 X27.8022 Y163.6701
G1 X35.5593 Y163.0847
G1 X40.2798 Y148.6631
G1 X36.9334 Y160.6604
G1 X40.2798 Y148.6631
G1 X41.3147 Y147.1146
G1 X36.9334 Y160.6604
G1 X35.5593 Y163.0847
G1 X34.8328 Y178.6563
G1 X26.9495 Y181.6411
G1 X31.0344 Y199.2634
G1 X15.5944 Y183.0733
G1 X20.3539 Y203.5061
G1 X15.5944 Y183.0733
G1 X31.0344 Y199.2634
G1 X26.9495 Y181.6411
G1 X38.3864 Y193.9746
G1 X26.9495 Y181.6411
G1 X34.8328 Y178.6563
G1 X35.5593 Y163.0847
G1 X36.2754 Y175.3062
G1 X35.5593 Y163.0847
G1 X36.9334 Y160.6604
G1 X36.2754 Y175.3062
G1 X34.8328 Y178.6563
G1 X38.3864 Y193.9746
G1 X31.0344 Y199.2634
G1 X20.3539 Y203.5061
G1 X5.2755 Y182.3800
G1 X20.3539 Y203.5061
G1 X31.0344 Y199.2634
G1 X39.7301 Y214.9886
G1 X20.3539 Y203.5061
G1 X10.5726 Y205.0296
G1 X5.2755 Y182.3800
G1 X1.0810 Y155.7037
G1 X5.2755 Y182.3800
G1 X0.0000 Y179.8643
G1 X5.2755 Y182.3800
G1 X10.5726 Y205.0296
G1 X20.3539 Y203.5061
G1 X30.4515 Y221.6888
G1 X20.3539 Y203.5061
G1 X39.7301 Y214.9886
G1 X31.0344 Y199.2634
G1 X45.9372 Y207.6366
G1 X31.0344 Y199.2634
G1 X38.3864 Y193.9746
G1 X34.8328 Y178.6563
G1 X39.6280 Y189.7154
G1 X34.8328 Y178.6563
G1 X36.2754 Y175.3062
G1 X39.6280 Y189.7154
G1 X38.3864 Y193.9746
G1 X45.9372 Y207.6366
G1 X39.7301 Y214.9886
G1 X30.4515 Y221.6888
G1 X39.7301 Y214.9886
G1 X52.2065 Y227.4508
G1 X30.4515 Y221.6888
G1 X10.5726 Y205.0296
G1 X0.0000 Y179.8643
G1 X10.5726 Y205.0296
G1 X5.5096 Y203.2445
G1 X10.5726 Y205.0296
G1 X21.7550 Y225.0846
G1 X30.4515 Y221.6888
G1 X44.9309 Y236.0980
G1 X30.4515 Y221.6888
G1 X52.2065 Y227.4508
G1 X39.7301 Y214.9886
G1 X56.7202 Y218.4425
G1 X39.7301 Y214.9886
G1 X45.9372 Y207.6366
G1 X38.3864 Y193.9746
G1 X46.6923 Y202.5056
G1 X38.3864 Y193.9746
G1 X39.6280 Y189.7154
G1 X46.6923 Y202.5056
G1 X45.9372 Y207.6366
G1 X56.7202 Y218.4425
G1 X52.2065 Y227.4508
G1 X44.9309 Y236.0980
G1 X21.7550 Y225.0846
G1 X5.5096 Y203.2445
G1 X21.7550 Y225.0846
G1 X44.9309 Y236.0980
G1 X52.2065 Y227.4508
G1 X56.7202 Y218.4425
G1 X45.9372 Y207.6366
G1 X56.7551 Y212.5725
G1 X45.9372 Y207.6366
G1 X46.6923 Y202.5056
G1 X56.7551 Y212.5725
G1 X56.7202 Y218.4425
G1 X69.6030 Y225.5537
G1 X52.2065 Y227.4508
G1 X67.1952 Y235.7078
G1 X44.9309 Y236.0980
G1 X37.7740 Y240.9592
G1 X21.7550 Y225.0846
G1 X17.0366 Y223.9015
G1 X21.7550 Y225.0846
G1 X37.7740 Y240.9592
G1 X44.9309 Y236.0980
G1 X62.4005 Y245.6668
G1 X44.9309 Y236.0980
G1 X67.1952 Y235.7078
G1 X52.2065 Y227.4508
G1 X69.6030 Y225.5537
G1 X67.1952 Y235.7078
G1 X62.4005 Y245.6668
G1 X67.1952 Y235.7078
G1 X69.6030 Y225.5537
G1 X56.7202 Y218.4425
G1 X68.7167 Y219.1565
G1 X56.7202 Y218.4425
G1 X56.7551 Y212.5725
G1 X68.7167 Y219.1565
G1 X69.6030 Y225.5537
G1 X83.2537 Y228.6506
G1 X67.1952 Y235.7078
G1 X83.2189 Y239.3402
G1 X62.4005 Y245.6668
G1 X37.7740 Y240.9592
G1 X62.4005 Y245.6668
G1 X83.2189 Y239.3402
G1 X67.1952 Y235.7078
G1 X83.2537 Y228.6506
G1 X83.2189 Y239.3402
G1 X81.2399 Y249.8887
G1 X62.4005 Y245.6668
G1 X57.1270 Y251.5035
G1 X62.4005 Y245.6668
G1 X81.2399 Y249.8887
G1 X83.2189 Y239.3402
G1 X83.2537 Y228.6506
G1 X69.6030 Y225.5537
G1 X81.3599 Y222.0043
G1 X69.6030 Y225.5537
G1 X68.7167 Y219.1565
G1 X81.3599 Y222.0043
G1 X83.2537 Y228.6506
G1 X96.3652 Y227.8950
G1 X83.2189 Y239.3402
G1 X98.7568 Y238.4435
G1 X83.2189 Y239.3402
G1 X96.3652 Y227.8950
G1 X98.7568 Y238.4435
G1 X81.2399 Y249.8887
G1 X98.7568 Y238.4435
G1 X99.7390 Y248.8301
G1 X98.7568 Y238.4435
G1 X112.2739 Y233.5450
G1 X98.7568 Y238.4435
G1 X107.7207 Y223.7894
G1 X98.7568 Y238.4435
G1 X96.3652 Y227.8950
G1 X83.2537 Y228.6506
G1 X93.5150 Y221.3401
G1 X83.2537 Y228.6506
G1 X81.3599 Y222.0043
G1 X93.5150 Y221.3401
G1 X96.3652 Y227.8950
G1 X107.7207 Y223.7894
G1 X112.2739 Y233.5450
G1 X99.7390 Y248.8301
G1 X81.2399 Y249.8887
G1 X57.1270 Y251.5035
G1 X37.7740 Y240.9592
G1 X17.0366 Y223.9015
G1 X37.7740 Y240.9592
G1 X33.5119 Y240.1995
G1 X37.7740 Y240.9592
G1 X57.1270 Y251.5035
G1 X81.2399 Y249.8887
G1 X78.0986 Y256.1406
G1 X81.2399 Y249.8887
G1 X99.7390 Y248.8301
G1 X112.2739 Y233.5450
G1 X116.2106 Y243.1386
G1 X112.2739 Y233.5450
G1 X122.2221 Y225.4250
G1 X112.2739 Y233.5450
G1 X116.3069 Y216.8484
G1 X112.2739 Y233.5450
G1 X107.7207 Y223.7894
G1 X96.3652 Y227.8950
G1 X104.3113 Y217.6703
G1 X96.3652 Y227.8950
G1 X93.5150 Y221.3401
G1 X81.3599 Y222.0043
G1 X91.3243 Y221.2280
G1 X81.3599 Y222.0043
G1 X78.2759 Y221.8964
G1 X91.3243 Y221.2280
G1 X93.5150 Y221.3401
G1 X104.3113 Y217.6703
G1 X107.7207 Y223.7894
G1 X116.3069 Y216.8484
G1 X122.2221 Y225.4250
G1 X116.2106 Y243.1386
G1 X122.2221 Y225.4250
G1 X121.9880 Y207.4332
G1 X127.1983 Y214.8350
G1 X127.5881 Y196.2537
G1 X129.2079 Y203.0702
G1 X127.5881 Y196.2537
G1 X134.5739 Y185.2984
G1 X129.2079 Y203.0702
G1 X127.1983 Y214.8350
G1 X122.2221 Y225.4250
G1 X116.3069 Y216.8484
G1 X107.7207 Y223.7894
G1 X113.3549 Y211.5264
G1 X107.7207 Y223.7894
G1 X104.3113 Y217.6703
G1 X93.5150 Y221.3401
G1 X103.3610 Y217.5167
G1 X93.5150 Y221.3401
G1 X91.3243 Y221.2280
G1 X103.3610 Y217.5167
G1 X104.3113 Y217.6703
G1 X103.3610 Y217.5167
G1 X114.4650 Y211.4475
G1 X104.3113 Y217.6703
G1 X113.3549 Y211.5264
G1 X116.3069 Y216.8484
G1 X121.9880 Y207.4332
G1 X127.5881 Y196.2537
G1 X127.1983 Y214.8350
G1 X121.9880 Y207.4332
G1 X116.3069 Y216.8484
G1 X121.6496 Y203.1532
G1 X116.3069 Y216.8484
G1 X113.3549 Y211.5264
G1 X121.6496 Y203.1532
G1 X121.9880 Y207.4332
G1 X121.6496 Y203.1532
G1 X131.7705 Y192.9327
G1 X121.9880 Y207.4332
G1 X122.2221 Y225.4250
G1 X128.8065 Y233.8937
G1 X135.3120 Y222.4942
G1 X133.4460 Y238.9126
G1 X135.3120 Y222.4942
G1 X143.1032 Y227.3803
G1 X145.5853 Y216.3917
G1 X147.5538 Y227.6127
G1 X143.1032 Y227.3803
G1 X133.4460 Y238.9126
G1 X128.8065 Y233.8937
G1 X116.2106 Y243.1386
G1 X99.7390 Y248.8301
G1 X78.0986 Y256.1406
G1 X57.1270 Y251.5035
G1 X33.5119 Y240.1995
G1 X57.1270 Y251.5035
G1 X53.4145 Y251.0012
G1 X57.1270 Y251.5035
G1 X78.0986 Y256.1406
G1 X99.7390 Y248.8301
G1 X98.9457 Y254.9823
G1 X99.7390 Y248.8301
G1 X116.2106 Y243.1386
G1 X128.8065 Y233.8937
G1 X117.9604 Y248.7761
G1 X116.2106 Y243.1386
G1 X98.9457 Y254.9823
G1 X116.2106 Y243.1386
G1 X117.9604 Y248.7761
G1 X128.8065 Y233.8937
G1 X133.4460 Y238.9126
G1 X143.1032 Y227.3803
G1 X134.3971 Y238.5930
G1 X143.1032 Y227.3803
G1 X147.5538 Y227.6127
G1 X134.3971 Y238.5930
G1 X133.4460 Y238.9126
G1 X134.3971 Y238.5930
G1 X116.8898 Y248.3527
G1 X133.4460 Y238.9126
G1 X117.9604 Y248.7761
G1 X98.9457 Y254.9823
G1 X78.0986 Y256.1406
G1 X53.4145 Y251.0012
G1 X78.0986 Y256.1406
G1 X75.0437 Y255.7586
G1 X53.4145 Y251.0012
G1 X33.5119 Y240.1995
G1 X17.0366 Y223.9015
G1 X5.5096 Y203.2445
G1 X0.0000 Y179.8643
G1 X1.0810 Y155.7037
G1 X8.5866 Y132.8009
G1 X21.7101 Y112.9991
G0 Z90.0
G1 X14.3079 Y133.9633
G1 Z0.0000
G1 X6.4702 Y110.9235
G1 X12.3975 Y113.5388
G1 X14.3079 Y133.9633
G0 Z90.0
G1 X21.7101 Y112.9991
G1 Z0.0000
G1 X26.2807 Y117.9434
G1 X13.6155 Y137.0145
G1 X6.3386 Y159.0621
G1 X15.5944 Y183.0733
G1 X5.2755 Y182.3800
G1 X6.3386 Y159.0621
G1 X8.5866 Y132.8009
G1 X13.6155 Y137.0145
G1 X21.7101 Y112.9991
G0 Z90.0
G1 X14.3079 Y133.9633
G1 Z0.0000
G1 X12.3975 Y113.5388
G1 X6.4702 Y110.9235
G1 X10.1371 Y88.6762
G1 X10.9329 Y85.3240
G1 X20.4693 Y64.4612
G1 X10.1371 Y88.6762
G1 X12.3975 Y113.5388
G1 X24.3474 Y132.6556
G1 X14.3079 Y133.9633
G0 Z90.0
G1 X26.2807 Y117.9434
G1 Z0.0000
G1 X23.1054 Y142.4278
G1 X13.6155 Y137.0145
G1 X23.1054 Y142.4278
G1 X16.5895 Y162.1216
G1 X23.1054 Y142.4278
G1 X27.8022 Y163.6701
G1 X23.1054 Y142.4278
G1 X33.3462 Y146.8946
G1 X27.8022 Y163.6701
G1 X16.5895 Y162.1216
G1 X13.6155 Y137.0145
G1 X16.5895 Y162.1216
G1 X6.3386 Y159.0621
G1 X16.5895 Y162.1216
G1 X27.8022 Y163.6701
G1 X26.9495 Y181.6411
G1 X16.5895 Y162.1216
G1 X15.5944 Y183.0733
G1 X16.5895 Y162.1216
G1 X26.9495 Y181.6411
G1 X15.5944 Y183.0733
G1 X6.3386 Y159.0621
G1 X13.6155 Y137.0145
G1 X26.2807 Y117.9434
G0 Z90.0
G1 X14.3079 Y133.9633
G1 Z0.0000
G1 X24.3474 Y132.6556
G1 X30.1937 Y148.9869
G1 X24.3474 Y132.6556
G1 X34.7760 Y130.0195
G1 X33.3683 Y114.7427
G1 X40.1772 Y112.8788
G1 X41.4866 Y127.1095
G1 X33.3683 Y114.7427
G1 X41.4866 Y127.1095
G1 X34.7760 Y130.0195
G1 X39.7986 Y144.0468
G1 X24.3474 Y132.6556
G1 X39.7986 Y144.0468
G1 X30.1937 Y148.9869
G1 X14.3079 Y133.9633
G0 Z90.0
G1 X21.1385 Y152.9721
G1 Z0.0000
G1 X14.3079 Y133.9633
G1 X8.5982 Y133.4278
G1 X6.4702 Y110.9235
G1 X14.3079 Y133.9633
G1 X30.1937 Y148.9869
G1 X21.1385 Y152.9721
G1 X30.1937 Y148.9869
G1 X39.4487 Y162.6862
G1 X30.1937 Y148.9869
G1 X39.7986 Y144.0468
G1 X34.7760 Y130.0195
G1 X41.4866 Y127.1095
G1 X40.1772 Y112.8788
G1 X40.5886 Y110.1389
G1 X41.9669 Y125.0296
G1 X40.1772 Y112.8788
G1 X41.9669 Y125.0296
G1 X41.4866 Y127.1095
G1 X46.1609 Y140.0865
G1 X34.7760 Y130.0195
G1 X46.1609 Y140.0865
G1 X39.7986 Y144.0468
G1 X47.6766 Y155.6829
G1 X30.1937 Y148.9869
G1 X47.6766 Y155.6829
G1 X39.4487 Y162.6862
G1 X21.1385 Y152.9721
G0 Z90.0
G1 X58.8258 Y166.1069
G1 Z0.0000
G1 X56.8352 Y181.3256
G1 X53.6943 Y183.8205
G1 X58.8258 Y166.1069
G1 X61.6860 Y161.6650
G1 X68.0927 Y147.8660
G1 X73.9868 Y142.6727
G1 X79.6716 Y135.7982
G1 X83.0707 Y133.5481
G1 X91.9835 Y128.6870
G1 X94.9575 Y126.8313
G1 X105.9120 Y127.1178
G1 X94.9575 Y126.8313
G1 X96.5878 Y126.2501
G1 X105.9120 Y127.1178
G1 X107.7207 Y126.2377
G1 X105.9120 Y127.1178
G1 X96.5878 Y126.2501
G1 X107.7207 Y126.2377
G1 X116.7129 Y132.7760
G1 X120.1631 Y143.3328
G1 X116.7424 Y153.8854
G1 X107.7664 Y160.4113
G1 X105.6895 Y161.5404
G1 X116.7424 Y153.8854
G1 X114.6198 Y155.2471
G1 X120.1631 Y143.3328
G1 X118.0862 Y144.7069
G1 X116.7129 Y132.7760
G1 X114.7560 Y133.9301
G1 X107.7207 Y126.2377
G1 X114.7560 Y133.9301
G1 X105.9120 Y127.1178
G1 X102.4810 Y130.6090
G1 X94.9575 Y126.8313
G1 X102.4810 Y130.6090
G1 X91.9835 Y128.6870
G1 X89.2653 Y134.7894
G1 X83.0707 Y133.5481
G1 X89.2653 Y134.7894
G1 X79.6716 Y135.7982
G1 X75.6377 Y145.0099
G1 X73.9868 Y142.6727
G1 X75.6377 Y145.0099
G1 X68.0927 Y147.8660
G1 X75.6377 Y145.0099
G1 X79.6716 Y135.7982
G1 X89.2653 Y134.7894
G1 X91.9835 Y128.6870
G1 X102.4810 Y130.6090
G1 X105.9120 Y127.1178
G1 X114.7560 Y133.9301
G1 X116.7129 Y132.7760
G1 X118.0862 Y144.7069
G1 X120.1631 Y143.3328
G1 X114.6198 Y155.2471
G1 X116.7424 Y153.8854
G1 X105.6895 Y161.5404
G1 X114.6198 Y155.2471
G1 X118.0862 Y144.7069
G1 X114.7560 Y133.9301
G1 X118.0862 Y144.7069
G1 X114.6198 Y155.2471
G1 X105.6895 Y161.5404
G1 X99.8553 Y164.0935
G1 X114.6198 Y155.2471
G1 X108.8312 Y159.3485
G1 X118.0862 Y144.7069
G1 X112.9194 Y149.6137
G1 X114.7560 Y133.9301
G1 X110.4947 Y138.6210
G1 X105.9120 Y127.1178
G1 X110.4947 Y138.6210
G1 X102.4810 Y130.6090
G1 X99.0935 Y140.1114
G1 X91.9835 Y128.6870
G1 X99.0935 Y140.1114
G1 X89.2653 Y134.7894
G1 X86.0098 Y147.6792
G1 X79.6716 Y135.7982
G1 X86.0098 Y147.6792
G1 X75.6377 Y145.0099
G1 X70.3075 Y160.8928
G1 X68.0927 Y147.8660
G1 X70.3075 Y160.8928
G1 X61.6860 Y161.6650
G1 X56.8352 Y181.3256
G1 X58.8258 Y166.1069
G0 Z90.0
G1 X56.8352 Y181.3256
G1 Z0.0000
G1 X66.0341 Y180.8233
G1 X70.3075 Y160.8928
G1 X81.4052 Y164.1475
G1 X86.0098 Y147.6792
G1 X90.5862 Y170.1503
G1 X94.2942 Y176.5350
G1 X91.0902 Y189.2920
G1 X90.5862 Y170.1503
G1 X81.4052 Y164.1475
G1 X90.5862 Y170.1503
G1 X91.0902 Y189.2920
G1 X90.5642 Y203.0826
G1 X87.3440 Y185.7883
G1 X91.0902 Y189.2920
G1 X87.3440 Y185.7883
G1 X90.5862 Y170.1503
G1 X87.3440 Y185.7883
G1 X81.4052 Y164.1475
G1 X77.7499 Y182.5461
G1 X70.3075 Y160.8928
G1 X77.7499 Y182.5461
G1 X81.4052 Y164.1475
G1 X87.3440 Y185.7883
G1 X90.5642 Y203.0826
G1 X93.2240 Y217.5500
G1 X86.8517 Y202.4599
G1 X90.5642 Y203.0826
G1 X86.8517 Y202.4599
G1 X87.3440 Y185.7883
G1 X77.7499 Y182.5461
G1 X87.3440 Y185.7883
G1 X86.8517 Y202.4599
G1 X93.2240 Y217.5500
G1 X89.9697 Y219.6505
G1 X86.8517 Y202.4599
G1 X77.7499 Y182.5461
G1 X66.0341 Y180.8233
G1 X65.2844 Y203.2196
G1 X56.8352 Y181.3256
G0 Z90.0
G1 X60.1529 Y228.3185
G1 Z0.0000
G1 X78.7674 Y248.2240
G1 X69.9355 Y251.0469
G1 X78.7674 Y248.2240
G1 X92.8516 Y266.8634
G1 X78.7674 Y248.2240
G1 X101.7429 Y259.1918
G1 X89.1748 Y242.4952
G1 X107.7776 Y250.4034
G1 X89.1748 Y242.4952
G1 X97.0344 Y236.1312
G1 X89.9697 Y219.6505
G1 X99.3160 Y231.6229
G1 X89.9697 Y219.6505
G1 X93.2240 Y217.5500
G1 X99.3160 Y231.6229
G1 X97.0344 Y236.1312
G1 X107.7776 Y250.4034
G1 X101.7429 Y259.1918
G1 X92.8516 Y266.8634
G1 X69.9355 Y251.0469
G1 X60.1529 Y228.3185
G1 X69.9355 Y251.0469
G1 X92.8516 Y266.8634
G1 X101.7429 Y259.1918
G1 X107.7776 Y250.4034
G1 X97.0344 Y236.1312
G1 X108.6183 Y243.9232
G1 X97.0344 Y236.1312
G1 X99.3160 Y231.6229
G1 X108.6183 Y243.9232
G1 X107.7776 Y250.4034
G1 X121.3640 Y261.0765
G1 X101.7429 Y259.1918
G1 X117.5822 Y271.5834
G1 X92.8516 Y266.8634
G1 X84.6141 Y270.3629
G1 X69.9355 Y251.0469
G1 X56.6982 Y228.1690
G1 X60.1529 Y228.3185
G1 X69.4099 Y226.3507
G1 X78.7674 Y248.2240
G1 X89.1748 Y242.4952
G1 X101.7429 Y259.1918
G1 X78.7674 Y248.2240
G1 X60.1529 Y228.3185
G0 Z90.0
G1 X78.7674 Y248.2240
G1 Z0.0000
G1 X69.4099 Y226.3507
G1 X55.8850 Y204.3156
G1 X65.2844 Y203.2196
G1 X69.4099 Y226.3507
G1 X89.1748 Y242.4952
G1 X80.8559 Y223.0214
G1 X89.9697 Y219.6505
G1 X97.0344 Y236.1312
G1 X80.8559 Y223.0214
G1 X97.0344 Y236.1312
G1 X89.1748 Y242.4952
G1 X78.7674 Y248.2240
G0 Z90.0
G1 X60.1529 Y228.3185
G1 Z0.0000
G1 X56.6982 Y228.1690
G1 X69.9355 Y251.0469
G1 X66.1026 Y249.9011
G1 X69.9355 Y251.0469
G1 X84.6141 Y270.3629
G1 X92.8516 Y266.8634
G1 X110.5063 Y280.5793
G1 X92.8516 Y266.8634
G1 X117.5822 Y271.5834
G1 X101.7429 Y259.1918
G1 X121.3640 Y261.0765
G1 X107.7776 Y250.4034
G1 X120.4312 Y253.2014
G1 X107.7776 Y250.4034
G1 X108.6183 Y243.9232
G1 X120.4312 Y253.2014
G1 X121.3640 Y261.0765
G1 X117.5822 Y271.5834
G1 X110.5063 Y280.5793
G1 X84.6141 Y270.3629
G1 X66.1026 Y249.9011
G1 X84.6141 Y270.3629
G1 X110.5063 Y280.5793
G1 X117.5822 Y271.5834
G1 X121.3640 Y261.0765
G1 X120.4312 Y253.2014
G1 X133.6469 Y258.5234
G1 X121.3640 Y261.0765
G1 X136.5757 Y267.1747
G1 X117.5822 Y271.5834
G1 X135.2253 Y278.5909
G1 X117.5822 Y271.5834
G1 X136.5757 Y267.1747
G1 X121.3640 Y261.0765
G1 X133.6469 Y258.5234
G1 X120.4312 Y253.2014
G1 X127.6454 Y255.9081
G1 X120.4312 Y253.2014
G1 X115.2027 Y250.9182
G1 X127.6454 Y255.9081
G1 X133.6469 Y258.5234
G1 X136.5757 Y267.1747
G1 X135.2253 Y278.5909
G1 X110.5063 Y280.5793
G1 X102.9496 Y284.5480
G1 X84.6141 Y270.3629
G1 X80.2320 Y268.4077
G1 X84.6141 Y270.3629
G1 X102.9496 Y284.5480
G1 X110.5063 Y280.5793
G1 X130.1055 Y288.2717
G1 X110.5063 Y280.5793
G1 X135.2253 Y278.5909
G1 X130.1055 Y288.2717
G1 X102.9496 Y284.5480
G1 X80.2320 Y268.4077
G1 X102.9496 Y284.5480
G1 X130.1055 Y288.2717
G1 X135.2253 Y278.5909
G1 X136.5757 Y267.1747
G1 X133.6469 Y258.5234
G1 X127.6454 Y255.9081
G1 X140.1562 Y256.8006
G1 X133.6469 Y258.5234
G1 X147.0042 Y259.4699
G1 X136.5757 Y267.1747
G1 X151.9700 Y268.2458
G1 X135.2253 Y278.5909
G1 X153.0572 Y279.7449
G1 X135.2253 Y278.5909
G1 X151.9700 Y268.2458
G1 X136.5757 Y267.1747
G1 X147.0042 Y259.4699
G1 X133.6469 Y258.5234
G1 X140.1562 Y256.8006
G1 X147.0042 Y259.4699
G1 X151.9700 Y268.2458
G1 X153.0572 Y279.7449
G1 X130.1055 Y288.2717
G1 X123.2296 Y292.4396
G1 X130.1055 Y288.2717
G1 X149.8466 Y289.4424
G1 X130.1055 Y288.2717
G1 X153.0572 Y279.7449
G1 X151.9700 Y268.2458
G1 X147.0042 Y259.4699
G1 X140.1562 Y256.8006
G1 X151.5810 Y253.7494
G1 X147.0042 Y259.4699
G1 X159.2576 Y256.2111
G1 X151.9700 Y268.2458
G1 X166.1451 Y264.4224
G1 X153.0572 Y279.7449
G1 X149.8466 Y289.4424
G1 X123.2296 Y292.4396
G1 X102.9496 Y284.5480
G1 X97.8410 Y281.9991
G1 X80.2320 Y268.4077
G1 X66.1026 Y249.9011
G1 X56.6982 Y228.1690
G1 X52.6299 Y205.3451
G1 X55.8850 Y204.3156
G1 X56.8352 Y181.3256
G1 X55.8850 Y204.3156
G1 X53.6943 Y183.8205
G1 X55.8850 Y204.3156
G1 X52.6299 Y205.3451
G1 X53.6943 Y183.8205
G1 X56.8352 Y181.3256
G1 X61.6860 Y161.6650
G1 X70.3075 Y160.8928
G1 X75.6377 Y145.0099
G1 X86.0098 Y147.6792
G1 X89.2653 Y134.7894
G1 X99.0935 Y140.1114
G1 X102.4810 Y130.6090
G1 X110.4947 Y138.6210
G1 X114.7560 Y133.9301
G1 X112.9194 Y149.6137
G1 X118.0862 Y144.7069
G1 X108.8312 Y159.3485
G1 X112.9194 Y149.6137
G1 X110.4947 Y138.6210
G1 X112.9194 Y149.6137
G1 X108.8312 Y159.3485
G1 X99.8553 Y164.0935
G1 X90.1354 Y167.4436
G1 X108.8312 Y159.3485
G1 X99.6942 Y166.5843
G1 X112.9194 Y149.6137
G1 X105.5181 Y159.8426
G1 X110.4947 Y138.6210
G1 X105.3176 Y149.7050
G1 X102.4810 Y130.6090
G1 X105.3176 Y149.7050
G1 X110.4947 Y138.6210
G1 X105.5181 Y159.8426
G1 X99.6942 Y166.5843
G1 X89.7809 Y173.6291
G1 X105.5181 Y159.8426
G1 X105.3176 Y149.7050
G1 X99.0935 Y140.1114
G1 X105.3176 Y149.7050
G1 X105.5181 Y159.8426
G1 X97.3827 Y170.9432
G1 X105.3176 Y149.7050
G1 X97.3827 Y170.9432
G1 X99.4833 Y163.8112
G1 X105.3176 Y149.7050
G1 X99.4833 Y163.8112
G1 X99.0935 Y140.1114
G1 X95.1468 Y154.8942
G1 X89.2653 Y134.7894
G1 X95.1468 Y154.8942
G1 X99.0935 Y140.1114
G1 X99.4833 Y163.8112
G1 X97.3827 Y170.9432
G1 X91.1881 Y180.8482
G1 X99.4833 Y163.8112
G1 X95.1468 Y154.8942
G1 X86.0098 Y147.6792
G1 X95.1468 Y154.8942
G1 X99.4833 Y163.8112
G1 X94.2942 Y176.5350
G1 X95.1468 Y154.8942
G1 X94.2942 Y176.5350
G1 X90.5862 Y170.1503
G1 X95.1468 Y154.8942
G1 X90.5862 Y170.1503
G1 X86.0098 Y147.6792
G1 X81.4052 Y164.1475
G1 X75.6377 Y145.0099
G1 X81.4052 Y164.1475
G1 X70.3075 Y160.8928
G1 X66.0341 Y180.8233
G1 X61.6860 Y161.6650
G1 X66.0341 Y180.8233
G1 X56.8352 Y181.3256
G1 X65.2844 Y203.2196
G1 X55.8850 Y204.3156
G1 X69.4099 Y226.3507
G1 X60.1529 Y228.3185
G0 Z90.0
G1 X69.4099 Y226.3507
G1 Z0.0000
G1 X65.2844 Y203.2196
G1 X66.0341 Y180.8233
G1 X77.7499 Y182.5461
G1 X77.1717 Y202.5056
G1 X86.8517 Y202.4599
G1 X89.9697 Y219.6505
G1 X77.1717 Y202.5056
G1 X77.7499 Y182.5461
G1 X86.8517 Y202.4599
G1 X77.1717 Y202.5056
G1 X66.0341 Y180.8233
G1 X77.1717 Y202.5056
G1 X89.9697 Y219.6505
G1 X80.8559 Y223.0214
G1 X77.1717 Y202.5056
G1 X65.2844 Y203.2196
G1 X77.1717 Y202.5056
G1 X80.8559 Y223.0214
G1 X89.1748 Y242.4952
G1 X69.4099 Y226.3507
G0 Z90.0
G1 X143.6288 Y293.5978
G1 Z0.0000
G1 X123.2296 Y292.4396
G1 X149.8466 Y289.4424
G1 X153.0572 Y279.7449
G1 X166.1451 Y264.4224
G1 X151.9700 Y268.2458
G1 X159.2576 Y256.2111
G1 X147.0042 Y259.4699
G1 X151.5810 Y253.7494
G1 X159.2576 Y256.2111
G1 X166.1451 Y264.4224
G1 X169.5089 Y275.2075
G1 X153.0572 Y279.7449
G1 X169.5089 Y275.2075
G1 X149.8466 Y289.4424
G1 X143.6288 Y293.5978
G1 X149.8466 Y289.4424
G1 X168.0563 Y284.3321
G1 X149.8466 Y289.4424
G1 X169.5089 Y275.2075
G1 X183.2842 Y265.7384
G1 X168.0563 Y284.3321
G1 X169.5089 Y275.2075
G1 X166.1451 Y264.4224
G1 X159.2576 Y256.2111
G1 X151.5810 Y253.7494
G1 X161.0253 Y247.4020
G1 X159.2576 Y256.2111
G1 X169.4126 Y249.3988
G1 X166.1451 Y264.4224
G1 X177.9535 Y256.4104
G1 X183.2842 Y265.7384
G1 X169.5089 Y275.2075
G1 X177.9535 Y256.4104
G1 X166.1451 Y264.4224
G1 X169.4126 Y249.3988
G1 X159.2576 Y256.2111
G1 X161.0253 Y247.4020
G1 X169.4126 Y249.3988
G1 X177.9535 Y256.4104
G1 X169.5089 Y275.2075
G1 X168.0563 Y284.3321
G1 X143.6288 Y293.5978
G0 Z90.0
G1 X162.3993 Y288.2717
G1 Z0.0000
G1 X143.6288 Y293.5978
G1 X168.0563 Y284.3321
G1 X183.2842 Y265.7384
G1 X186.6148 Y245.2973
G1 X176.7857 Y240.0002
G1 X181.0142 Y229.2317
G1 X186.6148 Y245.2973
G1 X193.5139 Y252.5331
G1 X183.2842 Y265.7384
G1 X177.9535 Y256.4104
G1 X176.7857 Y240.0002
G1 X169.4126 Y249.3988
G1 X167.8911 Y238.7009
G1 X176.7857 Y240.0002
G1 X186.6148 Y245.2973
G1 X177.9535 Y256.4104
G1 X169.4126 Y249.3988
G1 X161.0253 Y247.4020
G1 X167.8911 Y238.7009
G1 X169.4126 Y249.3988
G1 X176.7857 Y240.0002
G1 X177.9535 Y256.4104
G1 X186.6148 Y245.2973
G1 X183.2842 Y265.7384
G1 X183.3415 Y273.7172
G1 X168.0563 Y284.3321
G1 X162.3993 Y288.2717
G1 X168.0563 Y284.3321
G1 X183.3415 Y273.7172
G1 X183.2842 Y265.7384
G1 X193.5139 Y252.5331
G1 X194.8228 Y258.8472
G1 X183.3415 Y273.7172
G1 X193.5139 Y252.5331
G1 X186.6148 Y245.2973
G1 X191.6889 Y232.4532
G1 X199.7952 Y237.0943
G1 X193.5139 Y252.5331
G1 X191.6889 Y232.4532
G1 X186.6148 Y245.2973
G1 X181.0142 Y229.2317
G1 X181.8665 Y218.2764
G1 X191.6889 Y232.4532
G1 X181.8665 Y218.2764
G1 X192.9073 Y219.4596
G1 X191.6889 Y232.4532
G1 X192.9073 Y219.4596
G1 X199.7952 Y237.0943
G1 X194.8228 Y258.8472
G1 X193.5139 Y252.5331
G1 X199.7952 Y237.0943
G1 X191.6889 Y232.4532
G1 X181.0142 Y229.2317
G1 X176.7857 Y240.0002
G1 X167.8911 Y238.7009
G1 X161.0253 Y247.4020
G1 X156.0080 Y251.1424
G1 X163.3832 Y241.8517
G1 X161.0253 Y247.4020
G1 X163.3832 Y241.8517
G1 X167.8911 Y238.7009
G1 X171.9918 Y228.6713
G1 X176.7857 Y240.0002
G1 X171.9918 Y228.6713
G1 X181.0142 Y229.2317
G1 X191.6889 Y232.4532
G1 X193.5139 Y252.5331
G1 X183.3415 Y273.7172
G1 X162.3993 Y288.2717
G0 Z90.0
G1 X148.1143 Y242.4495
G1 Z0.0000
G1 X152.2955 Y237.5510
G1 X132.4970 Y227.5671
G1 X135.3573 Y221.7884
G1 X152.2955 Y237.5510
G1 X172.2155 Y251.2129
G1 X193.7023 Y260.7444
G1 X199.2572 Y251.3250
G1 X220.2284 Y243.6866
G1 X202.0431 Y239.8965
G1 X216.5005 Y234.2092
G1 X200.9895 Y230.9545
G1 X196.5742 Y227.9365
G1 X209.9788 Y230.6972
G1 X200.9895 Y230.9545
G1 X209.9788 Y230.6972
G1 X216.5005 Y234.2092
G1 X220.2284 Y243.6866
G1 X219.6389 Y255.4846
G1 X199.2572 Y251.3250
G1 X219.6389 Y255.4846
G1 X193.7023 Y260.7444
G1 X166.9973 Y255.4058
G1 X172.2155 Y251.2129
G1 X199.2572 Y251.3250
G1 X202.0431 Y239.8965
G1 X200.9895 Y230.9545
G1 X185.5732 Y224.0301
G1 X183.4158 Y222.0873
G1 X196.5742 Y227.9365
G1 X185.5732 Y224.0301
G1 X196.5742 Y227.9365
G1 X200.9895 Y230.9545
G1 X216.5005 Y234.2092
G1 X202.0431 Y239.8965
G1 X220.2284 Y243.6866
G1 X199.2572 Y251.3250
G1 X193.7023 Y260.7444
G1 X172.2155 Y251.2129
G1 X148.1143 Y242.4495
G0 Z90.0
G1 X152.2955 Y237.5510
G1 Z0.0000
G1 X178.6447 Y242.1091
G1 X172.2155 Y251.2129
G1 X178.6447 Y242.1091
G1 X183.7761 Y231.6686
G1 X166.8147 Y220.0324
G1 X185.5732 Y224.0301
G1 X166.8147 Y220.0324
G1 X171.4202 Y214.3202
G1 X151.9351 Y206.4078
G1 X159.1377 Y202.8585
G1 X151.9351 Y206.4078
G1 X138.8925 Y192.4221
G1 X159.1377 Y202.8585
G1 X138.8925 Y192.4221
G1 X148.3725 Y190.5208
G1 X159.1377 Y202.8585
G1 X171.4202 Y214.3202
G1 X159.1377 Y202.8585
G1 X171.5679 Y213.9425
G1 X171.4202 Y214.3202
G1 X185.5732 Y224.0301
G1 X183.7761 Y231.6686
G1 X202.0431 Y239.8965
G1 X178.6447 Y242.1091
G1 X199.2572 Y251.3250
G1 X178.6447 Y242.1091
G1 X202.0431 Y239.8965
G1 X183.7761 Y231.6686
G1 X200.9895 Y230.9545
G1 X183.7761 Y231.6686
G1 X185.5732 Y224.0301
G1 X171.4202 Y214.3202
G1 X183.4158 Y222.0873
G1 X171.4202 Y214.3202
G1 X171.5679 Y213.9425
G1 X183.4158 Y222.0873
G1 X185.5732 Y224.0301
G1 X200.9895 Y230.9545
G1 X202.0431 Y239.8965
G1 X199.2572 Y251.3250
G1 X172.2155 Y251.2129
G1 X152.2955 Y237.5510
G0 Z90.0
G1 X148.1143 Y242.4495
G1 Z0.0000
G1 X172.2155 Y251.2129
G1 X166.9973 Y255.4058
G1 X193.7023 Y260.7444
G1 X219.6389 Y255.4846
G1 X220.2284 Y243.6866
G1 X216.5005 Y234.2092
G1 X209.9788 Y230.6972
G1 X222.3331 Y229.9375
G1 X216.5005 Y234.2092
G1 X230.6980 Y233.3332
G1 X220.2284 Y243.6866
G1 X236.7215 Y242.6156
G1 X219.6389 Y255.4846
G1 X214.9645 Y264.9912
G1 X193.7023 Y260.7444
G1 X187.6086 Y264.4805
G1 X193.7023 Y260.7444
G1 X214.9645 Y264.9912
G1 X187.6086 Y264.4805
G1 X214.9645 Y264.9912
G1 X219.6389 Y255.4846
G1 X238.0292 Y254.1770
G1 X219.6389 Y255.4846
G1 X236.7215 Y242.6156
G1 X220.2284 Y243.6866
G1 X230.6980 Y233.3332
G1 X216.5005 Y234.2092
G1 X222.3331 Y229.9375
G1 X230.6980 Y233.3332
G1 X236.7215 Y242.6156
G1 X238.0292 Y254.1770
G1 X214.9645 Y264.9912
G1 X208.0775 Y268.4700
G1 X214.9645 Y264.9912
G1 X234.1062 Y263.4884
G1 X214.9645 Y264.9912
G1 X238.0292 Y254.1770
G1 X236.7215 Y242.6156
G1 X230.6980 Y233.3332
G1 X222.3331 Y229.9375
G1 X232.4706 Y225.6782
G1 X230.6980 Y233.3332
G1 X242.2635 Y228.4264
G1 X236.7215 Y242.6156
G1 X250.0805 Y236.8369
G1 X238.0292 Y254.1770
G1 X234.1062 Y263.4884
G1 X208.0775 Y268.4700
G1 X187.6086 Y264.4805
G1 X166.9973 Y255.4058
G1 X148.1143 Y242.4495
G1 X132.4970 Y227.5671
G1 X121.3524 Y213.5564
G1 X116.0159 Y203.7219
G1 X113.0984 Y196.1831
G1 X109.8250 Y192.1647
G1 X108.9275 Y182.1683
G1 X105.6779 Y180.8233
G1 X108.3958 Y169.9510
G1 X105.0265 Y168.8966
G1 X117.0571 Y162.4247
G1 X112.5944 Y160.5690
G1 X128.3146 Y161.1627
G1 X123.4526 Y158.3232
G1 X137.8281 Y166.5967
G1 X128.3146 Y161.1627
G1 X117.0571 Y162.4247
G1 X108.3958 Y169.9510
G1 X114.8539 Y172.8445
G1 X105.6779 Y180.8233
G1 X114.8539 Y172.8445
G1 X108.9275 Y182.1683
G1 X117.0002 Y187.1748
G1 X109.8250 Y192.1647
G1 X117.0002 Y187.1748
G1 X113.0984 Y196.1831
G1 X122.1080 Y206.7607
G1 X116.0159 Y203.7219
G1 X122.1080 Y206.7607
G1 X121.3524 Y213.5564
G1 X122.1080 Y206.7607
G1 X113.0984 Y196.1831
G1 X117.0002 Y187.1748
G1 X108.9275 Y182.1683
G1 X114.8539 Y172.8445
G1 X108.3958 Y169.9510
G1 X117.0571 Y162.4247
G1 X128.3146 Y161.1627
G1 X137.8281 Y166.5967
G1 X141.9753 Y176.6346
G1 X144.2818 Y186.0373
G1 X137.8281 Y166.5967
G1 X143.5320 Y176.0659
G1 X128.3146 Y161.1627
G1 X136.3179 Y169.0792
G1 X117.0571 Y162.4247
G1 X125.3518 Y167.8380
G1 X108.3958 Y169.9510
G1 X125.3518 Y167.8380
G1 X117.0571 Y162.4247
G1 X136.3179 Y169.0792
G1 X128.3146 Y161.1627
G1 X143.5320 Y176.0659
G1 X144.2818 Y186.0373
G1 X144.5163 Y197.9392
G1 X143.5320 Y176.0659
G1 X136.3179 Y169.0792
G1 X125.3518 Y167.8380
G1 X114.8539 Y172.8445
G1 X125.3518 Y167.8380
G1 X136.3179 Y169.0792
G1 X143.5320 Y176.0659
G1 X148.5257 Y189.0553
G1 X136.3179 Y169.0792
G1 X145.8194 Y181.4418
G1 X125.3518 Y167.8380
G1 X137.3358 Y178.0212
G1 X114.8539 Y172.8445
G1 X126.2892 Y180.2006
G1 X108.9275 Y182.1683
G1 X126.2892 Y180.2006
G1 X117.0002 Y187.1748
G1 X128.8065 Y198.6449
G1 X113.0984 Y196.1831
G1 X128.8065 Y198.6449
G1 X122.1080 Y206.7607
G1 X135.3573 Y221.7884
G1 X121.3524 Y213.5564
G1 X135.3573 Y221.7884
G1 X132.4970 Y227.5671
G1 X152.2955 Y237.5510
G1 X148.1143 Y242.4495
G0 Z90.0
G1 X152.2955 Y237.5510
G1 Z0.0000
G1 X159.4806 Y228.9661
G1 X135.3573 Y221.7884
G1 X142.8056 Y213.6726
G1 X128.8065 Y198.6449
G1 X138.8925 Y192.4221
G1 X151.9351 Y206.4078
G1 X128.8065 Y198.6449
G1 X151.9351 Y206.4078
G1 X171.4202 Y214.3202
G1 X166.8147 Y220.0324
G1 X151.9351 Y206.4078
G1 X142.8056 Y213.6726
G1 X151.9351 Y206.4078
G1 X166.8147 Y220.0324
G1 X142.8056 Y213.6726
G1 X159.4806 Y228.9661
G1 X166.8147 Y220.0324
G1 X183.7761 Y231.6686
G1 X159.4806 Y228.9661
G1 X183.7761 Y231.6686
G1 X178.6447 Y242.1091
G1 X159.4806 Y228.9661
G1 X142.8056 Y213.6726
G1 X166.8147 Y220.0324
G1 X159.4806 Y228.9661
G1 X178.6447 Y242.1091
G1 X152.2955 Y237.5510
G1 X135.3573 Y221.7884
G1 X122.1080 Y206.7607
G1 X128.8065 Y198.6449
G1 X117.0002 Y187.1748
G1 X126.2892 Y180.2006
G1 X114.8539 Y172.8445
G1 X137.3358 Y178.0212
G1 X125.3518 Y167.8380
G1 X145.8194 Y181.4418
G1 X137.3358 Y178.0212
G1 X145.8194 Y181.4418
G1 X153.5828 Y193.6259
G1 X137.3358 Y178.0212
G1 X126.2892 Y180.2006
G1 X137.3358 Y178.0212
G1 X153.5828 Y193.6259
G1 X148.3725 Y190.5208
G1 X137.3358 Y178.0212
G1 X148.3725 Y190.5208
G1 X153.5828 Y193.6259
G1 X161.6612 Y204.3363
G1 X148.3725 Y190.5208
G1 X126.2892 Y180.2006
G1 X138.8925 Y192.4221
G1 X117.0002 Y187.1748
G1 X138.8925 Y192.4221
G1 X126.2892 Y180.2006
G1 X148.3725 Y190.5208
G1 X161.6612 Y204.3363
G1 X171.5679 Y213.9425
G1 X159.1377 Y202.8585
G1 X161.6612 Y204.3363
G1 X159.1377 Y202.8585
G1 X148.3725 Y190.5208
G1 X138.8925 Y192.4221
G1 X128.8065 Y198.6449
G1 X142.8056 Y213.6726
G1 X122.1080 Y206.7607
G1 X142.8056 Y213.6726
G1 X135.3573 Y221.7884
G1 X159.4806 Y228.9661
G1 X152.2955 Y237.5510
G0 Z90.0
G1 X126.6495 Y192.5507
G1 Z0.0000
G1 X121.4504 Y194.2528
G1 X112.3486 Y196.6273
G1 X107.0046 Y199.2053
G1 X98.8826 Y196.4405
G1 X107.0046 Y199.2053
G1 X98.4417 Y199.7076
G1 X98.8826 Y196.4405
G1 X92.2866 Y200.6458
G1 X98.8826 Y196.4405
G1 X98.4417 Y199.7076
G1 X92.2866 Y200.6458
G1 X86.6624 Y194.9502
G1 X92.2866 Y200.6458
G1 X79.8439 Y200.4465
G1 X86.6624 Y194.9502
G1 X75.7187 Y197.9392
G1 X86.6624 Y194.9502
G1 X79.8439 Y200.4465
G1 X75.7187 Y197.9392
G1 X73.7622 Y189.6573
G1 X60.3356 Y188.2832
G1 X63.2191 Y178.3242
G1 X67.8590 Y168.8509
G1 X63.2191 Y178.3242
G1 X50.9424 Y172.7241
G1 X63.2191 Y178.3242
G1 X45.6794 Y181.1637
G1 X63.2191 Y178.3242
G1 X60.3356 Y188.2832
G1 X73.7622 Y189.6573
G1 X60.3356 Y194.8091
G1 X73.7622 Y189.6573
G1 X75.7187 Y197.9392
G1 X60.3356 Y194.8091
G1 Y188.2832
G1 X45.6794 Y181.1637
G1 X50.9424 Y172.7241
G1 X39.4487 Y162.6862
G1 X57.3952 Y164.1267
G1 X50.9424 Y172.7241
G1 X67.8590 Y168.8509
G1 X50.9424 Y172.7241
G1 X32.0303 Y169.0958
G1 X39.4487 Y162.6862
G1 X50.9424 Y172.7241
G1 X57.3952 Y164.1267
G1 X39.4487 Y162.6862
G1 X32.0303 Y169.0958
G1 X50.9424 Y172.7241
G1 X45.6794 Y181.1637
G1 X60.3356 Y188.2832
G1 X43.6776 Y186.1162
G1 X60.3356 Y188.2832
G1 Y194.8091
G1 X75.7187 Y197.9392
G1 X63.1622 Y195.4276
G1 X75.7187 Y197.9392
G1 X79.8439 Y200.4465
G1 X63.1622 Y195.4276
G1 X60.3356 Y194.8091
G1 X43.6776 Y186.1162
G1 X45.6794 Y181.1637
G1 X32.0303 Y169.0958
G1 X21.1385 Y152.9721
G1 X8.5982 Y133.4278
G1 X14.3079 Y133.9633
G1 X21.1385 Y152.9721
G1 X32.0303 Y169.0958
G1 X45.6794 Y181.1637
G1 X28.3290 Y172.4003
G1 X32.0303 Y169.0958
G1 X16.1665 Y154.4334
G1 X21.1385 Y152.9721
G1 X16.1665 Y154.4334
G1 X32.0303 Y169.0958
G1 X28.3290 Y172.4003
G1 X45.6794 Y181.1637
G1 X43.6776 Y186.1162
G1 X28.3290 Y172.4003
G1 X16.1665 Y154.4334
G1 X8.5982 Y133.4278
G1 X21.1385 Y152.9721
G1 X39.4487 Y162.6862
G1 X47.6766 Y155.6829
G1 X39.7986 Y144.0468
G1 X53.4718 Y150.8425
G1 X39.7986 Y144.0468
G1 X46.1609 Y140.0865
G1 X41.4866 Y127.1095
G1 X46.8870 Y138.6335
G1 X41.4866 Y127.1095
G1 X41.9669 Y125.0296
G1 X46.8870 Y138.6335
G1 X46.1609 Y140.0865
G1 X53.4718 Y150.8425
G1 X47.6766 Y155.6829
G1 X57.3952 Y164.1267
G1 X67.8590 Y168.8509
G1 X78.3448 Y169.5898
G1 X83.0707 Y165.6461
G1 X95.5130 Y166.3394
G1 X78.3448 Y169.5898
G1 X67.8590 Y168.8509
G1 X72.4292 Y163.5746
G1 X83.0707 Y165.6461
G1 X67.8590 Y168.8509
G1 X57.3952 Y164.1267
G1 X62.4934 Y158.7383
G1 X47.6766 Y155.6829
G1 X53.4718 Y150.8425
G1 X46.1609 Y140.0865
G1 X54.6329 Y149.9832
G1 X46.1609 Y140.0865
G1 X46.8870 Y138.6335
G1 X54.6329 Y149.9832
G1 X53.4718 Y150.8425
G1 X62.4934 Y158.7383
G1 X72.4292 Y163.5746
G1 X75.1579 Y164.4588
G1 X87.1199 Y168.3943
G1 X72.4292 Y163.5746
G1 X62.4934 Y158.7383
G1 X64.3001 Y158.6013
G1 X75.1579 Y164.4588
G1 X62.4934 Y158.7383
G1 X53.4718 Y150.8425
G1 X54.6329 Y149.9832
G1 X64.3001 Y158.6013
G1 X53.4718 Y150.8425
G1 X64.3001 Y158.6013
G1 X62.4934 Y158.7383
G1 X75.1579 Y164.4588
G1 X72.4292 Y163.5746
G1 X57.3952 Y164.1267
G1 X47.6766 Y155.6829
G1 X62.4934 Y158.7383
G1 X57.3952 Y164.1267
G1 X72.4292 Y163.5746
G1 X67.8590 Y168.8509
G1 X83.0707 Y165.6461
G1 X78.3448 Y169.5898
G1 X63.2191 Y178.3242
G1 X74.7755 Y178.7725
G1 X78.3448 Y169.5898
G1 X89.3346 Y167.0326
G1 X95.5130 Y166.3394
G1 X109.5909 Y167.0990
G1 X89.3346 Y167.0326
G1 X74.7755 Y178.7725
G1 X60.3356 Y188.2832
G1 X74.7755 Y178.7725
G1 X63.2191 Y178.3242
G1 X78.3448 Y169.5898
G1 X74.7755 Y178.7725
G1 X73.7622 Y189.6573
G1 X83.7972 Y184.7587
G1 X75.7187 Y197.9392
G1 X83.7972 Y184.7587
G1 X86.6624 Y194.9502
G1 X92.7781 Y187.9594
G1 X92.2866 Y200.6458
G1 X92.7781 Y187.9594
G1 X98.8826 Y196.4405
G1 X103.0933 Y192.2560
G1 X107.0046 Y199.2053
G1 X103.0933 Y192.2560
G1 X112.3486 Y196.6273
G1 X116.3982 Y194.8340
G1 X121.4504 Y194.2528
G1 X116.3982 Y194.8340
G1 X126.6495 Y192.5507
G0 Z90.0
G1 X119.0352 Y194.6472
G1 Z0.0000
G1 X116.3982 Y194.8340
G1 X112.3486 Y196.6273
G1 X103.0933 Y192.2560
G1 X98.8826 Y196.4405
G1 X92.7781 Y187.9594
G1 X86.6624 Y194.9502
G1 X83.7972 Y184.7587
G1 X73.7622 Y189.6573
G1 X74.7755 Y178.7725
G1 X84.8263 Y174.0608
G1 X89.3346 Y167.0326
G1 X101.5656 Y164.1807
G1 X84.8263 Y174.0608
G1 X74.7755 Y178.7725
G1 X89.3346 Y167.0326
G1 X84.8263 Y174.0608
G1 X73.7622 Y189.6573
G1 X84.8263 Y174.0608
G1 X83.7972 Y184.7587
G1 X84.8263 Y174.0608
G1 X94.4772 Y167.9459
G1 X101.5656 Y164.1807
G1 X112.0045 Y161.5986
G1 X94.4772 Y167.9459
G1 X83.7972 Y184.7587
G1 X91.0902 Y177.0248
G1 X86.6624 Y194.9502
G1 X91.0902 Y177.0248
G1 X83.7972 Y184.7587
G1 X94.4772 Y167.9459
G1 X91.0902 Y177.0248
G1 X92.7781 Y187.9594
G1 X91.0902 Y177.0248
G1 X94.4772 Y167.9459
G1 X102.8687 Y163.8112
G1 X91.0902 Y177.0248
G1 X102.8687 Y163.8112
G1 X97.2349 Y171.9063
G1 X91.0902 Y177.0248
G1 X97.2349 Y171.9063
G1 X92.7781 Y187.9594
G1 X97.3026 Y182.7910
G1 X98.8826 Y196.4405
G1 X97.3026 Y182.7910
G1 X103.0933 Y192.2560
G1 X106.5812 Y190.2509
G1 X112.3486 Y196.6273
G1 X106.5812 Y190.2509
G1 X116.3982 Y194.8340
G1 X106.5812 Y190.2509
G1 X103.0933 Y192.2560
G1 X97.3026 Y182.7910
G1 X92.7781 Y187.9594
G1 X97.2349 Y171.9063
G1 X97.3026 Y182.7910
G1 X97.2349 Y171.9063
G1 X102.8687 Y163.8112
G1 X108.6299 Y161.2415
G1 X97.2349 Y171.9063
G1 X101.7649 Y169.4321
G1 X97.3026 Y182.7910
G1 X100.9695 Y180.5368
G1 X103.0933 Y192.2560
G1 X100.9695 Y180.5368
G1 X97.3026 Y182.7910
G1 X101.7649 Y169.4321
G1 X97.2349 Y171.9063
G1 X108.6299 Y161.2415
G1 X101.7649 Y169.4321
G1 X100.9695 Y180.5368
G1 X106.5812 Y190.2509
G1 X109.0184 Y189.9935
G1 X116.3982 Y194.8340
G1 X109.0184 Y189.9935
G1 X119.0352 Y194.6472
G0 Z90.0
G1 X109.9230 Y190.8404
G1 Z0.0000
G1 X105.6779 Y180.8233
G1 X103.6525 Y180.1549
G1 X105.0265 Y168.8966
G1 X112.5944 Y160.5690
G1 X123.4526 Y158.3232
G1 X133.4224 Y163.0266
G1 X137.8281 Y166.5967
G1 X123.4526 Y158.3232
G1 X128.3146 Y161.1627
G1 X112.5944 Y160.5690
G1 X117.0571 Y162.4247
G1 X105.0265 Y168.8966
G1 X108.3958 Y169.9510
G1 X103.6525 Y180.1549
G1 X108.3958 Y169.9510
G1 X105.6779 Y180.8233
G1 X108.9275 Y182.1683
G1 X109.9230 Y190.8404
G1 X109.0184 Y189.9935
G1 X106.5812 Y190.2509
G1 X100.9695 Y180.5368
G1 X101.7649 Y169.4321
G1 X108.6299 Y161.2415
G1 X118.8820 Y159.0787
G1 X123.4526 Y158.3232
G1 X108.6299 Y161.2415
G1 X112.5944 Y160.5690
G1 X101.7649 Y169.4321
G1 X105.0265 Y168.8966
G1 X100.9695 Y180.5368
G1 X103.6525 Y180.1549
G1 X106.5812 Y190.2509
G1 X103.6525 Y180.1549
G1 X109.0184 Y189.9935
G1 X103.6525 Y180.1549
G1 X100.9695 Y180.5368
G1 X105.0265 Y168.8966
G1 X101.7649 Y169.4321
G1 X112.5944 Y160.5690
G1 X108.6299 Y161.2415
G1 X123.4526 Y158.3232
G1 X112.5944 Y160.5690
G1 X105.0265 Y168.8966
G1 X103.6525 Y180.1549
G1 X105.6779 Y180.8233
G1 X109.0184 Y189.9935
G1 X105.6779 Y180.8233
G1 X109.9230 Y190.8404
G0 Z90.0
G1 X94.6765 Y157.3186
G1 Z0.0000
G1 X85.6789 Y152.9721
G1 X84.1791 Y150.4896
G1 X77.9504 Y144.3831
G1 X74.2084 Y139.1483
G1 X71.3544 Y132.5892
G1 X65.9884 Y122.3230
G1 X62.4357 Y106.3944
G1 X62.1207 Y87.2236
G1 X65.9141 Y66.7544
G1 X64.3238 Y85.9467
G1 X62.1207 Y87.2236
G1 X64.7700 Y102.8160
G1 X62.4357 Y106.3944
G1 X68.4713 Y116.3451
G1 X65.9884 Y122.3230
G1 X68.4713 Y116.3451
G1 X62.4357 Y106.3944
G1 X64.7700 Y102.8160
G1 X62.1207 Y87.2236
G1 X64.3238 Y85.9467
G1 X65.9141 Y66.7544
G1 X74.0495 Y46.7554
G1 X67.7096 Y67.6245
G1 X65.9141 Y66.7544
G1 X67.7096 Y67.6245
G1 X64.3238 Y85.9467
G1 X64.7700 Y102.8160
G1 X68.4713 Y116.3451
G1 X64.7700 Y102.8160
G1 X64.3238 Y85.9467
G1 X67.7096 Y67.6245
G1 X74.0495 Y46.7554
G1 X86.2161 Y28.8549
G1 X75.0889 Y49.5580
G1 X74.0495 Y46.7554
G1 X75.0889 Y49.5580
G1 X67.7096 Y67.6245
G1 X72.2640 Y85.6329
G1 X64.3238 Y85.9467
G1 X72.8074 Y99.7232
G1 X64.7700 Y102.8160
G1 X72.8074 Y99.7232
G1 X64.3238 Y85.9467
G1 X72.2640 Y85.6329
G1 X67.7096 Y67.6245
G1 X75.0889 Y49.5580
G1 X75.1126 Y70.0949
G1 X67.7096 Y67.6245
G1 X75.1126 Y70.0949
G1 X72.2640 Y85.6329
G1 X72.8074 Y99.7232
G1 X72.2640 Y85.6329
G1 X75.1126 Y70.0949
G1 X75.0889 Y49.5580
G1 X86.2161 Y28.8549
G1 X86.1356 Y33.3288
G1 X75.0889 Y49.5580
G1 X81.4741 Y54.5914
G1 X75.1126 Y70.0949
G1 X82.8934 Y86.4287
G1 X92.0051 Y88.0074
G1 X96.0738 Y89.7514
G1 X94.2199 Y75.7523
G1 X98.4417 Y76.7262
G1 X96.0738 Y89.7514
G1 X96.4221 Y101.9899
G1 X92.0051 Y88.0074
G1 X94.2199 Y75.7523
G1 X96.0738 Y89.7514
G1 X92.0051 Y88.0074
G1 X96.4221 Y101.9899
G1 X99.0599 Y113.2026
G1 X92.4755 Y99.2209
G1 X96.4221 Y101.9899
G1 X92.4755 Y99.2209
G1 X92.0051 Y88.0074
G1 X85.2949 Y73.2130
G1 X94.2199 Y75.7523
G1 X99.2824 Y63.4200
G1 X103.7210 Y63.7567
G1 X98.4417 Y76.7262
G1 X99.2824 Y63.4200
G1 X98.4417 Y76.7262
G1 X94.2199 Y75.7523
G1 X92.0051 Y88.0074
G1 X92.4755 Y99.2209
G1 X99.0599 Y113.2026
G1 X103.4536 Y124.3032
G1 X95.4150 Y108.9226
G1 X99.0599 Y113.2026
G1 X95.4150 Y108.9226
G1 X92.4755 Y99.2209
G1 X82.8934 Y86.4287
G1 X85.2949 Y73.2130
G1 X92.0051 Y88.0074
G1 X82.8934 Y86.4287
G1 X72.2640 Y85.6329
G1 X82.8934 Y86.4287
G1 X92.4755 Y99.2209
G1 X95.4150 Y108.9226
G1 X83.4422 Y98.3450
G1 X92.4755 Y99.2209
G1 X83.4422 Y98.3450
G1 X82.8934 Y86.4287
G1 X75.1126 Y70.0949
G1 X85.2949 Y73.2130
G1 X90.7535 Y59.9122
G1 X99.2824 Y63.4200
G1 X107.0399 Y52.1214
G1 X111.8563 Y51.9209
G1 X103.7210 Y63.7567
G1 X107.0399 Y52.1214
G1 X103.7210 Y63.7567
G1 X99.2824 Y63.4200
G1 X94.2199 Y75.7523
G1 X90.7535 Y59.9122
G1 X94.2199 Y75.7523
G1 X85.2949 Y73.2130
G1 X82.8934 Y86.4287
G1 X83.4422 Y98.3450
G1 X72.2640 Y85.6329
G1 X83.4422 Y98.3450
G1 X72.8074 Y99.7232
G1 X76.4232 Y110.8529
G1 X64.7700 Y102.8160
G1 X76.4232 Y110.8529
G1 X68.4713 Y116.3451
G1 X74.6896 Y124.3364
G1 X65.9884 Y122.3230
G1 X74.6896 Y124.3364
G1 X71.3544 Y132.5892
G1 X77.4589 Y134.9554
G1 X74.2084 Y139.1483
G1 X77.4589 Y134.9554
G1 X77.9504 Y144.3831
G1 X81.3304 Y143.7645
G1 X84.1791 Y150.4896
G1 X81.3304 Y143.7645
G1 X85.6789 Y152.9721
G1 X87.2519 Y153.3956
G1 X94.6765 Y157.3186
G0 Z90.0
G1 X87.6467 Y153.8979
G1 Z0.0000
G1 X87.2519 Y153.3956
G1 X85.6789 Y152.9721
G1 X81.3304 Y143.7645
G1 X77.9504 Y144.3831
G1 X77.4589 Y134.9554
G1 X71.3544 Y132.5892
G1 X74.6896 Y124.3364
G1 X68.4713 Y116.3451
G1 X76.4232 Y110.8529
G1 X72.8074 Y99.7232
G1 X83.4422 Y98.3450
G1 X86.7595 Y108.0051
G1 X95.4150 Y108.9226
G1 X86.7595 Y108.0051
G1 X83.4422 Y98.3450
G1 X95.4150 Y108.9226
G1 X100.7922 Y117.6652
G1 X103.4536 Y124.3032
G1 X108.3729 Y136.8360
G1 X100.7922 Y117.6652
G1 X86.7595 Y108.0051
G1 X72.8074 Y99.7232
G1 X86.7595 Y108.0051
G1 X76.4232 Y110.8529
G1 X86.7595 Y108.0051
G1 X100.7922 Y117.6652
G1 X92.9778 Y115.0831
G1 X86.7595 Y108.0051
G1 X92.9778 Y115.0831
G1 X100.7922 Y117.6652
G1 X108.0126 Y127.4665
G1 X92.9778 Y115.0831
G1 X76.4232 Y110.8529
G1 X82.9727 Y117.6279
G1 X68.4713 Y116.3451
G1 X82.9727 Y117.6279
G1 X74.6896 Y124.3364
G1 X82.9507 Y125.8392
G1 X71.3544 Y132.5892
G1 X82.9507 Y125.8392
G1 X77.4589 Y134.9554
G1 X83.3737 Y133.2119
G1 X77.9504 Y144.3831
G1 X83.3737 Y133.2119
G1 X81.3304 Y143.7645
G1 X83.6983 Y143.0962
G1 X85.6789 Y152.9721
G1 X83.6983 Y143.0962
G1 X87.2519 Y153.3956
G1 X83.6983 Y143.0962
G1 X81.3304 Y143.7645
G1 X83.3737 Y133.2119
G1 X77.4589 Y134.9554
G1 X82.9507 Y125.8392
G1 X74.6896 Y124.3364
G1 X82.9727 Y117.6279
G1 X76.4232 Y110.8529
G1 X92.9778 Y115.0831
G1 X82.9727 Y117.6279
G1 X92.9778 Y115.0831
G1 X101.9081 Y121.2478
G1 X108.0126 Y127.4665
G1 X114.4886 Y137.0062
G1 X101.9081 Y121.2478
G1 X82.9727 Y117.6279
G1 X92.3206 Y120.6002
G1 X74.6896 Y124.3364
G1 X92.3206 Y120.6002
G1 X82.9727 Y117.6279
G1 X101.9081 Y121.2478
G1 X92.3206 Y120.6002
G1 X82.9507 Y125.8392
G1 X92.3206 Y120.6002
G1 X101.9081 Y121.2478
G1 X110.2721 Y127.7944
G1 X92.3206 Y120.6002
G1 X101.3074 Y123.3442
G1 X82.9507 Y125.8392
G1 X91.0208 Y125.3950
G1 X77.4589 Y134.9554
G1 X91.0208 Y125.3950
G1 X82.9507 Y125.8392
G1 X101.3074 Y123.3442
G1 X91.0208 Y125.3950
G1 X83.3737 Y133.2119
G1 X91.0208 Y125.3950
G1 X101.3074 Y123.3442
G1 X110.2721 Y127.7944
G1 X115.2998 Y131.6261
G1 X101.3074 Y123.3442
G1 X106.4492 Y125.4780
G1 X91.0208 Y125.3950
G1 X95.5919 Y125.8142
G1 X83.3737 Y133.2119
G1 X86.8857 Y132.5435
G1 X81.3304 Y143.7645
G1 X86.8857 Y132.5435
G1 X83.6983 Y143.0962
G1 X84.1907 Y143.3411
G1 X87.2519 Y153.3956
G1 X84.1907 Y143.3411
G1 X87.6467 Y153.8979
G0 Z90.0
G1 X84.1907 Y143.3411
G1 Z0.0000
G1 X83.6983 Y143.0962
G1 X86.8857 Y132.5435
G1 X83.3737 Y133.2119
G1 X95.5919 Y125.8142
G1 X91.0208 Y125.3950
G1 X106.4492 Y125.4780
G1 X95.5919 Y125.8142
G1 X86.8857 Y132.5435
G1 X95.5919 Y125.8142
G1 X106.4492 Y125.4780
G1 X115.2998 Y131.6261
G1 X116.7129 Y132.7760
G1 X106.4492 Y125.4780
G1 X107.7207 Y126.2377
G1 X95.5919 Y125.8142
G1 X96.5878 Y126.2501
G1 X86.8857 Y132.5435
G1 X87.6002 Y132.7760
G1 X83.6983 Y143.0962
G1 X87.6002 Y132.7760
G1 X84.1907 Y143.3411
G0 Z90.0
G1 X87.6002 Y132.7760
G1 Z0.0000
G1 X86.8857 Y132.5435
G1 X96.5878 Y126.2501
G1 X95.5919 Y125.8142
G1 X107.7207 Y126.2377
G1 X96.5878 Y126.2501
G1 X87.6002 Y132.7760
G0 Z90.0
G1 X111.6794 Y98.5692
G1 Z0.0000
G1 X120.4777 Y93.1388
G1 X118.5548 Y91.5364
G1 X128.5151 Y89.9286
G1 X125.7233 Y84.6079
G1 X135.6371 Y86.2045
G1 X136.6782 Y78.0119
G1 X145.6878 Y83.5331
G1 X151.9015 Y91.1823
G1 X148.2915 Y101.0268
G1 X146.1694 Y108.4410
G1 X137.6505 Y119.3050
G1 X148.2915 Y101.0268
G1 X145.6878 Y83.5331
G1 X144.2818 Y92.5091
G1 X136.6782 Y78.0119
G1 X144.2818 Y92.5091
G1 X145.6878 Y83.5331
G1 X148.2915 Y101.0268
G1 X144.2818 Y92.5091
G1 X135.6371 Y86.2045
G1 X144.2818 Y92.5091
G1 X148.2915 Y101.0268
G1 X143.9667 Y112.4844
G1 X144.2818 Y92.5091
G1 X144.2702 Y102.9198
G1 X135.6371 Y86.2045
G1 X138.3653 Y94.2883
G1 X125.7233 Y84.6079
G1 X138.3653 Y94.2883
G1 X128.5151 Y89.9286
G1 X131.0781 Y94.0878
G1 X118.5548 Y91.5364
G1 X131.0781 Y94.0878
G1 X120.4777 Y93.1388
G1 X119.8542 Y93.7391
G1 X111.6794 Y98.5692
G1 X112.3308 Y98.4571
G1 X118.5548 Y91.5364
G1 X118.4116 Y88.2868
G1 X118.5548 Y91.5364
G1 X116.4667 Y95.7646
G1 X118.4116 Y88.2868
G1 X125.7233 Y84.6079
G1 X118.4116 Y88.2868
G1 X124.0649 Y80.3246
G1 X125.7233 Y84.6079
G1 X128.4067 Y76.8051
G1 X125.7233 Y84.6079
G1 X124.0649 Y80.3246
G1 X128.4067 Y76.8051
G1 X136.6782 Y78.0119
G1 X142.6798 Y68.8313
G1 X150.6931 Y75.0952
G1 X157.3248 Y82.7498
G1 X150.6931 Y75.0952
G1 X158.8799 Y66.8511
G1 X165.0288 Y50.3994
G1 X180.0408 Y36.4805
G1 X179.3944 Y43.4310
G1 X165.0288 Y50.3994
G1 X169.5546 Y59.3293
G1 X158.8799 Y66.8511
G1 X150.6931 Y75.0952
G1 X152.4731 Y59.2313
G1 X150.6931 Y75.0952
G1 X142.6798 Y68.8313
G1 X136.6782 Y78.0119
G1 X136.4437 Y66.3708
G1 X136.6782 Y78.0119
G1 X128.4067 Y76.8051
G1 X136.4437 Y66.3708
G1 X142.6798 Y68.8313
G1 X152.4731 Y59.2313
G1 X158.8799 Y66.8511
G1 X169.5546 Y59.3293
G1 X165.1392 Y74.9353
G1 X169.5546 Y59.3293
G1 X175.0584 Y67.9391
G1 X186.5280 Y62.4237
G1 X179.4064 Y72.8468
G1 X186.5280 Y62.4237
G1 X191.5113 Y67.0242
G1 X179.4064 Y72.8468
G1 X175.0584 Y67.9391
G1 X165.1392 Y74.9353
G1 X158.8799 Y66.8511
G1 X157.3248 Y82.7498
G1 X158.8799 Y66.8511
G1 X152.4731 Y59.2313
G1 X165.0288 Y50.3994
G1 X152.4731 Y59.2313
G1 X142.6798 Y68.8313
G1 X148.4057 Y55.0726
G1 X142.6798 Y68.8313
G1 X136.4437 Y66.3708
G1 X128.4067 Y76.8051
G1 X134.3610 Y68.6303
G1 X128.4067 Y76.8051
G1 X124.0649 Y80.3246
G1 X134.3610 Y68.6303
G1 X136.4437 Y66.3708
G1 X148.4057 Y55.0726
G1 X152.4731 Y59.2313
G1 X163.2848 Y44.6615
G1 X165.0288 Y50.3994
G1 X163.2848 Y44.6615
G1 X152.4731 Y59.2313
G1 X148.4057 Y55.0726
G1 X163.2848 Y44.6615
G1 X180.0408 Y36.4805
G1 X183.5079 Y35.1716
G1 X202.7235 Y29.6952
G1 X180.0408 Y36.4805
G1 X165.0288 Y50.3994
G1 X158.8799 Y66.8511
G1 X165.1392 Y74.9353
G1 X157.3248 Y82.7498
G1 X151.9015 Y91.1823
G1 X152.8962 Y97.9772
G1 X146.1694 Y108.4410
G1 X151.9015 Y91.1823
G1 X157.3248 Y82.7498
G1 X159.9953 Y88.7559
G1 X152.8962 Y97.9772
G1 X157.3248 Y82.7498
G1 X165.1392 Y74.9353
G1 X168.7708 Y80.3009
G1 X168.4283 Y80.9410
G1 X157.7187 Y90.8440
G1 X168.7708 Y80.3009
G1 X179.4064 Y72.8468
G1 X180.9337 Y72.2287
G1 X168.4283 Y80.9410
G1 X179.4064 Y72.8468
G1 X168.4283 Y80.9410
G1 X168.7708 Y80.3009
G1 X159.9953 Y88.7559
G1 X165.1392 Y74.9353
G1 X175.0584 Y67.9391
G1 X179.4064 Y72.8468
G1 X191.5113 Y67.0242
G1 X194.8975 Y65.4903
G1 X180.9337 Y72.2287
G1 X191.5113 Y67.0242
G1 X180.9337 Y72.2287
G1 X179.4064 Y72.8468
G1 X168.7708 Y80.3009
G1 X175.0584 Y67.9391
G1 X168.7708 Y80.3009
G1 X165.1392 Y74.9353
G1 X159.9953 Y88.7559
G1 X157.3248 Y82.7498
G1 X152.8962 Y97.9772
G1 X151.9015 Y91.1823
G1 X150.6931 Y75.0952
G1 X145.6878 Y83.5331
G1 X142.6798 Y68.8313
G1 X145.6878 Y83.5331
G1 X150.6931 Y75.0952
G1 X151.9015 Y91.1823
G1 X146.1694 Y108.4410
G1 X148.2915 Y101.0268
G1 X151.9015 Y91.1823
G1 X145.6878 Y83.5331
G1 X136.6782 Y78.0119
G1 X135.6371 Y86.2045
G1 X128.4067 Y76.8051
G1 X135.6371 Y86.2045
G1 X125.7233 Y84.6079
G1 X128.5151 Y89.9286
G1 X118.4116 Y88.2868
G1 X128.5151 Y89.9286
G1 X118.5548 Y91.5364
G1 X120.4777 Y93.1388
G1 X112.3308 Y98.4571
G0 Z90.0
G1 X119.8542 Y93.7391
G1 Z0.0000
G1 X120.4777 Y93.1388
G1 X131.0781 Y94.0878
G1 X128.5151 Y89.9286
G1 X138.3653 Y94.2883
G1 X144.2702 Y102.9198
G1 X138.3653 Y94.2883
G1 X135.6371 Y86.2045
G1 X144.2702 Y102.9198
G1 X143.9667 Y112.4844
G1 X137.6505 Y119.3050
G1 X129.6995 Y126.4162
G1 X143.9667 Y112.4844
G1 X138.5090 Y121.0734
G1 X144.2702 Y102.9198
G1 X142.2331 Y111.3926
G1 X138.3653 Y94.2883
G1 X139.3965 Y101.0724
G1 X128.5151 Y89.9286
G1 X139.3965 Y101.0724
G1 X138.3653 Y94.2883
G1 X142.2331 Y111.3926
G1 X139.3965 Y101.0724
G1 X131.0781 Y94.0878
G1 X130.2823 Y95.7413
G1 X120.4777 Y93.1388
G1 X130.2823 Y95.7413
G1 X119.8542 Y93.7391
G0 Z90.0
G1 X172.0030 Y196.2662
G1 Z0.0000
G1 X163.1590 Y200.3428
G1 X159.3265 Y204.0789
G1 X148.8748 Y201.7584
G1 X146.2997 Y207.7695
G1 X137.2453 Y201.1606
G1 X132.7768 Y192.5632
G1 X140.8607 Y176.1448
G1 X137.4400 Y184.4183
G1 X132.7768 Y192.5632
G1 X137.4400 Y184.4183
G1 X137.2453 Y201.1606
G1 X140.4891 Y194.2279
G1 X146.2997 Y207.7695
G1 X140.4891 Y194.2279
G1 X137.2453 Y201.1606
G1 X137.4400 Y184.4183
G1 X140.8607 Y176.1448
G1 X147.2114 Y169.5151
G1 X137.4400 Y184.4183
G1 X140.4891 Y194.2279
G1 X148.8748 Y201.7584
G1 X152.8858 Y197.7274
G1 X159.3265 Y204.0789
G1 X152.8858 Y197.7274
G1 X163.1590 Y200.3428
G1 X167.3299 Y198.3999
G1 X172.0030 Y196.2662
G1 X167.7865 Y200.3012
G1 X163.5767 Y206.4369
G1 X157.9193 Y214.1625
G1 X153.9373 Y217.6579
G1 X147.5538 Y227.6127
G1 X145.5853 Y216.3917
G1 X153.9373 Y217.6579
G1 X156.3858 Y209.7704
G1 X157.9193 Y214.1625
G1 X156.3858 Y209.7704
G1 X163.5767 Y206.4369
G1 X156.3858 Y209.7704
G1 X153.9373 Y217.6579
G1 X145.5853 Y216.3917
G1 X143.1032 Y227.3803
G1 X135.3120 Y222.4942
G1 X128.8065 Y233.8937
G1 X122.2221 Y225.4250
G1 X127.1983 Y214.8350
G1 X128.8065 Y233.8937
G1 X127.1983 Y214.8350
G1 X135.3120 Y222.4942
G1 X136.0954 Y210.7999
G1 X143.1032 Y227.3803
G1 X136.0954 Y210.7999
G1 X145.5853 Y216.3917
G1 X146.2997 Y207.7695
G1 X153.9373 Y217.6579
G1 X146.2997 Y207.7695
G1 X156.3858 Y209.7704
G1 X159.3265 Y204.0789
G1 X163.5767 Y206.4369
G1 X159.3265 Y204.0789
G1 X167.7865 Y200.3012
G1 X159.3265 Y204.0789
G1 X156.3858 Y209.7704
G1 X146.2997 Y207.7695
G1 X145.5853 Y216.3917
G1 X136.0954 Y210.7999
G1 X135.3120 Y222.4942
G1 X127.1983 Y214.8350
G1 X129.2079 Y203.0702
G1 X134.5739 Y185.2984
G1 X132.7768 Y192.5632
G1 X129.2079 Y203.0702
G1 X135.3120 Y222.4942
G1 X129.2079 Y203.0702
G1 X136.0954 Y210.7999
G1 X129.2079 Y203.0702
G1 X132.7768 Y192.5632
G1 X134.5739 Y185.2984
G1 X140.8607 Y176.1448
G1 X132.7768 Y192.5632
G1 X136.0954 Y210.7999
G1 X132.7768 Y192.5632
G1 X137.2453 Y201.1606
G1 X136.0954 Y210.7999
G1 X137.2453 Y201.1606
G1 X145.5853 Y216.3917
G1 X137.2453 Y201.1606
G1 X146.2997 Y207.7695
G1 X148.8748 Y201.7584
G1 X156.3858 Y209.7704
G1 X148.8748 Y201.7584
G1 X159.3265 Y204.0789
G1 X163.1590 Y200.3428
G1 X167.7865 Y200.3012
G1 X163.1590 Y200.3428
G1 X172.0030 Y196.2662
G0 Z90.0
G1 X197.5921 Y199.8114
G1 Z0.0000
G1 X194.9776 Y194.0037
G1 X179.4397 Y195.9631
G1 X175.9617 Y186.9631
G1 X164.3895 Y191.8243
G1 X161.0253 Y181.2052
G1 X151.5117 Y185.7094
G1 X162.9365 Y169.8804
G1 X150.7861 Y174.3182
G1 X169.3557 Y162.2669
G1 X177.7700 Y161.2415
G1 X192.5412 Y164.5584
G1 X169.3557 Y162.2669
G1 X162.9365 Y169.8804
G1 X161.0253 Y181.2052
G1 X162.9365 Y169.8804
G1 X169.3557 Y162.2669
G1 X186.6833 Y161.4657
G1 X162.9365 Y169.8804
G1 X186.6833 Y161.4657
G1 X180.4866 Y165.5340
G1 X162.9365 Y169.8804
G1 X180.4866 Y165.5340
G1 X161.0253 Y181.2052
G1 X176.3627 Y175.2937
G1 X164.3895 Y191.8243
G1 X176.3627 Y175.2937
G1 X161.0253 Y181.2052
G1 X180.4866 Y165.5340
G1 X186.6833 Y161.4657
G1 X202.4425 Y163.0847
G1 X180.4866 Y165.5340
G1 X202.4425 Y163.0847
G1 X216.2307 Y164.2346
G1 X198.9479 Y164.0561
G1 X202.4425 Y163.0847
G1 X198.9479 Y164.0561
G1 X180.4866 Y165.5340
G1 X176.3627 Y175.2937
G1 X175.9617 Y186.9631
G1 X194.2976 Y183.2518
G1 X179.4397 Y195.9631
G1 X194.2976 Y183.2518
G1 X194.9776 Y194.0037
G1 X215.8487 Y192.9244
G1 X197.5921 Y199.8114
G0 Z90.0
G1 X215.8487 Y192.9244
G1 Z0.0000
G1 X215.7616 Y181.5954
G1 X237.8133 Y179.5322
G1 X215.7616 Y181.5954
G1 X215.8197 Y170.4409
G1 X235.4803 Y168.6849
G1 X215.7616 Y181.5954
G1 X194.2976 Y183.2518
G1 X215.8197 Y170.4409
G1 X215.7616 Y181.5954
G1 X235.4803 Y168.6849
G1 X237.8133 Y179.5322
G1 X215.8487 Y192.9244
G0 Z90.0
G1 X238.3862 Y190.9442
G1 Z0.0000
G1 X258.6073 Y175.2605
G1 X259.9647 Y186.4691
G1 X238.3862 Y190.9442
G0 Z90.0
G1 X236.9914 Y198.4207
G1 Z0.0000
G1 X257.4366 Y194.1988
G1 X234.1809 Y199.1347
G1 X236.9914 Y198.4207
G1 X238.3862 Y190.9442
