;PYCAM-META-DATA: Filename: /Users/jordan/Desktop/Knot.svg
;PYCAM-META-DATA: Timestamp: 2014-04-13 13:51:52.016795
;PYCAM-META-DATA: Version: 0.5.1
;Estimated machine time: 105 minutes
G40 (disable tool radius compensation)
G49 (disable tool length compensation)
G80 (cancel modal motion)
G54 (select coordinate system 1)
G90 (disable incremental moves)
G21 (metric)
G61 (exact path mode)
F200.00000
S1000.00000
;PYCAM_TOOLPATH_SETTINGS: START
;[Bounds]
;maxz = 0.0
;maxx = 129.21963
;maxy = 153.69441
;minx = 43.50007
;miny = 69.82549
;minz = 0.0
;
;[Tool]
;torus_radius = 0.25
;speed = 1000.0
;shape = SphericalCutter
;tool_radius = 0.5
;feedrate = 200.0
;
;[Process]
;engrave_offset = 0.0
;step_down = 3.0
;generator = EngraveCutter
;postprocessor = SimpleCutter
;milling_style = conventional
;material_allowance = 0.0
;pocketing_type = none
;path_direction = x
;
;PYCAM_TOOLPATH_SETTINGS: END
T3 M6
G0 Z90.0
M3
G04 P3
G1 X66.9467 Y130.9230
G1 Z0.0000
G1 X69.7039 Y130.1210
G1 X65.9529 Y125.3510
G1 X69.7039 Y130.1210
G1 X66.9467 Y130.9230
G0 Z90.0
G1 X64.7168 Y131.3970
G1 Z0.0000
G1 X62.9046 Y125.8630
G1 X64.7168 Y131.3970
G1 X63.6887 Y125.6150
G1 X64.7168 Y131.3970
G0 Z90.0
G1 X56.5574 Y104.8090
G1 Z0.0000
G1 X60.5786 Y101.2220
G1 X56.5574 Y104.8090
G0 Z90.0
G1 X69.8528 Y89.5483
G1 Z0.0000
G1 X72.1610 Y86.1737
G1 X69.8528 Y89.5483
G0 Z90.0
G1 X85.7786 Y90.2749
G1 Z0.0000
G1 X85.7332 Y91.0107
G1 X85.7786 Y90.2749
G0 Z90.0
G1  X100.0390 Y99.1867
G1 Z0.0000
G1 X99.4022 Y99.8506
G1 X100.0390 Y99.1867
G0 Z90.0
G1 X108.6900 Y105.6730
G1 Z0.0000
G1 X105.5590 Y109.5080
G1 X108.6900 Y105.6730
G1 X106.3050 Y110.0190
G1 X108.6900 Y105.6730
G0 Z90.0
G1 X107.6510 Y122.3940
G1 Z0.0000
G1 X102.2220 Y122.8710
G1 X107.6510 Y122.3940
G0 Z90.0
G1 X107.3150 Y124.1950
G1 Z0.0000
G1 X102.3250 Y124.5780
G1 X107.3150 Y124.1950
G1 X102.2680 Y124.5620
G1 X107.3150 Y124.1950
G0 Z90.0
G1 X99.2710 Y105.0080
G1 Z0.0000
G1 X99.8361 Y106.4170
G1 X100.7300 Y107.6560
G1 X101.9980 Y109.3950
G1 X102.9270 Y109.8940
G1 X105.1110 Y111.7940
G1 X107.9020 Y114.7570
G1 X110.7270 Y118.2850
G1 X107.6480 Y114.6470
G1 X107.9020 Y114.7570
G1 X105.0410 Y112.4460
G1 X105.1110 Y111.7940
G1 X102.6930 Y111.4830
G1 X102.9270 Y109.8940
G1 X101.3660 Y109.1440
G1 X101.9980 Y109.3950
G1 X101.3660 Y109.1440
G1 X100.7300 Y107.6560
G1 X101.3660 Y109.1440
G1 X102.9270 Y109.8940
G1 X102.6930 Y111.4830
G1 X105.1110 Y111.7940
G1 X105.0410 Y112.4460
G1 X107.9020 Y114.7570
G1 X107.6480 Y114.6470
G1 X105.0410 Y112.4460
G1 X102.6930 Y111.4830
G1 X105.0410 Y112.4460
G1 X107.6480 Y114.6470
G1 X103.9080 Y114.0510
G1 X105.0410 Y112.4460
G1 X103.9080 Y114.0510
G1 X107.6480 Y114.6470
G1 X110.1880 Y117.6140
G1 X110.7270 Y118.2850
G1 X113.0320 Y122.1490
G1 X110.1880 Y117.6140
G1 X106.3020 Y115.6100
G1 X107.6480 Y114.6470
G1 X106.3020 Y115.6100
G1 X103.9080 Y114.0510
G1 X101.3630 Y113.5580
G1 X105.0410 Y112.4460
G1 X101.3630 Y113.5580
G1 X102.6930 Y111.4830
G1 X100.6440 Y111.2640
G1 X102.9270 Y109.8940
G1 X100.6440 Y111.2640
G1 X101.3660 Y109.1440
G1 X100.2540 Y108.3150
G1 X100.7300 Y107.6560
G1 X100.2540 Y108.3150
G1 X99.8361 Y106.4170
G1 X100.2540 Y108.3150
G1 X101.3660 Y109.1440
G1 X100.6440 Y111.2640
G1 X102.6930 Y111.4830
G1 X101.3630 Y113.5580
G1 X103.9080 Y114.0510
G1 X106.3020 Y115.6100
G1 X110.1880 Y117.6140
G1 X113.0320 Y122.1490
G1 X112.2480 Y121.0050
G1 X110.1880 Y117.6140
G1 X108.4860 Y117.9660
G1 X106.3020 Y115.6100
G1 X102.1440 Y115.9960
G1 X100.4450 Y117.5060
G1 X99.4751 Y117.9970
G1 X96.8446 Y115.4790
G1 X94.3239 Y112.2990
G1 X97.7332 Y116.0300
G1 X96.8446 Y115.4790
G1 X100.4450 Y117.5060
G1 X102.6310 Y118.9990
G1 X101.7430 Y120.0970
G1 X99.4751 Y117.9970
G1 X102.6310 Y118.9990
G1 X99.4751 Y117.9970
G1 X100.4450 Y117.5060
G1 X97.7332 Y116.0300
G1 X94.9138 Y113.8120
G1 X99.4615 Y115.2980
G1 X97.7332 Y116.0300
G1 X102.1440 Y115.9960
G1 X97.7332 Y116.0300
G1 X99.4615 Y115.2980
G1 X102.1440 Y115.9960
G1 X104.3770 Y117.2780
G1 X102.6310 Y118.9990
G1 X104.4060 Y120.8890
G1 X103.6300 Y122.3100
G1 X101.7430 Y120.0970
G1 X104.4060 Y120.8890
G1 X101.7430 Y120.0970
G1 X102.6310 Y118.9990
G1 X100.4450 Y117.5060
G1 X104.3770 Y117.2780
G1 X100.4450 Y117.5060
G1 X102.1440 Y115.9960
G1 X103.9080 Y114.0510
G1 X102.1440 Y115.9960
G1 X106.3020 Y115.6100
G1 X104.3770 Y117.2780
G1 X102.1440 Y115.9960
G1 X99.4615 Y115.2980
G1 X94.9138 Y113.8120
G1 X96.6293 Y114.1590
G1 X99.4615 Y115.2980
G1 X103.9080 Y114.0510
G1 X99.4615 Y115.2980
G1 X101.3630 Y113.5580
G1 X99.4615 Y115.2980
G1 X96.6293 Y114.1590
G1 X94.9138 Y113.8120
G1 X92.8053 Y111.2720
G1 X96.6293 Y114.1590
G1 X101.3630 Y113.5580
G1 X98.8261 Y113.1870
G1 X102.6930 Y111.4830
G1 X98.8261 Y113.1870
G1 X101.3630 Y113.5580
G1 X96.6293 Y114.1590
G1 X98.8261 Y113.1870
G1 X100.6440 Y111.2640
G1 X99.1624 Y110.4340
G1 X101.3660 Y109.1440
G1 X99.1624 Y110.4340
G1 X100.2540 Y108.3150
G1 X99.6238 Y106.9450
G1 X99.8361 Y106.4170
G1 X99.6238 Y106.9450
G1 X99.2710 Y105.0080
G0 Z90.0
G1 X103.7650 Y111.9210
G1 Z0.0000
G1 X105.5590 Y109.5080
G1 X106.3050 Y110.0190
G1 X103.7650 Y111.9210
G1 X103.0900 Y112.5760
G1 X101.4570 Y114.2830
G1 X100.2830 Y115.5110
G1 X99.5151 Y116.8940
G1 X99.1926 Y118.4570
G1 X99.3193 Y116.6360
G1 X99.1789 Y118.7560
G1 X99.1926 Y118.4570
G1 X99.3510 Y120.1780
G1 X97.9192 Y121.4710
G1 X99.3510 Y120.1780
G1 X99.7204 Y122.3690
G1 X97.9192 Y121.4710
G1 X99.0039 Y123.2830
G1 X97.9192 Y121.4710
G1 X99.7204 Y122.3690
G1 X99.0039 Y123.2830
G1 X96.9037 Y124.0000
G1 X98.4112 Y126.3600
G1 X95.9308 Y126.5060
G1 X96.6957 Y129.2630
G1 X93.3429 Y126.4840
G1 X96.6957 Y129.2630
G1 X94.0361 Y128.9780
G1 X93.8308 Y131.6170
G1 X91.9703 Y128.9510
G1 X93.8308 Y131.6170
G1 X91.6574 Y131.4820
G1 X90.6696 Y133.8980
G1 X90.7175 Y132.0350
G1 X90.6696 Y133.8980
G1 X89.5837 Y134.6570
G1 X90.7175 Y132.0350
G1 X91.6574 Y131.4820
G1 X91.9703 Y128.9510
G1 X94.0361 Y128.9780
G1 X93.3429 Y126.4840
G1 X95.9308 Y126.5060
G1 X94.2344 Y124.2340
G1 X92.0475 Y123.8930
G1 X93.3429 Y126.4840
G1 X91.6686 Y126.3040
G1 X91.5388 Y126.0320
G1 X91.9593 Y122.2110
G1 X91.6686 Y126.3040
G1 X91.9703 Y128.9510
G1 X91.2908 Y129.1880
G1 X91.5388 Y126.0320
G1 X91.9703 Y128.9510
G1 X91.5388 Y126.0320
G1 X91.6686 Y126.3040
G1 X91.1887 Y123.1160
G1 X91.0538 Y119.4160
G1 X92.0475 Y123.8930
G1 X91.1887 Y123.1160
G1 X93.3429 Y126.4840
G1 X91.1887 Y123.1160
G1 X92.0475 Y123.8930
G1 X91.1669 Y120.8420
G1 X91.0538 Y119.4160
G1 X91.1324 Y116.0520
G1 X91.1669 Y120.8420
G1 X94.2344 Y124.2340
G1 X95.9308 Y126.5060
G1 X98.4112 Y126.3600
G1 X99.8167 Y126.1000
G1 X99.7850 Y130.1010
G1 X98.9363 Y134.5240
G1 X98.8964 Y129.6950
G1 X99.7850 Y130.1010
G1 X98.4112 Y126.3600
G1 X99.7850 Y130.1010
G1 X98.8964 Y129.6950
G1 X98.4112 Y126.3600
G1 X96.9037 Y124.0000
G1 X99.0039 Y123.2830
G1 X99.7204 Y122.3690
G1 X99.6156 Y125.8320
G1 X99.0039 Y123.2830
G1 X99.8167 Y126.1000
G1 X96.9037 Y124.0000
G1 X99.8167 Y126.1000
G1 X98.4112 Y126.3600
G1 X98.8964 Y129.6950
G1 X98.9363 Y134.5240
G1 X98.3549 Y133.5110
G1 X98.8964 Y129.6950
G1 X95.9308 Y126.5060
G1 X93.3429 Y126.4840
G1 X94.0361 Y128.9780
G1 X91.9703 Y128.9510
G1 X91.6574 Y131.4820
G1 X90.7175 Y132.0350
G1 X91.2908 Y129.1880
G1 X91.6574 Y131.4820
G1 X91.2908 Y129.1880
G1 X91.9703 Y128.9510
G1 X91.6686 Y126.3040
G1 X94.0361 Y128.9780
G1 X91.6686 Y126.3040
G1 X93.3429 Y126.4840
G1 X92.0475 Y123.8930
G1 X95.9308 Y126.5060
G1 X98.8964 Y129.6950
G1 X98.3549 Y133.5110
G1 X98.9363 Y134.5240
G1 X97.1571 Y138.7510
G1 X98.3549 Y133.5110
G1 X96.6957 Y129.2630
G1 X98.8964 Y129.6950
G1 X96.6957 Y129.2630
G1 X95.9308 Y126.5060
G1 X92.0475 Y123.8930
G1 X94.2344 Y124.2340
G1 X98.4112 Y126.3600
G1 X94.2344 Y124.2340
G1 X96.9037 Y124.0000
G1 X95.4193 Y122.1300
G1 X99.0039 Y123.2830
G1 X95.4193 Y122.1300
G1 X97.9192 Y121.4710
G1 X97.5046 Y119.8380
G1 X99.3510 Y120.1780
G1 X97.5046 Y119.8380
G1 X99.1926 Y118.4570
G1 X97.5046 Y119.8380
G1 X97.9192 Y121.4710
G1 X95.4193 Y122.1300
G1 X96.9037 Y124.0000
G1 X94.2344 Y124.2340
G1 X91.1669 Y120.8420
G1 X92.8317 Y121.8850
G1 X94.2344 Y124.2340
G1 X92.8317 Y121.8850
G1 X91.1669 Y120.8420
G1 X90.9546 Y117.8700
G1 X92.8317 Y121.8850
G1 X96.9037 Y124.0000
G1 X92.8317 Y121.8850
G1 X95.4193 Y122.1300
G1 X92.8317 Y121.8850
G1 X90.9546 Y117.8700
G1 X91.1324 Y116.0520
G1 X91.6521 Y113.2160
G1 X90.9546 Y117.8700
G1 X92.3879 Y119.4700
G1 X92.8317 Y121.8850
G1 X92.3879 Y119.4700
G1 X95.4193 Y122.1300
G1 X94.8972 Y120.2260
G1 X97.9192 Y121.4710
G1 X94.8972 Y120.2260
G1 X97.5046 Y119.8380
G1 X97.8033 Y118.2140
G1 X99.1926 Y118.4570
G1 X97.8033 Y118.2140
G1 X99.5151 Y116.8940
G1 X97.8033 Y118.2140
G1 X97.5046 Y119.8380
G1 X94.8972 Y120.2260
G1 X95.4193 Y122.1300
G1 X92.3879 Y119.4700
G1 X90.9546 Y117.8700
G1 X91.6521 Y113.2160
G1 X91.4121 Y115.2200
G1 X90.9546 Y117.8700
G1 X91.4121 Y115.2200
G1 X92.3879 Y119.4700
G1 X94.8972 Y120.2260
G1 X92.3879 Y119.4700
G1 X92.7725 Y117.1780
G1 X94.8972 Y120.2260
G1 X95.2225 Y118.3270
G1 X97.5046 Y119.8380
G1 X95.2225 Y118.3270
G1 X97.8033 Y118.2140
G1 X98.6275 Y116.5910
G1 X99.5151 Y116.8940
G1 X98.6275 Y116.5910
G1 X100.2830 Y115.5110
G1 X98.6275 Y116.5910
G1 X97.8033 Y118.2140
G1 X95.2225 Y118.3270
G1 X94.8972 Y120.2260
G1 X92.7725 Y117.1780
G1 X92.3879 Y119.4700
G1 X91.4121 Y115.2200
G1 X91.6521 Y113.2160
G1 X92.9721 Y110.6260
G1 X91.4121 Y115.2200
G1 X92.7725 Y117.1780
G1 X95.2225 Y118.3270
G1 X96.1869 Y116.3240
G1 X97.8033 Y118.2140
G1 X96.1869 Y116.3240
G1 X98.6275 Y116.5910
G1 X99.8361 Y114.7320
G1 X100.2830 Y115.5110
G1 X99.8361 Y114.7320
G1 X101.4570 Y114.2830
G1 X99.8361 Y114.7320
G1 X98.6275 Y116.5910
G1 X96.1869 Y116.3240
G1 X95.2225 Y118.3270
G1 X92.7725 Y117.1780
G1 X91.4121 Y115.2200
G1 X92.9721 Y110.6260
G1 X92.6814 Y112.6180
G1 X91.4121 Y115.2200
G1 X92.6814 Y112.6180
G1 X92.7725 Y117.1780
G1 X93.9063 Y114.8000
G1 X95.2225 Y118.3270
G1 X93.9063 Y114.8000
G1 X92.7725 Y117.1780
G1 X92.6814 Y112.6180
G1 X92.9721 Y110.6260
G1 X95.2418 Y107.9780
G1 X92.6814 Y112.6180
G1 X93.9063 Y114.8000
G1 X96.1869 Y116.3240
G1 X97.6232 Y113.7920
G1 X98.6275 Y116.5910
G1 X97.6232 Y113.7920
G1 X99.8361 Y114.7320
G1 X101.4600 Y111.8840
G1 X101.4570 Y114.2830
G1 X101.4600 Y111.8840
G1 X103.0900 Y112.5760
G1 X105.5590 Y109.5080
G1 X103.7650 Y111.9210
G0 Z90.0
G1 X105.5590 Y109.5080
G1 Z0.0000
G1 X103.9260 Y107.9110
G1 X101.4600 Y111.8840
G1 X99.4999 Y110.0920
G1 X102.0400 Y105.8450
G1 X99.4999 Y110.0920
G1 X100.6490 Y104.1310
G1 X102.0400 Y105.8450
G1 X101.4600 Y111.8840
G1 X102.0400 Y105.8450
G1 X103.9260 Y107.9110
G1 X106.9880 Y103.8040
G1 X105.5590 Y109.5080
G0 Z90.0
G1 X108.6900 Y105.6730
G1 Z0.0000
G1 X109.8430 Y99.7624
G1 X111.6530 Y101.5880
G1 X108.6900 Y105.6730
G0 Z90.0
G1 X112.1640 Y103.1980
G1 Z0.0000
G1 X109.3340 Y106.8970
G1 X111.6530 Y101.5880
G1 X111.8790 Y95.7633
G1 X109.2560 Y94.9144
G1 X106.9260 Y95.2246
G1 X105.7820 Y96.5571
G1 X106.3440 Y94.1415
G1 X106.9260 Y95.2246
G1 X107.5860 Y92.3829
G1 X109.2560 Y94.9144
G1 X110.0300 Y91.5385
G1 X111.8790 Y95.7633
G1 X113.7640 Y97.4432
G1 X111.6530 Y101.5880
G1 X112.1640 Y103.1980
G1 X111.6530 Y101.5880
G1 X113.7640 Y97.4432
G1 X111.8790 Y95.7633
G1 X112.7280 Y91.9504
G1 X111.8790 Y95.7633
G1 X110.0300 Y91.5385
G1 X109.2560 Y94.9144
G1 X107.5860 Y92.3829
G1 X106.9260 Y95.2246
G1 X106.3440 Y94.1415
G1 X107.5860 Y92.3829
G1 X110.0300 Y91.5385
G1 X112.7280 Y91.9504
G1 X113.7640 Y97.4432
G1 X112.1640 Y103.1980
G0 Z90.0
G1 X114.1760 Y99.2857
G1 Z0.0000
G1 X112.1640 Y103.1980
G1 X113.7640 Y97.4432
G1 X114.1760 Y99.2857
G0 Z90.0
G1 X117.9150 Y103.2820
G1 Z0.0000
G1 X120.5260 Y105.8590
G1 X116.2390 Y102.4580
G1 X114.0570 Y103.0990
G1 X109.7930 Y103.5620
G1 X112.2180 Y104.9670
G1 X109.1780 Y106.0080
G1 X111.4350 Y107.3350
G1 X109.6300 Y107.8760
G1 X109.1780 Y106.0080
G1 X109.7930 Y103.5620
G1 X111.2410 Y101.4910
G1 X114.0570 Y103.0990
G1 X111.2410 Y101.4910
G1 X116.2390 Y102.4580
G1 X117.9150 Y103.2820
G1 X116.2390 Y102.4580
G1 X112.9480 Y100.6030
G1 X114.2570 Y101.2300
G1 X117.9150 Y103.2820
G0 Z90.0
G1 X120.5260 Y105.8590
G1 Z0.0000
G1 X121.8180 Y108.7680
G1 X118.5870 Y104.7840
G1 X116.0670 Y105.1160
G1 X112.2180 Y104.9670
G1 X113.9470 Y106.7370
G1 X111.4350 Y107.3350
G1 X113.0500 Y109.0080
G1 X112.0080 Y109.2790
G1 X111.4350 Y107.3350
G1 X112.2180 Y104.9670
G1 X114.0570 Y103.0990
G1 X116.0670 Y105.1160
G1 X114.0570 Y103.0990
G1 X118.5870 Y104.7840
G1 X120.5260 Y105.8590
G1 X118.5870 Y104.7840
G1 X116.2390 Y102.4580
G1 X118.5870 Y104.7840
G1 X114.0570 Y103.0990
G1 X112.2180 Y104.9670
G1 X111.4350 Y107.3350
G1 X112.0080 Y109.2790
G1 X109.6300 Y107.8760
G1 X111.4350 Y107.3350
G1 X109.1780 Y106.0080
G1 X112.2180 Y104.9670
G1 X109.7930 Y103.5620
G1 X114.0570 Y103.0990
G1 X116.2390 Y102.4580
G1 X120.5260 Y105.8590
G0 Z90.0
G1 X117.9150 Y103.2820
G1 Z0.0000
G1 X112.9480 Y100.6030
G1 X111.2410 Y101.4910
G1 X107.9130 Y100.3870
G1 X106.9510 Y102.6010
G1 X106.5360 Y105.1080
G1 X103.7700 Y104.6500
G1 X106.9510 Y102.6010
G1 X103.9880 Y102.1190
G1 X106.9510 Y102.6010
G1 X103.7700 Y104.6500
G1 X103.9880 Y102.1190
G1 X107.9130 Y100.3870
G1 X112.9480 Y100.6030
G1 X116.2390 Y102.4580
G1 X111.2410 Y101.4910
G1 X106.9510 Y102.6010
G1 X107.9130 Y100.3870
G1 X111.2410 Y101.4910
G1 X109.7930 Y103.5620
G1 X106.5360 Y105.1080
G1 X109.1780 Y106.0080
G1 X109.6300 Y107.8760
G1 X106.8270 Y106.9170
G1 X109.1780 Y106.0080
G1 X106.8270 Y106.9170
G1 X106.5360 Y105.1080
G1 X106.9510 Y102.6010
G1 X109.7930 Y103.5620
G1 X109.1780 Y106.0080
G1 X106.5360 Y105.1080
G1 X109.7930 Y103.5620
G1 X106.9510 Y102.6010
G1 X111.2410 Y101.4910
G1 X112.9480 Y100.6030
G1 X117.9150 Y103.2820
G0 Z90.0
G1 X114.1760 Y99.2857
G1 Z0.0000
G1 X113.7640 Y97.4432
G1 X114.6210 Y93.4579
G1 X113.7640 Y97.4432
G1 X112.7280 Y91.9504
G1 X110.0300 Y91.5385
G1 X107.5860 Y92.3829
G1 X106.3440 Y94.1415
G1 X106.0460 Y91.9021
G1 X107.5860 Y92.3829
G1 X107.2440 Y89.7978
G1 X110.0300 Y91.5385
G1 X109.6120 Y88.5161
G1 X112.7280 Y91.9504
G1 X114.6210 Y93.4579
G1 X114.1760 Y99.2857
G0 Z90.0
G1 X114.9860 Y95.4644
G1 Z0.0000
G1 X114.1760 Y99.2857
G1 X114.6210 Y93.4579
G1 X112.7280 Y91.9504
G1 X109.6120 Y88.5161
G1 X110.0300 Y91.5385
G1 X107.2440 Y89.7978
G1 X107.5860 Y92.3829
G1 X106.0460 Y91.9021
G1 X107.2440 Y89.7978
G1 X109.6120 Y88.5161
G1 X112.2260 Y88.5617
G1 X112.7280 Y91.9504
G1 X112.2260 Y88.5617
G1 X114.6210 Y93.4579
G1 X114.9860 Y95.4644
G1 X114.6210 Y93.4579
G1 X114.0690 Y89.9135
G1 X114.6210 Y93.4579
G1 X112.2260 Y88.5617
G1 X109.6120 Y88.5161
G1 X107.2440 Y89.7978
G1 X106.0460 Y91.9021
G1 X106.4600 Y94.0135
G1 X105.3250 Y92.2550
G1 X106.0460 Y91.9021
G1 X104.8560 Y90.0571
G1 X107.2440 Y89.7978
G1 X105.8730 Y87.6925
G1 X109.6120 Y88.5161
G1 X107.9930 Y86.0799
G1 X109.6120 Y88.5161
G1 X105.8730 Y87.6925
G1 X107.2440 Y89.7978
G1 X104.8560 Y90.0571
G1 X106.0460 Y91.9021
G1 X105.3250 Y92.2550
G1 X104.8560 Y90.0571
G1 X105.8730 Y87.6925
G1 X107.9930 Y86.0799
G1 X112.2260 Y88.5617
G1 X114.0690 Y89.9135
G1 X114.9860 Y95.4644
G0 Z90.0
G1 X114.4380 Y92.0358
G1 Z0.0000
G1 X114.9860 Y95.4644
G1 X114.0690 Y89.9135
G1 X112.2260 Y88.5617
G1 X110.3880 Y85.8526
G1 X112.1320 Y87.0818
G1 X114.0690 Y89.9135
G1 X110.3880 Y85.8526
G1 X112.2260 Y88.5617
G1 X107.9930 Y86.0799
G1 X105.3080 Y84.4415
G1 X110.3880 Y85.8526
G1 X107.9930 Y86.0799
G1 X105.8730 Y87.6925
G1 X104.8560 Y90.0571
G1 X105.3250 Y92.2550
G1 X107.0830 Y93.4497
G1 X105.0600 Y92.1515
G1 X105.3250 Y92.2550
G1 X103.4260 Y91.0396
G1 X104.8560 Y90.0571
G1 X102.8500 Y88.7864
G1 X105.8730 Y87.6925
G1 X103.5710 Y86.2576
G1 X105.3080 Y84.4415
G1 X107.9930 Y86.0799
G1 X103.5710 Y86.2576
G1 X105.8730 Y87.6925
G1 X102.8500 Y88.7864
G1 X104.8560 Y90.0571
G1 X103.4260 Y91.0396
G1 X105.3250 Y92.2550
G1 X105.0600 Y92.1515
G1 X103.4260 Y91.0396
G1 X102.8500 Y88.7864
G1 X103.5710 Y86.2576
G1 X107.9930 Y86.0799
G1 X110.3880 Y85.8526
G1 X114.0690 Y89.9135
G1 X114.4380 Y92.0358
G0 Z90.0
G1 X109.0430 Y99.3228
G1 Z0.0000
G1 X112.9480 Y100.6030
G1 X107.9130 Y100.3870
G1 X109.0430 Y99.3228
G0 Z90.0
G1 X108.6900 Y105.6730
G1 Z0.0000
G1 X111.6530 Y101.5880
G1 X109.8430 Y99.7624
G1 X107.4420 Y98.4394
G1 X105.3990 Y98.1379
G1 X103.2290 Y101.0410
G1 X104.4950 Y98.9549
G1 X103.2290 Y101.0410
G1 X102.6390 Y101.2160
G1 X104.4950 Y98.9549
G1 X105.3990 Y98.1379
G1 X106.9260 Y95.2246
G1 X107.4420 Y98.4394
G1 X109.2560 Y94.9144
G1 X109.8430 Y99.7624
G1 X111.8790 Y95.7633
G1 X109.8430 Y99.7624
G1 X109.2560 Y94.9144
G1 X107.4420 Y98.4394
G1 X106.9260 Y95.2246
G1 X105.3990 Y98.1379
G1 X105.7820 Y96.5571
G1 X105.3990 Y98.1379
G1 X104.4950 Y98.9549
G1 X105.7820 Y96.5571
G1 X106.9260 Y95.2246
G1 X109.2560 Y94.9144
G1 X111.8790 Y95.7633
G1 X111.6530 Y101.5880
G1 X109.3340 Y106.8970
G1 X108.6900 Y105.6730
G1 X106.9880 Y103.8040
G1 X104.8910 Y102.0290
G1 X102.0400 Y105.8450
G1 X100.6490 Y104.1310
G1 X97.9785 Y107.9030
G1 X97.4961 Y106.1770
G1 X98.2154 Y105.5740
G1 X101.0670 Y103.9850
G1 X97.4961 Y106.1770
G1 X95.6814 Y111.8190
G1 X94.7758 Y109.5920
G1 X97.4961 Y106.1770
G1 X100.2850 Y103.4300
G1 X97.9785 Y107.9030
G1 X95.6814 Y111.8190
G1 X97.4961 Y106.1770
G1 X97.9785 Y107.9030
G1 X97.6232 Y113.7920
G1 X95.6814 Y111.8190
G1 X97.9785 Y107.9030
G1 X100.2850 Y103.4300
G1 X100.6490 Y104.1310
G1 X99.4999 Y110.0920
G1 X97.6232 Y113.7920
G1 X97.9785 Y107.9030
G1 X99.4999 Y110.0920
G1 X97.9785 Y107.9030
G1 X100.6490 Y104.1310
G1 X103.2290 Y101.0410
G1 X102.0400 Y105.8450
G1 X103.2290 Y101.0410
G1 X104.8910 Y102.0290
G1 X107.4420 Y98.4394
G1 X106.9880 Y103.8040
G1 X109.8430 Y99.7624
G1 X108.6900 Y105.6730
G1 X109.3340 Y106.8970
G1 X106.3050 Y110.0190
G1 X105.5590 Y109.5080
G1 X103.0900 Y112.5760
G1 X101.4600 Y111.8840
G1 X99.8361 Y114.7320
G1 X97.6232 Y113.7920
G1 X96.1869 Y116.3240
G1 X93.9063 Y114.8000
G1 X92.6814 Y112.6180
G1 X94.7758 Y109.5920
G1 X92.6814 Y112.6180
G1 X95.2418 Y107.9780
G1 X94.7758 Y109.5920
G1 X95.2418 Y107.9780
G1 X98.2154 Y105.5740
G1 X94.7758 Y109.5920
G1 X93.9063 Y114.8000
G1 X95.6814 Y111.8190
G1 X96.1869 Y116.3240
G1 X95.6814 Y111.8190
G1 X93.9063 Y114.8000
G1 X94.7758 Y109.5920
G1 X95.6814 Y111.8190
G1 X97.6232 Y113.7920
G1 X99.4999 Y110.0920
G1 X99.8361 Y114.7320
G1 X99.4999 Y110.0920
G1 X101.4600 Y111.8840
G1 X103.9260 Y107.9110
G1 X103.0900 Y112.5760
G1 X103.9260 Y107.9110
G1 X105.5590 Y109.5080
G1 X106.9880 Y103.8040
G1 X107.4420 Y98.4394
G1 X104.8910 Y102.0290
G1 X103.2290 Y101.0410
G1 X100.6490 Y104.1310
G1 X100.2850 Y103.4300
G1 X102.6390 Y101.2160
G1 X100.6490 Y104.1310
G1 X102.6390 Y101.2160
G1 X103.2290 Y101.0410
G1 X105.3990 Y98.1379
G1 X104.8910 Y102.0290
G1 X105.3990 Y98.1379
G1 X107.4420 Y98.4394
G1 X109.8430 Y99.7624
G1 X106.9880 Y103.8040
G1 X108.6900 Y105.6730
G0 Z90.0
G1 X106.9880 Y103.8040
G1 Z0.0000
G1 X103.9260 Y107.9110
G1 X102.0400 Y105.8450
G1 X104.8910 Y102.0290
G1 X103.9260 Y107.9110
G1 X104.8910 Y102.0290
G1 X106.9880 Y103.8040
G0 Z90.0
G1 X104.4170 Y99.8107
G1 Z0.0000
G1 X107.9130 Y100.3870
G1 X103.9880 Y102.1190
G1 X104.4170 Y99.8107
G0 Z90.0
G1 X100.0390 Y99.1867
G1 Z0.0000
G1 X98.6592 Y95.5210
G1 X100.1810 Y95.5181
G1 X100.0390 Y99.1867
G1 X99.4297 Y101.5350
G1 X99.4022 Y99.8506
G1 X99.4971 Y102.8950
G1 X99.4240 Y105.1370
G1 X99.6238 Y106.9450
G1 X100.2540 Y108.3150
G1 X99.1624 Y110.4340
G1 X100.6440 Y111.2640
G1 X98.8261 Y113.1870
G1 X96.6293 Y114.1590
G1 X94.5364 Y112.2630
G1 X96.6293 Y114.1590
G1 X92.8053 Y111.2720
G1 X94.5364 Y112.2630
G1 X98.8261 Y113.1870
G1 X96.9683 Y111.9460
G1 X100.6440 Y111.2640
G1 X96.9683 Y111.9460
G1 X98.8261 Y113.1870
G1 X94.5364 Y112.2630
G1 X92.8053 Y111.2720
G1 X91.6121 Y108.7030
G1 X94.5364 Y112.2630
G1 X96.9683 Y111.9460
G1 X99.1624 Y110.4340
G1 X98.3714 Y108.8670
G1 X100.2540 Y108.3150
G1 X98.3714 Y108.8670
G1 X99.6238 Y106.9450
G1 X98.3714 Y108.8670
G1 X99.1624 Y110.4340
G1 X96.9683 Y111.9460
G1 X94.5364 Y112.2630
G1 X91.6121 Y108.7030
G1 X91.3046 Y106.7620
G1 X90.9356 Y104.0410
G1 X91.6121 Y108.7030
G1 X93.3951 Y109.9570
G1 X94.5364 Y112.2630
G1 X93.3951 Y109.9570
G1 X96.9683 Y111.9460
G1 X95.9874 Y110.0220
G1 X99.1624 Y110.4340
G1 X95.9874 Y110.0220
G1 X96.9683 Y111.9460
G1 X93.3951 Y109.9570
G1 X95.9874 Y110.0220
G1 X98.3714 Y108.8670
G1 X98.0969 Y106.7080
G1 X99.6238 Y106.9450
G1 X98.0969 Y106.7080
G1 X99.4240 Y105.1370
G1 X98.0969 Y106.7080
G1 X98.3714 Y108.8670
G1 X95.9874 Y110.0220
G1 X93.3951 Y109.9570
G1 X91.6121 Y108.7030
G1 X90.9356 Y104.0410
G1 X91.1917 Y105.8110
G1 X91.6121 Y108.7030
G1 X91.1917 Y105.8110
G1 X93.3951 Y109.9570
G1 X92.9874 Y107.1280
G1 X95.9874 Y110.0220
G1 X95.6346 Y107.4760
G1 X98.3714 Y108.8670
G1 X95.6346 Y107.4760
G1 X98.0969 Y106.7080
G1 X97.9621 Y103.9010
G1 X99.4240 Y105.1370
G1 X97.9621 Y103.9010
G1 X99.4971 Y102.8950
G1 X97.9621 Y103.9010
G1 X98.0969 Y106.7080
G1 X95.6346 Y107.4760
G1 X95.9874 Y110.0220
G1 X92.9874 Y107.1280
G1 X93.3951 Y109.9570
G1 X91.1917 Y105.8110
G1 X90.9356 Y104.0410
G1 X91.1887 Y100.9600
G1 X91.1917 Y105.8110
G1 X92.9874 Y107.1280
G1 X95.6346 Y107.4760
G1 X92.9874 Y107.1280
G1 X91.1917 Y105.8110
G1 X91.1887 Y100.9600
G1 X91.1972 Y102.3170
G1 X91.1917 Y105.8110
G1 X91.1972 Y102.3170
G1 X91.1887 Y100.9600
G1 X92.0296 Y97.8097
G1 X91.1972 Y102.3170
G1 X92.9874 Y107.1280
G1 X92.8000 Y103.5410
G1 X95.6346 Y107.4760
G1 X95.3932 Y104.1490
G1 X98.0969 Y106.7080
G1 X95.3932 Y104.1490
G1 X97.9621 Y103.9010
G1 X97.3183 Y100.1290
G1 X99.4971 Y102.8950
G1 X97.3183 Y100.1290
G1 X99.4022 Y99.8506
G1 X98.6592 Y95.5210
G1 X100.0390 Y99.1867
G0 Z90.0
G1 X98.6592 Y95.5210
G1 Z0.0000
G1 X96.0742 Y95.4617
G1 X97.3183 Y100.1290
G1 X93.4378 Y95.3597
G1 X96.0742 Y95.4617
G1 X94.9399 Y90.8385
G1 X98.6592 Y95.5210
G0 Z90.0
G1 X96.2889 Y85.9447
G1 Z0.0000
G1 X94.1974 Y81.9210
G1 X98.4056 Y86.0661
G1 X100.1300 Y91.3440
G1 X99.6389 Y90.8135
G1 X100.1300 Y91.3440
G1 X100.0650 Y95.4536
G1 X99.6389 Y90.8135
G1 X98.4056 Y86.0661
G1 X96.2889 Y85.9447
G1 X93.6639 Y86.6669
G1 X94.9399 Y90.8385
G1 X92.5629 Y91.3924
G1 X90.8071 Y89.2785
G1 X91.5667 Y87.9457
G1 X89.5946 Y86.8394
G1 X90.0424 Y84.9940
G1 X91.5667 Y87.9457
G1 X92.5629 Y91.3924
G1 X93.4378 Y95.3597
G1 X91.7896 Y95.2592
G1 X91.7497 Y95.1929
G1 X92.0157 Y92.5746
G1 X91.7896 Y95.2592
G1 X92.3011 Y99.2611
G1 X91.3324 Y98.4589
G1 X92.8000 Y103.5410
G1 X92.9874 Y107.1280
G1 X91.1972 Y102.3170
G1 X92.8000 Y103.5410
G1 X91.1972 Y102.3170
G1 X91.3324 Y98.4589
G1 X91.7497 Y95.1929
G1 X92.3011 Y99.2611
G1 X91.7497 Y95.1929
G1 X91.7896 Y95.2592
G1 X91.4563 Y92.0553
G1 X90.8071 Y89.2785
G1 X89.5946 Y86.8394
G1 X91.5667 Y87.9457
G1 X90.8071 Y89.2785
G1 X92.5629 Y91.3924
G1 X91.4563 Y92.0553
G1 X93.4378 Y95.3597
G1 X91.4563 Y92.0553
G1 X92.5629 Y91.3924
G1 X91.5667 Y87.9457
G1 X90.0424 Y84.9940
G1 X91.8033 Y83.1064
G1 X93.6639 Y86.6669
G1 X90.0424 Y84.9940
G1 X93.6639 Y86.6669
G1 X91.5667 Y87.9457
G1 X94.9399 Y90.8385
G1 X91.5667 Y87.9457
G1 X93.6639 Y86.6669
G1 X96.2889 Y85.9447
G1 X97.6546 Y90.6165
G1 X100.1810 Y95.5181
G1 X98.6592 Y95.5210
G1 X97.6546 Y90.6165
G1 X96.2889 Y85.9447
G0 Z90.0
G1 X97.6546 Y90.6165
G1 Z0.0000
G1 X94.9399 Y90.8385
G1 X93.6639 Y86.6669
G1 X97.6546 Y90.6165
G0 Z90.0
G1 X96.2889 Y85.9447
G1 Z0.0000
G1 X98.4056 Y86.0661
G1 X99.6389 Y90.8135
G1 X96.2889 Y85.9447
G0 Z90.0
G1 X97.6546 Y90.6165
G1 Z0.0000
G1 X98.6592 Y95.5210
G1 X99.4022 Y99.8506
G1 X97.3183 Y100.1290
G1 X97.9621 Y103.9010
G1 X95.3932 Y104.1490
G1 X95.6346 Y107.4760
G1 X92.8000 Y103.5410
G1 X95.3932 Y104.1490
G1 X92.8000 Y103.5410
G1 X91.3324 Y98.4589
G1 X92.3011 Y99.2611
G1 X92.8000 Y103.5410
G1 X92.3011 Y99.2611
G1 X95.3932 Y104.1490
G1 X94.5928 Y99.9018
G1 X97.9621 Y103.9010
G1 X94.5928 Y99.9018
G1 X92.3011 Y99.2611
G1 X91.7896 Y95.2592
G1 X94.5928 Y99.9018
G1 X95.3932 Y104.1490
G1 X92.3011 Y99.2611
G1 X94.5928 Y99.9018
G1 X97.3183 Y100.1290
G1 X96.0742 Y95.4617
G1 X99.4022 Y99.8506
G1 X96.0742 Y95.4617
G1 X98.6592 Y95.5210
G1 X94.9399 Y90.8385
G1 X96.0742 Y95.4617
G1 X93.4378 Y95.3597
G1 X94.5928 Y99.9018
G1 X91.7896 Y95.2592
G1 X93.4378 Y95.3597
G1 X97.3183 Y100.1290
G1 X94.5928 Y99.9018
G1 X93.4378 Y95.3597
G1 X92.5629 Y91.3924
G1 X96.0742 Y95.4617
G1 X92.5629 Y91.3924
G1 X94.9399 Y90.8385
G1 X97.6546 Y90.6165
G0 Z90.0
G1 X96.2889 Y85.9447
G1 Z0.0000
G1 X91.8033 Y83.1064
G1 X94.1974 Y81.9210
G1 X96.2889 Y85.9447
G0 Z90.0
G1 X96.2765 Y81.9006
G1 Z0.0000
G1 X94.1974 Y81.9210
G1 X91.8033 Y83.1064
G1 X90.0424 Y84.9940
G1 X89.5946 Y86.8394
G1 X87.7576 Y84.9058
G1 X90.0424 Y84.9940
G1 X87.8611 Y82.7053
G1 X91.8033 Y83.1064
G1 X89.1992 Y80.3885
G1 X91.2481 Y78.8701
G1 X94.1974 Y81.9210
G1 X89.1992 Y80.3885
G1 X91.8033 Y83.1064
G1 X87.8611 Y82.7053
G1 X90.0424 Y84.9940
G1 X87.7576 Y84.9058
G1 X89.5946 Y86.8394
G1 X90.6103 Y87.9347
G1 X88.9081 Y86.1462
G1 X89.5946 Y86.8394
G1 X88.9081 Y86.1462
G1 X87.7576 Y84.9058
G1 X87.8611 Y82.7053
G1 X89.1992 Y80.3885
G1 X94.1974 Y81.9210
G1 X96.2765 Y81.9006
G1 X98.4056 Y86.0661
G1 X99.1979 Y86.9675
G1 X100.1300 Y91.3440
G1 X98.4056 Y86.0661
G1 X96.2765 Y81.9006
G0 Z90.0
G1 X99.0603 Y83.5511
G1 Z0.0000
G1 X103.4990 Y83.2549
G1 X97.7868 Y83.9950
G1 X93.4406 Y86.8599
G1 X91.0703 Y90.6896
G1 X89.9801 Y88.5385
G1 X93.4406 Y86.8599
G1 X93.5963 Y85.1856
G1 X97.7868 Y83.9950
G1 X99.0603 Y83.5511
G0 Z90.0
G1 X96.2765 Y81.9006
G1 Z0.0000
G1 X99.1979 Y86.9675
G1 X98.4056 Y86.0661
G1 X94.1974 Y81.9210
G1 X91.2481 Y78.8701
G1 X96.2765 Y81.9006
G0 Z90.0
G1 X93.2036 Y78.7351
G1 Z0.0000
G1 X96.2765 Y81.9006
G1 X91.2481 Y78.8701
G1 X89.1992 Y80.3885
G1 X85.0678 Y81.2942
G1 X87.8611 Y82.7053
G1 X85.3557 Y83.6906
G1 X87.7576 Y84.9058
G1 X86.6429 Y85.0078
G1 X85.3557 Y83.6906
G1 X85.0678 Y81.2942
G1 X85.9056 Y78.7460
G1 X89.1992 Y80.3885
G1 X87.8611 Y82.7053
G1 X87.7576 Y84.9058
G1 X88.9081 Y86.1462
G1 X86.6429 Y85.0078
G1 X87.7576 Y84.9058
G1 X85.3557 Y83.6906
G1 X87.8611 Y82.7053
G1 X85.0678 Y81.2942
G1 X89.1992 Y80.3885
G1 X85.9056 Y78.7460
G1 X91.2481 Y78.8701
G1 X93.2036 Y78.7351
G1 X91.2481 Y78.8701
G1 X87.5425 Y77.0471
G1 X91.2481 Y78.8701
G1 X85.9056 Y78.7460
G1 X85.0678 Y81.2942
G1 X85.3557 Y83.6906
G1 X86.6429 Y85.0078
G1 X83.9806 Y84.6949
G1 X85.3557 Y83.6906
G1 X82.5444 Y83.3596
G1 X85.0678 Y81.2942
G1 X81.8335 Y80.9219
G1 X85.9056 Y78.7460
G1 X87.5425 Y77.0471
G1 X93.2036 Y78.7351
G0 Z90.0
G1 X89.3314 Y76.8485
G1 Z0.0000
G1 X87.5425 Y77.0471
G1 X83.3257 Y76.6061
G1 X87.5425 Y77.0471
G1 X82.1324 Y78.3339
G1 X78.1735 Y79.2021
G1 X83.3257 Y76.6061
G1 X84.9383 Y76.3979
G1 X89.3314 Y76.8485
G1 X93.2036 Y78.7351
G1 X87.5425 Y77.0471
G1 X85.9056 Y78.7460
G1 X81.8335 Y80.9219
G1 X85.0678 Y81.2942
G1 X82.5444 Y83.3596
G1 X85.3557 Y83.6906
G1 X83.9806 Y84.6949
G1 X82.5444 Y83.3596
G1 X81.8335 Y80.9219
G1 X82.1324 Y78.3339
G1 X85.9056 Y78.7460
G1 X82.1324 Y78.3339
G1 X87.5425 Y77.0471
G1 X89.3314 Y76.8485
G1 X83.3257 Y76.6061
G1 X82.1324 Y78.3339
G1 X81.8335 Y80.9219
G1 X82.5444 Y83.3596
G1 X83.9806 Y84.6949
G1 X85.5818 Y84.4346
G1 X82.5818 Y85.0618
G1 X83.9806 Y84.6949
G1 X81.1499 Y85.2875
G1 X82.5444 Y83.3596
G1 X79.5528 Y83.9921
G1 X81.8335 Y80.9219
G1 X78.4106 Y81.6607
G1 X78.1735 Y79.2021
G1 X82.1324 Y78.3339
G1 X78.4106 Y81.6607
G1 X81.8335 Y80.9219
G1 X79.5528 Y83.9921
G1 X82.5444 Y83.3596
G1 X81.1499 Y85.2875
G1 X83.9806 Y84.6949
G1 X82.5818 Y85.0618
G1 X81.1499 Y85.2875
G1 X79.5528 Y83.9921
G1 X78.4106 Y81.6607
G1 X82.1324 Y78.3339
G1 X83.3257 Y76.6061
G1 X89.3314 Y76.8485
G0 Z90.0
G1 X96.2765 Y81.9006
G1 Z0.0000
G1 X97.2453 Y83.0386
G1 X99.1979 Y86.9675
G1 X96.2765 Y81.9006
G0 Z90.0
G1 X107.3880 Y84.0376
G1 Z0.0000
G1 X110.3880 Y85.8526
G1 X105.3080 Y84.4415
G1 X103.5710 Y86.2576
G1 X100.2050 Y88.2174
G1 X102.8500 Y88.7864
G1 X100.9320 Y90.4857
G1 X103.4260 Y91.0396
G1 X102.4270 Y91.5589
G1 X100.9320 Y90.4857
G1 X100.2050 Y88.2174
G1 X100.5390 Y85.6294
G1 X103.5710 Y86.2576
G1 X102.8500 Y88.7864
G1 X103.4260 Y91.0396
G1 X105.0600 Y92.1515
G1 X102.4270 Y91.5589
G1 X103.4260 Y91.0396
G1 X100.9320 Y90.4857
G1 X102.8500 Y88.7864
G1 X100.2050 Y88.2174
G1 X103.5710 Y86.2576
G1 X100.5390 Y85.6294
G1 X105.3080 Y84.4415
G1 X107.3880 Y84.0376
G1 X105.3080 Y84.4415
G1 X101.8020 Y83.7290
G1 X105.3080 Y84.4415
G1 X100.5390 Y85.6294
G1 X100.2050 Y88.2174
G1 X100.9320 Y90.4857
G1 X102.4270 Y91.5589
G1 X99.4350 Y91.7053
G1 X100.9320 Y90.4857
G1 X98.0888 Y90.6357
G1 X100.2050 Y88.2174
G1 X97.1779 Y88.3924
G1 X100.5390 Y85.6294
G1 X101.8020 Y83.7290
G1 X107.3880 Y84.0376
G0 Z90.0
G1 X103.4990 Y83.2549
G1 Z0.0000
G1 X107.3880 Y84.0376
G1 X101.8020 Y83.7290
G1 X97.0622 Y85.8457
G1 X94.0386 Y89.2576
G1 X97.1779 Y88.3924
G1 X95.1590 Y91.4350
G1 X94.0386 Y89.2576
G1 X93.4406 Y86.8599
G1 X97.0622 Y85.8457
G1 X97.1779 Y88.3924
G1 X98.0888 Y90.6357
G1 X95.1590 Y91.4350
G1 X97.1779 Y88.3924
G1 X94.0386 Y89.2576
G1 X97.0622 Y85.8457
G1 X97.7868 Y83.9950
G1 X101.8020 Y83.7290
G1 X100.5390 Y85.6294
G1 X97.1779 Y88.3924
G1 X100.2050 Y88.2174
G1 X98.0888 Y90.6357
G1 X100.9320 Y90.4857
G1 X99.4350 Y91.7053
G1 X98.0888 Y90.6357
G1 X97.1779 Y88.3924
G1 X97.0622 Y85.8457
G1 X100.5390 Y85.6294
G1 X97.0622 Y85.8457
G1 X101.8020 Y83.7290
G1 X103.4990 Y83.2549
G1 X101.8020 Y83.7290
G1 X97.7868 Y83.9950
G1 X97.0622 Y85.8457
G1 X93.4406 Y86.8599
G1 X94.0386 Y89.2576
G1 X92.3961 Y92.7636
G1 X91.0703 Y90.6896
G1 X94.0386 Y89.2576
G1 X95.1590 Y91.4350
G1 X98.0888 Y90.6357
G1 X99.4350 Y91.7053
G1 X96.3594 Y92.5432
G1 X98.0888 Y90.6357
G1 X96.3594 Y92.5432
G1 X95.1590 Y91.4350
G1 X92.3961 Y92.7636
G1 X94.0386 Y89.2576
G1 X91.0703 Y90.6896
G1 X93.4406 Y86.8599
G1 X97.7868 Y83.9950
G1 X103.4990 Y83.2549
G0 Z90.0
G1 X99.0603 Y83.5511
G1 Z0.0000
G1 X97.7868 Y83.9950
G1 X93.5963 Y85.1856
G1 X99.0603 Y83.5511
G0 Z90.0
G1 X96.2889 Y85.9447
G1 Z0.0000
G1 X99.6389 Y90.8135
G1 X97.6546 Y90.6165
G1 X99.6389 Y90.8135
G1 X100.1810 Y95.5181
G1 X97.6546 Y90.6165
G1 X93.6639 Y86.6669
G1 X91.8033 Y83.1064
G1 X96.2889 Y85.9447
G0 Z90.0
G1 X85.7786 Y90.2749
G1 Z0.0000
G1 X81.8074 Y88.3303
G1 X82.5871 Y87.3421
G1 X85.7786 Y90.2749
G1 X87.2271 Y92.9979
G1 X85.7332 Y91.0107
G1 X88.3158 Y93.5654
G1 X89.5975 Y95.7304
G1 X90.5397 Y97.4033
G1 X91.4506 Y98.5319
G1 X92.3121 Y99.0169
G1 X93.0233 Y98.8515
G1 X92.3121 Y99.0169
G1 X91.0840 Y98.7869
G1 X93.0233 Y98.8515
G1 X94.5444 Y100.4400
G1 X93.0233 Y98.8515
G1 X94.0897 Y98.5911
G1 X94.5444 Y100.4400
G1 X95.5492 Y99.3106
G1 X94.5444 Y100.4400
G1 X94.0897 Y98.5911
G1 X95.5492 Y99.3106
G1 X96.5426 Y101.3650
G1 X95.5492 Y99.3106
G1 X94.0897 Y98.5911
G1 X96.7067 Y98.6049
G1 X95.5492 Y99.3106
G1 X97.6065 Y98.6447
G1 X96.5426 Y101.3650
G1 X98.4003 Y100.2010
G1 X98.7696 Y102.6810
G1 X101.1150 Y99.7406
G1 X101.1850 Y102.1190
G1 X103.9880
G1 X101.0940 Y104.6370
G1 X101.1850 Y102.1190
G1 X104.4170 Y99.8107
G1 X103.9880 Y102.1190
G1 X103.7700 Y104.6500
G1 X106.5360 Y105.1080
G1 X103.8520 Y106.4030
G1 X106.5360 Y105.1080
G1 X106.8270 Y106.9170
G1 X109.6300 Y107.8760
G1 X107.7020 Y107.3400
G1 X109.6300 Y107.8760
G1 X110.9580 Y108.4520
G1 X107.7020 Y107.3400
G1 X106.8270 Y106.9170
G1 X103.8520 Y106.4030
G1 X103.7700 Y104.6500
G1 X101.0940 Y104.6370
G1 X103.9880 Y102.1190
G1 X101.1850
G1 X98.7696 Y102.6810
G1 X98.4003 Y100.2010
G1 X96.5426 Y101.3650
G1 X97.6065 Y98.6447
G1 X98.4003 Y100.2010
G1 X101.1150 Y99.7406
G1 X98.7696 Y102.6810
G1 X98.5711 Y105.1130
G1 X101.1850 Y102.1190
G1 X101.1150 Y99.7406
G1 X98.4003 Y100.2010
G1 X100.9080 Y98.4342
G1 X98.4003 Y100.2010
G1 X97.6065 Y98.6447
G1 X95.5492 Y99.3106
G1 X96.7067 Y98.6049
G1 X97.6065 Y98.6447
G1 X96.7067 Y98.6049
G1 X100.6520 Y98.6793
G1 X97.6065 Y98.6447
G1 X100.9080 Y98.4342
G1 X101.1150 Y99.7406
G1 X104.4170 Y99.8107
G1 X109.0430 Y99.3228
G1 X107.9130 Y100.3870
G1 X104.4170 Y99.8107
G1 X101.1150 Y99.7406
G1 X104.8880 Y98.6229
G1 X104.4170 Y99.8107
G1 X104.8880 Y98.6229
G1 X101.1150 Y99.7406
G1 X100.9080 Y98.4342
G1 X104.8880 Y98.6229
G1 X109.0430 Y99.3228
G1 X104.4170 Y99.8107
G1 X101.1850 Y102.1190
G1 X101.0940 Y104.6370
G1 X98.5711 Y105.1130
G1 X95.9019 Y106.0820
G1 X94.5226 Y106.9060
G1 X90.7631 Y106.7340
G1 X95.9019 Y106.0820
G1 X98.5711 Y105.1130
G1 X97.8863 Y106.5440
G1 X94.5226 Y106.9060
G1 X98.5711 Y105.1130
G1 X101.0940 Y104.6370
G1 X100.8780 Y106.2990
G1 X100.6200 Y106.4820
G1 X96.9821 Y106.4430
G1 X100.8780 Y106.2990
G1 X103.8520 Y106.4030
G1 X104.1960 Y106.7130
G1 X100.6200 Y106.4820
G1 X103.8520 Y106.4030
G1 X100.6200 Y106.4820
G1 X100.8780 Y106.2990
G1 X97.8863 Y106.5440
G1 X101.0940 Y104.6370
G1 X103.7700 Y104.6500
G1 X103.8520 Y106.4030
G1 X106.8270 Y106.9170
G1 X107.7020 Y107.3400
G1 X104.1960 Y106.7130
G1 X106.8270 Y106.9170
G1 X104.1960 Y106.7130
G1 X103.8520 Y106.4030
G1 X100.8780 Y106.2990
G1 X103.7700 Y104.6500
G1 X100.8780 Y106.2990
G1 X101.0940 Y104.6370
G1 X97.8863 Y106.5440
G1 X98.5711 Y105.1130
G1 X94.5226 Y106.9060
G1 X95.9019 Y106.0820
G1 X98.7696 Y102.6810
G1 X101.1850 Y102.1190
G1 X98.5711 Y105.1130
G1 X98.7696 Y102.6810
G1 X96.6776 Y103.9630
G1 X98.4003 Y100.2010
G1 X96.6776 Y103.9630
G1 X98.7696 Y102.6810
G1 X95.9019 Y106.0820
G1 X96.6776 Y103.9630
G1 X95.9019 Y106.0820
G1 X92.6994 Y106.8440
G1 X90.7631 Y106.7340
G1 X87.7397 Y105.9800
G1 X92.6994 Y106.8440
G1 X96.6776 Y103.9630
G1 X96.5426 Y101.3650
G1 X95.0528 Y102.9490
G1 X95.5492 Y99.3106
G1 X95.0528 Y102.9490
G1 X94.5444 Y100.4400
G1 X93.5482 Y101.0390
G1 X93.0233 Y98.8515
G1 X93.5482 Y101.0390
G1 X92.3121 Y99.0169
G1 X93.5482 Y101.0390
G1 X94.5444 Y100.4400
G1 X95.0528 Y102.9490
G1 X96.5426 Y101.3650
G1 X96.6776 Y103.9630
G1 X92.6994 Y106.8440
G1 X94.3419 Y105.4020
G1 X96.6776 Y103.9630
G1 X94.3419 Y105.4020
G1 X96.5426 Y101.3650
G1 X94.3419 Y105.4020
G1 X92.6994 Y106.8440
G1 X89.8261 Y106.6860
G1 X94.3419 Y105.4020
G1 X95.0528 Y102.9490
G1 X94.3419 Y105.4020
G1 X92.0019 Y105.7940
G1 X95.0528 Y102.9490
G1 X93.4297 Y103.6320
G1 X94.5444 Y100.4400
G1 X93.4297 Y103.6320
G1 X93.5482 Y101.0390
G1 X92.4733 Y100.5870
G1 X92.3121 Y99.0169
G1 X92.4733 Y100.5870
G1 X91.4506 Y98.5319
G1 X92.4733 Y100.5870
G1 X93.5482 Y101.0390
G1 X93.4297 Y103.6320
G1 X95.0528 Y102.9490
G1 X92.0019 Y105.7940
G1 X94.3419 Y105.4020
G1 X89.8261 Y106.6860
G1 X92.0019 Y105.7940
G1 X93.4297 Y103.6320
G1 X92.0019 Y105.7940
G1 X89.8261 Y106.6860
G1 X87.7397 Y105.9800
G1 X85.7193 Y104.8490
G1 X89.8261 Y106.6860
G1 X87.8142 Y105.7140
G1 X92.0019 Y105.7940
G1 X90.2172 Y105.0430
G1 X93.4297 Y103.6320
G1 X92.0047 Y103.0800
G1 X93.5482 Y101.0390
G1 X92.0047 Y103.0800
G1 X92.4733 Y100.5870
G1 X91.3889 Y99.2721
G1 X91.4506 Y98.5319
G1 X91.3889 Y99.2721
G1 X90.5397 Y97.4033
G1 X91.3889 Y99.2721
G1 X92.4733 Y100.5870
G1 X92.0047 Y103.0800
G1 X93.4297 Y103.6320
G1 X90.2172 Y105.0430
G1 X92.0019 Y105.7940
G1 X87.8142 Y105.7140
G1 X89.8261 Y106.6860
G1 X85.7193 Y104.8490
G1 X87.8142 Y105.7140
G1 X90.2172 Y105.0430
G1 X92.0047 Y103.0800
G1 X90.6985 Y101.5430
G1 X92.4733 Y100.5870
G1 X90.6985 Y101.5430
G1 X91.3889 Y99.2721
G1 X90.0850 Y97.3275
G1 X90.5397 Y97.4033
G1 X90.0850 Y97.3275
G1 X89.5975 Y95.7304
G1 X90.0850 Y97.3275
G1 X91.3889 Y99.2721
G1 X90.6985 Y101.5430
G1 X92.0047 Y103.0800
G1 X90.2172 Y105.0430
G1 X87.8142 Y105.7140
G1 X85.7193 Y104.8490
G1 X84.1982 Y103.1440
G1 X87.8142 Y105.7140
G1 X86.2333 Y103.9420
G1 X90.2172 Y105.0430
G1 X88.7250 Y103.3330
G1 X92.0047 Y103.0800
G1 X88.7250 Y103.3330
G1 X90.2172 Y105.0430
G1 X86.2333 Y103.9420
G1 X87.8142 Y105.7140
G1 X84.1982 Y103.1440
G1 X86.2333 Y103.9420
G1 X88.7250 Y103.3330
G1 X90.6985 Y101.5430
G1 X89.0556 Y99.3076
G1 X91.3889 Y99.2721
G1 X89.0556 Y99.3076
G1 X90.0850 Y97.3275
G1 X87.9949 Y95.0150
G1 X89.5975 Y95.7304
G1 X87.9949 Y95.0150
G1 X88.3158 Y93.5654
G1 X87.9949 Y95.0150
G1 X90.0850 Y97.3275
G1 X89.0556 Y99.3076
G1 X90.6985 Y101.5430
G1 X88.7250 Y103.3330
G1 X86.2333 Y103.9420
G1 X84.1982 Y103.1440
G1 X82.6600 Y100.8150
G1 X86.2333 Y103.9420
G1 X84.4406 Y101.4730
G1 X88.7250 Y103.3330
G1 X86.8910 Y100.8990
G1 X90.6985 Y101.5430
G1 X86.8910 Y100.8990
G1 X88.7250 Y103.3330
G1 X84.4406 Y101.4730
G1 X86.2333 Y103.9420
G1 X82.6600 Y100.8150
G1 X84.4406 Y101.4730
G1 X82.6600 Y100.8150
G1 X80.9156 Y98.0951
G1 X84.4406 Y101.4730
G1 X86.8910 Y100.8990
G1 X89.0556 Y99.3076
G1 X86.3604 Y96.7997
G1 X90.0850 Y97.3275
G1 X86.3604 Y96.7997
G1 X87.9949 Y95.0150
G1 X84.4694 Y92.6147
G1 X88.3158 Y93.5654
G1 X84.4694 Y92.6147
G1 X85.7332 Y91.0107
G1 X81.8074 Y88.3303
G1 X85.7786 Y90.2749
G1 X85.7332 Y91.0107
G1 X84.4694 Y92.6147
G1 X87.9949 Y95.0150
G1 X86.3604 Y96.7997
G1 X89.0556 Y99.3076
G1 X86.8910 Y100.8990
G1 X84.4406 Y101.4730
G1 X81.9601 Y98.7040
G1 X80.9156 Y98.0951
G1 X79.4879 Y95.4106
G1 X81.9601 Y98.7040
G1 X84.4406 Y101.4730
G1 X80.9156 Y98.0951
G1 X81.9601 Y98.7040
G1 X86.8910 Y100.8990
G1 X84.0422 Y98.2138
G1 X89.0556 Y99.3076
G1 X84.0422 Y98.2138
G1 X81.9601 Y98.7040
G1 X79.3888 Y96.1838
G1 X77.3204 Y94.1828
G1 X75.1222 Y92.7496
G1 X72.5400 Y91.9533
G1 X74.7378 Y92.4726
G1 X75.1222 Y92.7496
G1 X77.5119 Y93.9074
G1 X77.3204 Y94.1828
G1 X80.5243 Y95.8310
G1 X79.3888 Y96.1838
G1 X84.0422 Y98.2138
G1 X86.8910 Y100.8990
G1 X81.9601 Y98.7040
G1 X84.0422 Y98.2138
G1 X86.3604 Y96.7997
G1 X84.0422 Y98.2138
G1 X79.3888 Y96.1838
G1 X80.5243 Y95.8310
G1 X77.3204 Y94.1828
G1 X77.5119 Y93.9074
G1 X75.1222 Y92.7496
G1 X74.7378 Y92.4726
G1 X72.5400 Y91.9533
G1 X71.7999 Y91.6597
G1 X74.7378 Y92.4726
G1 X77.5119 Y93.9074
G1 X80.5243 Y95.8310
G1 X84.0422 Y98.2138
G1 X80.5243 Y95.8310
G1 X86.3604 Y96.7997
G1 X82.4689 Y94.4654
G1 X87.9949 Y95.0150
G1 X82.4689 Y94.4654
G1 X80.5243 Y95.8310
G1 X77.5119 Y93.9074
G1 X74.7378 Y92.4726
G1 X71.7999 Y91.6597
G1 X68.6788 Y91.6404
G1 X71.4817 Y89.8390
G1 X71.7999 Y91.6597
G1 X75.1018 Y90.7846
G1 X74.7378 Y92.4726
G1 X78.6476 Y92.4161
G1 X77.5119 Y93.9074
G1 X82.4689 Y94.4654
G1 X86.3604 Y96.7997
G1 X80.5243 Y95.8310
G1 X82.4689 Y94.4654
G1 X84.4694 Y92.6147
G1 X80.2954 Y90.2749
G1 X85.7332 Y91.0107
G1 X80.2954 Y90.2749
G1 X81.8074 Y88.3303
G1 X77.2901 Y86.0581
G1 X72.4214 Y84.7351
G1 X67.2649 Y87.1590
G1 X67.7499 Y89.8200
G1 X71.4817 Y89.8390
G1 X68.6788 Y91.6404
G1 X67.7499 Y89.8200
G1 X64.0979 Y90.8646
G1 X67.2649 Y87.1590
G1 X67.4124 Y84.7061
G1 X72.4214 Y84.7351
G1 X78.2574 Y84.8783
G1 X77.2901 Y86.0581
G1 X82.5871 Y87.3421
G1 X77.2901 Y86.0581
G1 X78.2574 Y84.8783
G1 X82.5871 Y87.3421
G1 X81.8074 Y88.3303
G1 X85.7332 Y91.0107
G0 Z90.0
G1 X81.8074 Y88.3303
G1 Z0.0000
G1 X80.2954 Y90.2749
G1 X78.6476 Y92.4161
G1 X75.1018 Y90.7846
G1 X80.2954 Y90.2749
G1 X84.4694 Y92.6147
G1 X82.4689 Y94.4654
G1 X78.6476 Y92.4161
G1 X82.4689 Y94.4654
G1 X77.5119 Y93.9074
G1 X78.6476 Y92.4161
G1 X84.4694 Y92.6147
G1 X78.6476 Y92.4161
G1 X80.2954 Y90.2749
G1 X76.0786 Y88.3250
G1 X81.8074 Y88.3303
G0 Z90.0
G1 X76.0786 Y88.3250
G1 Z0.0000
G1 X80.2954 Y90.2749
G1 X75.1018 Y90.7846
G1 X76.0786 Y88.3250
G0 Z90.0
G1 X77.2901 Y86.0581
G1 Z0.0000
G1 X81.8074 Y88.3303
G1 X76.0786 Y88.3250
G1 X71.4817 Y89.8390
G1 X71.7186 Y87.1838
G1 X76.0786 Y88.3250
G1 X75.1018 Y90.7846
G1 X78.6476 Y92.4161
G1 X74.7378 Y92.4726
G1 X75.1018 Y90.7846
G1 X71.4817 Y89.8390
G1 X76.0786 Y88.3250
G1 X77.2901 Y86.0581
G1 X76.0786 Y88.3250
G1 X71.7186 Y87.1838
G1 X77.2901 Y86.0581
G0 Z90.0
G1 X72.4214 Y84.7351
G1 Z0.0000
G1 X77.2901 Y86.0581
G1 X71.7186 Y87.1838
G1 X72.4214 Y84.7351
G0 Z90.0
G1 X78.9283 Y77.5829
G1 Z0.0000
G1 X83.3257 Y76.6061
G1 X78.1735 Y79.2021
G1 X75.0906 Y83.4615
G1 X76.6519 Y85.5564
G1 X74.0915 Y87.9101
G1 X75.0906 Y83.4615
G1 X74.3522 Y81.2942
G1 X78.1735 Y79.2021
G1 X78.4106 Y81.6607
G1 X76.6519 Y85.5564
G1 X79.5528 Y83.9921
G1 X78.4129 Y86.7522
G1 X76.6519 Y85.5564
G1 X75.0906 Y83.4615
G1 X78.4106 Y81.6607
G1 X79.5528 Y83.9921
G1 X81.1499 Y85.2875
G1 X78.4129 Y86.7522
G1 X79.5528 Y83.9921
G1 X76.6519 Y85.5564
G1 X78.4106 Y81.6607
G1 X75.0906 Y83.4615
G1 X78.1735 Y79.2021
G1 X78.9283 Y77.5829
G1 X78.1735 Y79.2021
G1 X74.3522 Y81.2942
G1 X75.0906 Y83.4615
G1 X72.1610 Y86.1737
G1 X75.0906 Y83.4615
G1 X74.0915 Y87.9101
G1 X76.6519 Y85.5564
G1 X78.4129 Y86.7522
G1 X81.1499 Y85.2875
G1 X82.5818 Y85.0618
G1 X79.6907 Y86.5996
G1 X81.1499 Y85.2875
G1 X79.6907 Y86.5996
G1 X78.4129 Y86.7522
G1 X76.0113 Y88.9533
G1 X76.6519 Y85.5564
G1 X76.0113 Y88.9533
G1 X74.0915 Y87.9101
G1 X72.1610 Y86.1737
G1 X74.3522 Y81.2942
G1 X78.9283 Y77.5829
G0 Z90.0
G1 X74.7078 Y79.8968
G1 Z0.0000
G1 X78.9283 Y77.5829
G1 X74.3522 Y81.2942
G1 X72.1610 Y86.1737
G1 X74.0915 Y87.9101
G1 X72.0881 Y90.8300
G1 X72.1610 Y86.1737
G1 X70.9757 Y84.4264
G1 X74.3522 Y81.2942
G1 X74.7078 Y79.8968
G1 X74.3522 Y81.2942
G1 X70.9757 Y84.4264
G1 X74.7078 Y79.8968
G0 Z90.0
G1 X73.3104 Y83.4563
G1 Z0.0000
G1 X78.2574 Y84.8783
G1 X72.4214 Y84.7351
G1 X73.3104 Y83.4563
G0 Z90.0
G1 X72.4214 Y84.7351
G1 Z0.0000
G1 X71.7186 Y87.1838
G1 X67.7499 Y89.8200
G1 X67.2649 Y87.1590
G1 X71.7186 Y87.1838
G1 X71.4817 Y89.8390
G1 X75.1018 Y90.7846
G1 X71.7999 Y91.6597
G1 X71.4817 Y89.8390
G1 X67.7499 Y89.8200
G1 X71.7186 Y87.1838
G1 X67.2649 Y87.1590
G1 X72.4214 Y84.7351
G0 Z90.0
G1 X69.8528 Y89.5483
G1 Z0.0000
G1 X70.7732 Y94.0340
G1 X68.3204 Y93.2829
G1 X69.8528 Y89.5483
G1 X72.0881 Y90.8300
G1 X74.0915 Y87.9101
G1 X76.0113 Y88.9533
G1 X78.4129 Y86.7522
G1 X79.6907 Y86.5996
G1 X77.1715 Y88.9050
G1 X78.4129 Y86.7522
G1 X77.1715 Y88.9050
G1 X76.0113 Y88.9533
G1 X74.1426 Y91.6750
G1 X74.0915 Y87.9101
G1 X74.1426 Y91.6750
G1 X72.0881 Y90.8300
G1 X69.8528 Y89.5483
G1 X70.9757 Y84.4264
G1 X72.1610 Y86.1737
G1 X72.0881 Y90.8300
G1 X70.7732 Y94.0340
G1 X69.8528 Y89.5483
G0 Z90.0
G1 X68.7186 Y96.4882
G1 Z0.0000
G1 X69.6807 Y97.2792
G1 X73.4371 Y96.7225
G1 X74.4442 Y98.2839
G1 X77.4390 Y97.9822
G1 X78.2326 Y100.0990
G1 X80.7515 Y100.4380
G1 X80.7213 Y103.0370
G1 X82.5747 Y103.7340
G1 X81.2546 Y106.0530
G1 X78.9464 Y107.1760
G1 X76.5418 Y106.6800
G1 X74.9914 Y105.9940
G1 X78.9464 Y107.1760
G1 X77.1454 Y106.4760
G1 X81.2546 Y106.0530
G1 X79.3404 Y105.3500
G1 X82.5747 Y103.7340
G1 X79.3404 Y105.3500
G1 X81.2546 Y106.0530
G1 X77.1454 Y106.4760
G1 X78.9464 Y107.1760
G1 X74.9914 Y105.9940
G1 X77.1454 Y106.4760
G1 X79.3404 Y105.3500
G1 X80.7213 Y103.0370
G1 X79.3404 Y105.3500
G1 X77.1454 Y106.4760
G1 X74.9914 Y105.9940
G1 X72.8278 Y104.9730
G1 X77.1454 Y106.4760
G1 X74.4707 Y105.7710
G1 X72.8278 Y104.9730
G1 X70.3721 Y103.5160
G1 X74.4707 Y105.7710
G1 X79.3404 Y105.3500
G1 X76.3860 Y104.9360
G1 X80.7213 Y103.0370
G1 X77.8287 Y102.7620
G1 X80.7515 Y100.4380
G1 X77.8287 Y102.7620
G1 X78.2326 Y100.0990
G1 X74.6675 Y100.8780
G1 X77.4390 Y97.9822
G1 X74.6675 Y100.8780
G1 X74.4442 Y98.2839
G1 X70.4342 Y99.4826
G1 X73.4371 Y96.7225
G1 X70.4342 Y99.4826
G1 X69.6807 Y97.2792
G1 X65.1344 Y98.7468
G1 X68.7186 Y96.4882
G0 Z90.0
G1 X69.8528 Y89.5483
G1 Z0.0000
G1 X68.3147 Y88.3358
G1 X70.9757 Y84.4264
G1 X70.9951 Y83.3487
G1 X74.7078 Y79.8968
G1 X70.9757 Y84.4264
G1 X69.8528 Y89.5483
G0 Z90.0
G1 X73.3104 Y83.4563
G1 Z0.0000
G1 X72.4214 Y84.7351
G1 X67.4124 Y84.7061
G1 X67.2649 Y87.1590
G1 X62.9529 Y88.3981
G1 X62.5796 Y86.1060
G1 X67.4124 Y84.7061
G1 X62.9529 Y88.3981
G1 X67.2649 Y87.1590
G1 X64.0979 Y90.8646
G1 X60.8019 Y92.9922
G1 X62.9529 Y88.3981
G1 X64.0979 Y90.8646
G1 X67.7499 Y89.8200
G1 X68.6788 Y91.6404
G1 X71.7999 Y91.6597
G1 X72.5400 Y91.9533
G1 X69.6807 Y91.9282
G1 X71.7999 Y91.6597
G1 X69.6807 Y91.9282
G1 X68.6788 Y91.6404
G1 X65.5631 Y92.5347
G1 X67.7499 Y89.8200
G1 X65.5631 Y92.5347
G1 X64.0979 Y90.8646
G1 X62.9529 Y88.3981
G1 X67.4124 Y84.7061
G1 X73.3104 Y83.4563
G0 Z90.0
G1 X68.1317 Y83.4189
G1 Z0.0000
G1 X73.3104 Y83.4563
G1 X67.4124 Y84.7061
G1 X68.1317 Y83.4189
G1 X67.4124 Y84.7061
G1 X62.5796 Y86.1060
G1 X62.9529 Y88.3981
G1 X59.1054 Y90.8893
G1 X62.9529 Y88.3981
G1 X60.8019 Y92.9922
G1 X64.0979 Y90.8646
G1 X65.5631 Y92.5347
G1 X68.6788 Y91.6404
G1 X69.6807 Y91.9282
G1 X66.7714 Y92.7718
G1 X68.6788 Y91.6404
G1 X66.7714 Y92.7718
G1 X65.5631 Y92.5347
G1 X62.7133 Y94.3758
G1 X64.0979 Y90.8646
G1 X62.7133 Y94.3758
G1 X60.8019 Y92.9922
G1 X59.1054 Y90.8893
G1 X62.5796 Y86.1060
G1 X68.1317 Y83.4189
G0 Z90.0
G1 X63.1197 Y84.8864
G1 Z0.0000
G1 X68.1317 Y83.4189
G1 X62.5796 Y86.1060
G1 X59.1054 Y90.8893
G1 X60.8019 Y92.9922
G1 X62.7133 Y94.3758
G1 X65.5631 Y92.5347
G1 X66.7714 Y92.7718
G1 X64.0956 Y94.5110
G1 X65.5631 Y92.5347
G1 X64.0956 Y94.5110
G1 X62.7133 Y94.3758
G1 X60.4090 Y97.0562
G1 X60.8019 Y92.9922
G1 X58.1547 Y96.0763
G1 X59.1054 Y90.8893
G1 X58.2924 Y88.8993
G1 X62.5796 Y86.1060
G1 X63.1197 Y84.8864
G1 X62.5796 Y86.1060
G1 X58.2924 Y88.8993
G1 X59.1054 Y90.8893
G1 X56.0381 Y94.4764
G1 X54.8954 Y92.8875
G1 X58.2924 Y88.8993
G1 X56.0381 Y94.4764
G1 X56.3989 Y99.8894
G1 X54.0176 Y98.8847
G1 X56.0381 Y94.4764
G1 X58.1547 Y96.0763
G1 X58.8768 Y100.3760
G1 X56.3989 Y99.8894
G1 X58.1547 Y96.0763
G1 X60.4090 Y97.0562
G1 X62.7133 Y94.3758
G1 X64.0956 Y94.5110
G1 X61.9221 Y97.0397
G1 X62.7133 Y94.3758
G1 X61.9221 Y97.0397
G1 X60.4090 Y97.0562
G1 X58.8768 Y100.3760
G1 X58.1547 Y96.0763
G1 X56.3989 Y99.8894
G1 X56.0381 Y94.4764
G1 X59.1054 Y90.8893
G1 X58.1547 Y96.0763
G1 X60.8019 Y92.9922
G1 X60.4090 Y97.0562
G1 X58.1547 Y96.0763
G1 X56.0381 Y94.4764
G1 X58.2924 Y88.8993
G1 X63.1197 Y84.8864
G0 Z90.0
G1 X58.6711 Y87.7944
G1 Z0.0000
G1 X63.1197 Y84.8864
G1 X58.2924 Y88.8993
G1 X58.6711 Y87.7944
G1 X58.2924 Y88.8993
G1 X54.8954 Y92.8875
G1 X56.0381 Y94.4764
G1 X54.0176 Y98.8847
G1 X56.3989 Y99.8894
G1 X58.2647 Y104.0380
G1 X55.6990 Y104.1000
G1 X56.3989 Y99.8894
G1 X58.8768 Y100.3760
G1 X60.4090 Y97.0562
G1 X61.9221 Y97.0397
G1 X60.4806 Y100.1580
G1 X60.4090 Y97.0562
G1 X60.4806 Y100.1580
G1 X58.8768 Y100.3760
G1 X58.2647 Y104.0380
G1 X56.3989 Y99.8894
G1 X55.6990 Y104.1000
G1 X54.0176 Y98.8847
G1 X54.8954 Y92.8875
G1 X58.6711 Y87.7944
G0 Z90.0
G1 X52.6686 Y97.7589
G1 Z0.0000
G1 X55.1575 Y91.9258
G1 X54.8954 Y92.8875
G1 X52.6686 Y97.7589
G1 X54.8954 Y92.8875
G1 X55.1575 Y91.9258
G1 X58.6711 Y87.7944
G1 X54.8954 Y92.8875
G1 X54.0176 Y98.8847
G1 X55.6990 Y104.1000
G1 X53.2131 Y103.7480
G1 X54.0176 Y98.8847
G1 X52.6686 Y97.7589
G1 X54.0176 Y98.8847
G1 X53.2131 Y103.7480
G1 X55.6990 Y104.1000
G1 X58.6038 Y107.7180
G1 X56.0917 Y108.3530
G1 X55.6990 Y104.1000
G1 X58.2647 Y104.0380
G1 X58.8768 Y100.3760
G1 X60.4806 Y100.1580
G1 X59.9049 Y103.5890
G1 X58.8768 Y100.3760
G1 X59.9049 Y103.5890
G1 X58.2647 Y104.0380
G1 X58.6038 Y107.7180
G1 X55.6990 Y104.1000
G1 X56.0917 Y108.3530
G1 X53.2131 Y103.7480
G1 X52.6686 Y97.7589
G0 Z90.0
G1 X55.4564 Y103.6180
G1 Z0.0000
G1 X59.6167 Y99.9429
G1 X64.2649 Y97.5561
G1 X68.7186 Y96.4882
G1 X72.0454 Y96.7818
G1 X73.4371 Y96.7225
G1 X75.7714 Y97.2283
G1 X77.4390 Y97.9822
G1 X79.4233 Y98.5581
G1 X80.7889 Y99.2099
G1 X81.6101 Y99.4608
G1 X81.8018 Y99.0625
G1 X83.8056 Y100.7450
G1 X84.4889 Y103.2310
G1 X83.5918 Y105.5630
G1 X81.4697 Y106.8500
G1 X80.1797 Y107.4310
G1 X83.5918 Y105.5630
G1 X82.4879 Y106.3140
G1 X84.4889 Y103.2310
G1 X83.7103 Y104.0010
G1 X83.8056 Y100.7450
G1 X83.3740 Y101.3800
G1 X81.8018 Y99.0625
G1 X83.3740 Y101.3800
G1 X81.6101 Y99.4608
G1 X83.3740 Y101.3800
G1 X83.8056 Y100.7450
G1 X83.7103 Y104.0010
G1 X84.4889 Y103.2310
G1 X82.4879 Y106.3140
G1 X83.7103 Y104.0010
G1 X83.3740 Y101.3800
G1 X82.3944 Y101.1170
G1 X81.6101 Y99.4608
G1 X82.3944 Y101.1170
G1 X80.7889 Y99.2099
G1 X82.3944 Y101.1170
G1 X83.3740 Y101.3800
G1 X83.7103 Y104.0010
G1 X82.4879 Y106.3140
G1 X80.1797 Y107.4310
G1 X77.6761 Y106.9340
G1 X76.5418 Y106.6800
G1 X80.1797 Y107.4310
G1 X78.9464 Y107.1760
G1 X82.4879 Y106.3140
G1 X81.2546 Y106.0530
G1 X83.7103 Y104.0010
G1 X82.5747 Y103.7340
G1 X83.3740 Y101.3800
G1 X82.5747 Y103.7340
G1 X82.3944 Y101.1170
G1 X80.7515 Y100.4380
G1 X80.7889 Y99.2099
G1 X80.7515 Y100.4380
G1 X79.4233 Y98.5581
G1 X80.7515 Y100.4380
G1 X82.3944 Y101.1170
G1 X82.5747 Y103.7340
G1 X83.7103 Y104.0010
G1 X81.2546 Y106.0530
G1 X82.4879 Y106.3140
G1 X78.9464 Y107.1760
G1 X81.2546 Y106.0530
G1 X82.5747 Y103.7340
G1 X80.7213 Y103.0370
G1 X82.3944 Y101.1170
G1 X80.7213 Y103.0370
G1 X80.7515 Y100.4380
G1 X78.2326 Y100.0990
G1 X79.4233 Y98.5581
G1 X78.2326 Y100.0990
G1 X77.4390 Y97.9822
G1 X74.4442 Y98.2839
G1 X75.7714 Y97.2283
G1 X74.4442 Y98.2839
G1 X73.4371 Y96.7225
G1 X69.6807 Y97.2792
G1 X72.0454 Y96.7818
G1 X69.6807 Y97.2792
G1 X68.7186 Y96.4882
G1 X65.1344 Y98.7468
G1 X64.2649 Y97.5561
G1 X60.5786 Y101.2220
G1 X59.6167 Y99.9429
G1 X56.5574 Y104.8090
G1 X55.4564 Y103.6180
G0 Z90.0
G1 X56.5574 Y104.8090
G1 Z0.0000
G1 X59.6167 Y99.9429
G1 X60.5786 Y101.2220
G1 X65.1344 Y98.7468
G1 X60.5786 Y101.2220
G1 X64.2649 Y97.5561
G1 X65.1344 Y98.7468
G1 X69.6807 Y97.2792
G1 X70.4342 Y99.4826
G1 X74.4442 Y98.2839
G1 X74.6675 Y100.8780
G1 X78.2326 Y100.0990
G1 X77.8287 Y102.7620
G1 X80.7213 Y103.0370
G1 X76.3860 Y104.9360
G1 X79.3404 Y105.3500
G1 X74.4707 Y105.7710
G1 X76.3860 Y104.9360
G1 X74.4707 Y105.7710
G1 X71.3479 Y105.0970
G1 X76.3860 Y104.9360
G1 X77.8287 Y102.7620
G1 X76.3860 Y104.9360
G1 X72.7371 Y105.1000
G1 X71.3479 Y105.0970
G1 X68.5546 Y104.4810
G1 X72.7371 Y105.1000
G1 X77.8287 Y102.7620
G1 X74.0132 Y103.4920
G1 X78.2326 Y100.0990
G1 X74.0132 Y103.4920
G1 X77.8287 Y102.7620
G1 X72.7371 Y105.1000
G1 X74.0132 Y103.4920
G1 X72.7371 Y105.1000
G1 X69.5053 Y105.3230
G1 X74.0132 Y103.4920
G1 X74.6675 Y100.8780
G1 X74.0132 Y103.4920
G1 X69.5053 Y105.3230
G1 X66.7618 Y105.8670
G1 X70.3212 Y104.4810
G1 X69.5053 Y105.3230
G1 X70.3212 Y104.4810
G1 X74.0132 Y103.4920
G1 X70.3212 Y104.4810
G1 X66.7618 Y105.8670
G1 X64.2275 Y107.1010
G1 X67.1657 Y105.5230
G1 X66.7618 Y105.8670
G1 X67.1657 Y105.5230
G1 X70.3212 Y104.4810
G1 X74.6675 Y100.8780
G1 X70.6797 Y102.2460
G1 X74.4442 Y98.2839
G1 X70.6797 Y102.2460
G1 X74.6675 Y100.8780
G1 X70.3212 Y104.4810
G1 X70.6797 Y102.2460
G1 X70.3212 Y104.4810
G1 X67.1657 Y105.5230
G1 X70.6797 Y102.2460
G1 X70.4342 Y99.4826
G1 X66.1610 Y101.1060
G1 X69.6807 Y97.2792
G1 X66.1610 Y101.1060
G1 X65.1344 Y98.7468
G1 X66.1610 Y101.1060
G1 X70.4342 Y99.4826
G1 X70.6797 Y102.2460
G1 X67.1657 Y105.5230
G1 X64.3350 Y107.0520
G1 X66.9410 Y103.7080
G1 X67.1657 Y105.5230
G1 X66.9410 Y103.7080
G1 X70.6797 Y102.2460
G1 X66.9410 Y103.7080
G1 X70.4342 Y99.4826
G1 X66.9410 Y103.7080
G1 X64.3350 Y107.0520
G1 X61.8547 Y109.2820
G1 X60.1789 Y111.8360
G1 X59.9296 Y112.2090
G1 X61.8547 Y109.2820
G1 X59.9296 Y112.2090
G1 X58.7925 Y115.6830
G1 X58.2594 Y111.7830
G1 X59.9296 Y112.2090
G1 X60.5426 Y108.3340
G1 X61.8547 Y109.2820
G1 X63.5167 Y105.6470
G1 X64.3350 Y107.0520
G1 X63.5167 Y105.6470
G1 X66.9410 Y103.7080
G1 X66.1610 Y101.1060
G1 X66.9410 Y103.7080
G1 X63.5167 Y105.6470
G1 X61.8547 Y109.2820
G1 X60.5426 Y108.3340
G1 X59.9296 Y112.2090
G1 X58.2594 Y111.7830
G1 X58.7925 Y115.6830
G1 X56.9239 Y115.8240
G1 X58.2594 Y111.7830
G1 X60.5426 Y108.3340
G1 X63.5167 Y105.6470
G1 X66.1610 Y101.1060
G1 X62.0779 Y103.4090
G1 X65.1344 Y98.7468
G1 X62.0779 Y103.4090
G1 X60.5786 Y101.2220
G1 X58.5100 Y106.6180
G1 X60.5426 Y108.3340
G1 X58.2594 Y111.7830
G1 X58.5100 Y106.6180
G1 X58.2594 Y111.7830
G1 X55.7925 Y110.7070
G1 X58.5100 Y106.6180
G1 X56.5574 Y104.8090
G0 Z90.0
G1 X60.5786 Y101.2220
G1 Z0.0000
G1 X62.0779 Y103.4090
G1 X58.5100 Y106.6180
G1 X60.5786 Y101.2220
G0 Z90.0
G1 X56.5574 Y104.8090
G1 Z0.0000
G1 X58.5100 Y106.6180
G1 X62.0779 Y103.4090
G1 X63.5167 Y105.6470
G1 X60.5426 Y108.3340
G1 X62.0779 Y103.4090
G1 X66.1610 Y101.1060
G1 X63.5167 Y105.6470
G1 X62.0779 Y103.4090
G1 X60.5426 Y108.3340
G1 X58.5100 Y106.6180
G1 X55.7925 Y110.7070
G1 X56.5574 Y104.8090
G0 Z90.0
G1 X55.4564 Y103.6180
G1 Z0.0000
G1 X53.5065 Y109.4030
G1 X52.2951 Y108.3880
G1 X51.7536 Y114.7140
G1 X50.4871 Y113.9050
G1 X51.7536 Y114.7140
G1 X51.4975 Y120.3310
G1 X53.9832 Y120.4980
G1 X56.7185 Y120.1530
G1 X56.9239 Y115.8240
G1 X58.6175 Y119.4340
G1 X56.9239 Y115.8240
G1 X58.7925 Y115.6830
G1 X59.9296 Y112.2090
G1 X59.1235 Y115.0990
G1 X59.9296 Y112.2090
G1 X60.1789 Y111.8360
G1 X59.1235 Y115.0990
G1 X58.7925 Y115.6830
G1 X58.6175 Y119.4340
G1 X56.7185 Y120.1530
G1 X57.7025 Y124.3980
G1 X53.9832 Y120.4980
G1 X55.1297 Y125.4200
G1 X53.9832 Y120.4980
G1 X57.7025 Y124.3980
G1 X56.7185 Y120.1530
G1 X59.4735 Y123.1240
G1 X56.7185 Y120.1530
G1 X58.6175 Y119.4340
G1 X58.7925 Y115.6830
G1 X58.9650 Y118.6270
G1 X58.7925 Y115.6830
G1 X59.1235 Y115.0990
G1 X58.9650 Y118.6270
G1 X58.6175 Y119.4340
G1 X59.4735 Y123.1240
G1 X57.7025 Y124.3980
G1 X55.1297 Y125.4200
G1 X51.4975 Y120.3310
G1 X55.1297 Y125.4200
G1 X57.7025 Y124.3980
G1 X59.7972 Y128.1860
G1 X55.1297 Y125.4200
G1 X52.7735 Y125.7870
G1 X51.4975 Y120.3310
G1 X50.4871 Y113.9050
G1 X51.4975 Y120.3310
G1 X50.2267 Y119.7250
G1 X51.4975 Y120.3310
G1 X52.7735 Y125.7870
G1 X55.1297 Y125.4200
G1 X57.5621 Y129.8000
G1 X55.1297 Y125.4200
G1 X59.7972 Y128.1860
G1 X57.7025 Y124.3980
G1 X61.2924 Y126.4150
G1 X57.7025 Y124.3980
G1 X59.4735 Y123.1240
G1 X58.6175 Y119.4340
G1 X59.7726 Y122.0980
G1 X58.6175 Y119.4340
G1 X58.9650 Y118.6270
G1 X59.7726 Y122.0980
G1 X59.4735 Y123.1240
G1 X61.2924 Y126.4150
G1 X59.7972 Y128.1860
G1 X57.5621 Y129.8000
G1 X59.7972 Y128.1860
G1 X62.8026 Y131.1880
G1 X57.5621 Y129.8000
G1 X52.7735 Y125.7870
G1 X50.2267 Y119.7250
G1 X52.7735 Y125.7870
G1 X51.5539 Y125.3570
G1 X52.7735 Y125.7870
G1 X55.4672 Y130.6180
G1 X57.5621 Y129.8000
G1 X61.0500 Y133.2710
G1 X57.5621 Y129.8000
G1 X62.8026 Y131.1880
G1 X59.7972 Y128.1860
G1 X63.8899 Y129.0180
G1 X59.7972 Y128.1860
G1 X61.2924 Y126.4150
G1 X59.4735 Y123.1240
G1 X61.4743 Y125.1790
G1 X59.4735 Y123.1240
G1 X59.7726 Y122.0980
G1 X61.4743 Y125.1790
G1 X61.2924 Y126.4150
G1 X63.8899 Y129.0180
G1 X62.8026 Y131.1880
G1 X61.0500 Y133.2710
G1 X55.4672 Y130.6180
G1 X51.5539 Y125.3570
G1 X55.4672 Y130.6180
G1 X61.0500 Y133.2710
G1 X62.8026 Y131.1880
G1 X63.8899 Y129.0180
G1 X61.2924 Y126.4150
G1 X63.8983 Y127.6040
G1 X61.2924 Y126.4150
G1 X61.4743 Y125.1790
G1 X63.8983 Y127.6040
G1 X63.8899 Y129.0180
G1 X66.9932 Y130.7310
G1 X62.8026 Y131.1880
G1 X66.4132 Y133.1770
G1 X61.0500 Y133.2710
G1 X59.3260 Y134.4420
G1 X55.4672 Y130.6180
G1 X54.3306 Y130.3330
G1 X55.4672 Y130.6180
G1 X59.3260 Y134.4420
G1 X61.0500 Y133.2710
G1 X65.2582 Y135.5760
G1 X61.0500 Y133.2710
G1 X66.4132 Y133.1770
G1 X62.8026 Y131.1880
G1 X66.9932 Y130.7310
G1 X66.4132 Y133.1770
G1 X65.2582 Y135.5760
G1 X66.4132 Y133.1770
G1 X66.9932 Y130.7310
G1 X63.8899 Y129.0180
G1 X66.7797 Y129.1900
G1 X63.8899 Y129.0180
G1 X63.8983 Y127.6040
G1 X66.7797 Y129.1900
G1 X66.9932 Y130.7310
G1 X70.2815 Y131.4770
G1 X66.4132 Y133.1770
G1 X70.2731 Y134.0520
G1 X65.2582 Y135.5760
G1 X59.3260 Y134.4420
G1 X65.2582 Y135.5760
G1 X70.2731 Y134.0520
G1 X66.4132 Y133.1770
G1 X70.2815 Y131.4770
G1 X70.2731 Y134.0520
G1 X69.7964 Y136.5930
G1 X65.2582 Y135.5760
G1 X63.9879 Y136.9820
G1 X65.2582 Y135.5760
G1 X69.7964 Y136.5930
G1 X70.2731 Y134.0520
G1 X70.2815 Y131.4770
G1 X66.9932 Y130.7310
G1 X69.8253 Y129.8760
G1 X66.9932 Y130.7310
G1 X66.7797 Y129.1900
G1 X69.8253 Y129.8760
G1 X70.2815 Y131.4770
G1 X73.4399 Y131.2950
G1 X70.2731 Y134.0520
G1 X74.0160 Y133.8360
G1 X70.2731 Y134.0520
G1 X73.4399 Y131.2950
G1 X74.0160 Y133.8360
G1 X69.7964 Y136.5930
G1 X74.0160 Y133.8360
G1 X74.2526 Y136.3380
G1 X74.0160 Y133.8360
G1 X77.2721 Y132.6560
G1 X74.0160 Y133.8360
G1 X76.1753 Y130.3060
G1 X74.0160 Y133.8360
G1 X73.4399 Y131.2950
G1 X70.2815 Y131.4770
G1 X72.7533 Y129.7160
G1 X70.2815 Y131.4770
G1 X69.8253 Y129.8760
G1 X72.7533 Y129.7160
G1 X73.4399 Y131.2950
G1 X76.1753 Y130.3060
G1 X77.2721 Y132.6560
G1 X74.2526 Y136.3380
G1 X69.7964 Y136.5930
G1 X63.9879 Y136.9820
G1 X59.3260 Y134.4420
G1 X54.3306 Y130.3330
G1 X59.3260 Y134.4420
G1 X58.2993 Y134.2590
G1 X59.3260 Y134.4420
G1 X63.9879 Y136.9820
G1 X69.7964 Y136.5930
G1 X69.0397 Y138.0990
G1 X69.7964 Y136.5930
G1 X74.2526 Y136.3380
G1 X77.2721 Y132.6560
G1 X78.2204 Y134.9670
G1 X77.2721 Y132.6560
G1 X79.6685 Y130.7000
G1 X77.2721 Y132.6560
G1 X78.2436 Y128.6340
G1 X77.2721 Y132.6560
G1 X76.1753 Y130.3060
G1 X73.4399 Y131.2950
G1 X75.3540 Y128.8320
G1 X73.4399 Y131.2950
G1 X72.7533 Y129.7160
G1 X69.8253 Y129.8760
G1 X72.2256 Y129.6890
G1 X69.8253 Y129.8760
G1 X69.0824 Y129.8500
G1 X72.2256 Y129.6890
G1 X72.7533 Y129.7160
G1 X75.3540 Y128.8320
G1 X76.1753 Y130.3060
G1 X78.2436 Y128.6340
G1 X79.6685 Y130.7000
G1 X78.2204 Y134.9670
G1 X79.6685 Y130.7000
G1 X79.6121 Y126.3660
G1 X80.8672 Y128.1490
G1 X80.9611 Y123.6730
G1 X81.3513 Y125.3150
G1 X80.9611 Y123.6730
G1 X82.6439 Y121.0340
G1 X81.3513 Y125.3150
G1 X80.8672 Y128.1490
G1 X79.6685 Y130.7000
G1 X78.2436 Y128.6340
G1 X76.1753 Y130.3060
G1 X77.5325 Y127.3520
G1 X76.1753 Y130.3060
G1 X75.3540 Y128.8320
G1 X72.7533 Y129.7160
G1 X75.1251 Y128.7950
G1 X72.7533 Y129.7160
G1 X72.2256 Y129.6890
G1 X75.1251 Y128.7950
G1 X75.3540 Y128.8320
G1 X75.1251 Y128.7950
G1 X77.7999 Y127.3330
G1 X75.3540 Y128.8320
G1 X77.5325 Y127.3520
G1 X78.2436 Y128.6340
G1 X79.6121 Y126.3660
G1 X80.9611 Y123.6730
G1 X80.8672 Y128.1490
G1 X79.6121 Y126.3660
G1 X78.2436 Y128.6340
G1 X79.5306 Y125.3350
G1 X78.2436 Y128.6340
G1 X77.5325 Y127.3520
G1 X79.5306 Y125.3350
G1 X79.6121 Y126.3660
G1 X79.5306 Y125.3350
G1 X81.9686 Y122.8730
G1 X79.6121 Y126.3660
G1 X79.6685 Y130.7000
G1 X81.2546 Y132.7400
G1 X82.8217 Y129.9940
G1 X82.3722 Y133.9490
G1 X82.8217 Y129.9940
G1 X84.6985 Y131.1710
G1 X85.2964 Y128.5240
G1 X85.7706 Y131.2270
G1 X84.6985 Y131.1710
G1 X82.3722 Y133.9490
G1 X81.2546 Y132.7400
G1 X78.2204 Y134.9670
G1 X74.2526 Y136.3380
G1 X69.0397 Y138.0990
G1 X63.9879 Y136.9820
G1 X58.2993 Y134.2590
G1 X63.9879 Y136.9820
G1 X63.0936 Y136.8610
G1 X63.9879 Y136.9820
G1 X69.0397 Y138.0990
G1 X74.2526 Y136.3380
G1 X74.0615 Y137.8200
G1 X74.2526 Y136.3380
G1 X78.2204 Y134.9670
G1 X81.2546 Y132.7400
G1 X78.6419 Y136.3250
G1 X78.2204 Y134.9670
G1 X74.0615 Y137.8200
G1 X78.2204 Y134.9670
G1 X78.6419 Y136.3250
G1 X81.2546 Y132.7400
G1 X82.3722 Y133.9490
G1 X84.6985 Y131.1710
G1 X82.6013 Y133.8720
G1 X84.6985 Y131.1710
G1 X85.7706 Y131.2270
G1 X82.6013 Y133.8720
G1 X82.3722 Y133.9490
G1 X82.6013 Y133.8720
G1 X78.3840 Y136.2230
G1 X82.3722 Y133.9490
G1 X78.6419 Y136.3250
G1 X74.0615 Y137.8200
G1 X69.0397 Y138.0990
G1 X63.0936 Y136.8610
G1 X69.0397 Y138.0990
G1 X68.3038 Y138.0070
G1 X63.0936 Y136.8610
G1 X58.2993 Y134.2590
G1 X54.3306 Y130.3330
G1 X51.5539 Y125.3570
G1 X50.2267 Y119.7250
G1 X50.4871 Y113.9050
G1 X52.2951 Y108.3880
G1 X55.4564 Y103.6180
G0 Z90.0
G1 X53.6733 Y108.6680
G1 Z0.0000
G1 X51.7853 Y103.1180
G1 X53.2131 Y103.7480
G1 X53.6733 Y108.6680
G0 Z90.0
G1 X55.4564 Y103.6180
G1 Z0.0000
G1 X56.5574 Y104.8090
G1 X53.5065 Y109.4030
G1 X51.7536 Y114.7140
G1 X53.9832 Y120.4980
G1 X51.4975 Y120.3310
G1 X51.7536 Y114.7140
G1 X52.2951 Y108.3880
G1 X53.5065 Y109.4030
G1 X55.4564 Y103.6180
G0 Z90.0
G1 X53.6733 Y108.6680
G1 Z0.0000
G1 X53.2131 Y103.7480
G1 X51.7853 Y103.1180
G1 X52.6686 Y97.7589
G1 X52.8603 Y96.9514
G1 X55.1575 Y91.9258
G1 X52.6686 Y97.7589
G1 X53.2131 Y103.7480
G1 X56.0917 Y108.3530
G1 X53.6733 Y108.6680
G0 Z90.0
G1 X56.5574 Y104.8090
G1 Z0.0000
G1 X55.7925 Y110.7070
G1 X53.5065 Y109.4030
G1 X55.7925 Y110.7070
G1 X54.2229 Y115.4510
G1 X55.7925 Y110.7070
G1 X56.9239 Y115.8240
G1 X55.7925 Y110.7070
G1 X58.2594 Y111.7830
G1 X56.9239 Y115.8240
G1 X54.2229 Y115.4510
G1 X53.5065 Y109.4030
G1 X54.2229 Y115.4510
G1 X51.7536 Y114.7140
G1 X54.2229 Y115.4510
G1 X56.9239 Y115.8240
G1 X56.7185 Y120.1530
G1 X54.2229 Y115.4510
G1 X53.9832 Y120.4980
G1 X54.2229 Y115.4510
G1 X56.7185 Y120.1530
G1 X53.9832 Y120.4980
G1 X51.7536 Y114.7140
G1 X53.5065 Y109.4030
G1 X56.5574 Y104.8090
G0 Z90.0
G1 X53.6733 Y108.6680
G1 Z0.0000
G1 X56.0917 Y108.3530
G1 X57.5000 Y112.2870
G1 X56.0917 Y108.3530
G1 X58.6038 Y107.7180
G1 X58.2647 Y104.0380
G1 X59.9049 Y103.5890
G1 X60.2203 Y107.0170
G1 X58.2647 Y104.0380
G1 X60.2203 Y107.0170
G1 X58.6038 Y107.7180
G1 X59.8137 Y111.0970
G1 X56.0917 Y108.3530
G1 X59.8137 Y111.0970
G1 X57.5000 Y112.2870
G1 X53.6733 Y108.6680
G0 Z90.0
G1 X55.3187 Y113.2470
G1 Z0.0000
G1 X53.6733 Y108.6680
G1 X52.2979 Y108.5390
G1 X51.7853 Y103.1180
G1 X53.6733 Y108.6680
G1 X57.5000 Y112.2870
G1 X55.3187 Y113.2470
G1 X57.5000 Y112.2870
G1 X59.7294 Y115.5870
G1 X57.5000 Y112.2870
G1 X59.8137 Y111.0970
G1 X58.6038 Y107.7180
G1 X60.2203 Y107.0170
G1 X59.9049 Y103.5890
G1 X60.0040 Y102.9290
G1 X60.3360 Y106.5160
G1 X59.9049 Y103.5890
G1 X60.3360 Y106.5160
G1 X60.2203 Y107.0170
G1 X61.3463 Y110.1430
G1 X58.6038 Y107.7180
G1 X61.3463 Y110.1430
G1 X59.8137 Y111.0970
G1 X61.7114 Y113.9000
G1 X57.5000 Y112.2870
G1 X61.7114 Y113.9000
G1 X59.7294 Y115.5870
G1 X55.3187 Y113.2470
G0 Z90.0
G1 X64.3971 Y116.4110
G1 Z0.0000
G1 X63.9176 Y120.0770
G1 X63.1610 Y120.6780
G1 X64.3971 Y116.4110
G1 X65.0861 Y115.3410
G1 X66.6294 Y112.0170
G1 X68.0492 Y110.7660
G1 X69.4186 Y109.1100
G1 X70.2374 Y108.5680
G1 X72.3844 Y107.3970
G1 X73.1008 Y106.9500
G1 X75.7396 Y107.0190
G1 X73.1008 Y106.9500
G1 X73.4935 Y106.8100
G1 X75.7396 Y107.0190
G1 X76.1753 Y106.8070
G1 X75.7396 Y107.0190
G1 X73.4935 Y106.8100
G1 X76.1753 Y106.8070
G1 X78.3414 Y108.3820
G1 X79.1725 Y110.9250
G1 X78.3485 Y113.4670
G1 X76.1863 Y115.0390
G1 X75.6860 Y115.3110
G1 X78.3485 Y113.4670
G1 X77.8372 Y113.7950
G1 X79.1725 Y110.9250
G1 X78.6722 Y111.2560
G1 X78.3414 Y108.3820
G1 X77.8700 Y108.6600
G1 X76.1753 Y106.8070
G1 X77.8700 Y108.6600
G1 X75.7396 Y107.0190
G1 X74.9131 Y107.8600
G1 X73.1008 Y106.9500
G1 X74.9131 Y107.8600
G1 X72.3844 Y107.3970
G1 X71.7296 Y108.8670
G1 X70.2374 Y108.5680
G1 X71.7296 Y108.8670
G1 X69.4186 Y109.1100
G1 X68.4469 Y111.3290
G1 X68.0492 Y110.7660
G1 X68.4469 Y111.3290
G1 X66.6294 Y112.0170
G1 X68.4469 Y111.3290
G1 X69.4186 Y109.1100
G1 X71.7296 Y108.8670
G1 X72.3844 Y107.3970
G1 X74.9131 Y107.8600
G1 X75.7396 Y107.0190
G1 X77.8700 Y108.6600
G1 X78.3414 Y108.3820
G1 X78.6722 Y111.2560
G1 X79.1725 Y110.9250
G1 X77.8372 Y113.7950
G1 X78.3485 Y113.4670
G1 X75.6860 Y115.3110
G1 X77.8372 Y113.7950
G1 X78.6722 Y111.2560
G1 X77.8700 Y108.6600
G1 X78.6722 Y111.2560
G1 X77.8372 Y113.7950
G1 X75.6860 Y115.3110
G1 X74.2806 Y115.9260
G1 X77.8372 Y113.7950
G1 X76.4428 Y114.7830
G1 X78.6722 Y111.2560
G1 X77.4276 Y112.4380
G1 X77.8700 Y108.6600
G1 X76.8435 Y109.7900
G1 X75.7396 Y107.0190
G1 X76.8435 Y109.7900
G1 X74.9131 Y107.8600
G1 X74.0971 Y110.1490
G1 X72.3844 Y107.3970
G1 X74.0971 Y110.1490
G1 X71.7296 Y108.8670
G1 X70.9454 Y111.9720
G1 X69.4186 Y109.1100
G1 X70.9454 Y111.9720
G1 X68.4469 Y111.3290
G1 X67.1629 Y115.1550
G1 X66.6294 Y112.0170
G1 X67.1629 Y115.1550
G1 X65.0861 Y115.3410
G1 X63.9176 Y120.0770
G1 X64.3971 Y116.4110
G0 Z90.0
G1 X63.9176 Y120.0770
G1 Z0.0000
G1 X66.1335 Y119.9560
G1 X67.1629 Y115.1550
G1 X69.8362 Y115.9390
G1 X70.9454 Y111.9720
G1 X72.0478 Y117.3850
G1 X72.9410 Y118.9230
G1 X72.1692 Y121.9960
G1 X72.0478 Y117.3850
G1 X69.8362 Y115.9390
G1 X72.0478 Y117.3850
G1 X72.1692 Y121.9960
G1 X72.0425 Y125.3180
G1 X71.2668 Y121.1520
G1 X72.1692 Y121.9960
G1 X71.2668 Y121.1520
G1 X72.0478 Y117.3850
G1 X71.2668 Y121.1520
G1 X69.8362 Y115.9390
G1 X68.9557 Y120.3710
G1 X67.1629 Y115.1550
G1 X68.9557 Y120.3710
G1 X69.8362 Y115.9390
G1 X71.2668 Y121.1520
G1 X72.0425 Y125.3180
G1 X72.6832 Y128.8030
G1 X71.1482 Y125.1680
G1 X72.0425 Y125.3180
G1 X71.1482 Y125.1680
G1 X71.2668 Y121.1520
G1 X68.9557 Y120.3710
G1 X71.2668 Y121.1520
G1 X71.1482 Y125.1680
G1 X72.6832 Y128.8030
G1 X71.8993 Y129.3090
G1 X71.1482 Y125.1680
G1 X68.9557 Y120.3710
G1 X66.1335 Y119.9560
G1 X65.9529 Y125.3510
G1 X63.9176 Y120.0770
G0 Z90.0
G1 X64.7168 Y131.3970
G1 Z0.0000
G1 X67.0733 Y136.8720
G1 X72.5935 Y140.6820
G1 X74.7353 Y138.8340
G1 X76.1890 Y136.7170
G1 X73.6011 Y133.2790
G1 X76.3915 Y135.1560
G1 X73.6011 Y133.2790
G1 X74.1507 Y132.1930
G1 X76.3915 Y135.1560
G1 X76.1890 Y136.7170
G1 X79.4618 Y139.2880
G1 X74.7353 Y138.8340
G1 X78.5508 Y141.8190
G1 X72.5935 Y140.6820
G1 X70.6092 Y141.5250
G1 X67.0733 Y136.8720
G1 X63.8846 Y131.3610
G1 X64.7168 Y131.3970
G1 X69.2008 Y136.1920
G1 X67.0733 Y136.8720
G1 X69.2008 Y136.1920
G1 X72.5935 Y140.6820
G1 X69.2008 Y136.1920
G1 X74.7353 Y138.8340
G1 X71.7078 Y134.8120
G1 X76.1890 Y136.7170
G1 X71.7078 Y134.8120
G1 X73.6011 Y133.2790
G1 X71.8993 Y129.3090
G1 X74.1507 Y132.1930
G1 X71.8993 Y129.3090
G1 X72.6832 Y128.8030
G1 X74.1507 Y132.1930
G1 X73.6011 Y133.2790
G1 X76.1890 Y136.7170
G1 X74.7353 Y138.8340
G1 X72.5935 Y140.6820
G1 X67.0733 Y136.8720
G1 X64.7168 Y131.3970
G1 X66.9467 Y130.9230
G1 X69.2008 Y136.1920
G1 X71.7078 Y134.8120
G1 X74.7353 Y138.8340
G1 X69.2008 Y136.1920
G1 X64.7168 Y131.3970
G0 Z90.0
G1 X69.2008 Y136.1920
G1 Z0.0000
G1 X66.9467 Y130.9230
G1 X63.6887 Y125.6150
G1 X65.9529 Y125.3510
G1 X66.9467 Y130.9230
G1 X71.7078 Y134.8120
G1 X69.7039 Y130.1210
G1 X71.8993 Y129.3090
G1 X73.6011 Y133.2790
G1 X69.7039 Y130.1210
G1 X73.6011 Y133.2790
G1 X71.7078 Y134.8120
G1 X69.2008 Y136.1920
G0 Z90.0
G1 X64.7168 Y131.3970
G1 Z0.0000
G1 X63.8846 Y131.3610
G1 X67.0733 Y136.8720
G1 X66.1500 Y136.5960
G1 X67.0733 Y136.8720
G1 X70.6092 Y141.5250
G1 X72.5935 Y140.6820
G1 X76.8463 Y143.9860
G1 X72.5935 Y140.6820
G1 X78.5508 Y141.8190
G1 X74.7353 Y138.8340
G1 X79.4618 Y139.2880
G1 X76.1890 Y136.7170
G1 X79.2371 Y137.3910
G1 X76.1890 Y136.7170
G1 X76.3915 Y135.1560
G1 X79.2371 Y137.3910
G1 X79.4618 Y139.2880
G1 X78.5508 Y141.8190
G1 X76.8463 Y143.9860
G1 X70.6092 Y141.5250
G1 X66.1500 Y136.5960
G1 X70.6092 Y141.5250
G1 X76.8463 Y143.9860
G1 X78.5508 Y141.8190
G1 X79.4618 Y139.2880
G1 X79.2371 Y137.3910
G1 X82.4206 Y138.6730
G1 X79.4618 Y139.2880
G1 X83.1261 Y140.7570
G1 X78.5508 Y141.8190
G1 X82.8008 Y143.5070
G1 X78.5508 Y141.8190
G1 X83.1261 Y140.7570
G1 X79.4618 Y139.2880
G1 X82.4206 Y138.6730
G1 X79.2371 Y137.3910
G1 X80.9749 Y138.0430
G1 X79.2371 Y137.3910
G1 X77.9776 Y136.8410
G1 X80.9749 Y138.0430
G1 X82.4206 Y138.6730
G1 X83.1261 Y140.7570
G1 X82.8008 Y143.5070
G1 X76.8463 Y143.9860
G1 X75.0260 Y144.9420
G1 X70.6092 Y141.5250
G1 X69.5536 Y141.0540
G1 X70.6092 Y141.5250
G1 X75.0260 Y144.9420
G1 X76.8463 Y143.9860
G1 X81.5675 Y145.8390
G1 X76.8463 Y143.9860
G1 X82.8008 Y143.5070
G1 X81.5675 Y145.8390
G1 X75.0260 Y144.9420
G1 X69.5536 Y141.0540
G1 X75.0260 Y144.9420
G1 X81.5675 Y145.8390
G1 X82.8008 Y143.5070
G1 X83.1261 Y140.7570
G1 X82.4206 Y138.6730
G1 X80.9749 Y138.0430
G1 X83.9886 Y138.2580
G1 X82.4206 Y138.6730
G1 X85.6382 Y138.9010
G1 X83.1261 Y140.7570
G1 X86.8344 Y141.0150
G1 X82.8008 Y143.5070
G1 X87.0963 Y143.7850
G1 X82.8008 Y143.5070
G1 X86.8344 Y141.0150
G1 X83.1261 Y140.7570
G1 X85.6382 Y138.9010
G1 X82.4206 Y138.6730
G1 X83.9886 Y138.2580
G1 X85.6382 Y138.9010
G1 X86.8344 Y141.0150
G1 X87.0963 Y143.7850
G1 X81.5675 Y145.8390
G1 X79.9112 Y146.8430
G1 X81.5675 Y145.8390
G1 X86.3229 Y146.1210
G1 X81.5675 Y145.8390
G1 X87.0963 Y143.7850
G1 X86.8344 Y141.0150
G1 X85.6382 Y138.9010
G1 X83.9886 Y138.2580
G1 X86.7407 Y137.5230
G1 X85.6382 Y138.9010
G1 X88.5899 Y138.1160
G1 X86.8344 Y141.0150
G1 X90.2490 Y140.0940
G1 X87.0963 Y143.7850
G1 X86.3229 Y146.1210
G1 X79.9112 Y146.8430
G1 X75.0260 Y144.9420
G1 X73.7954 Y144.3280
G1 X69.5536 Y141.0540
G1 X66.1500 Y136.5960
G1 X63.8846 Y131.3610
G1 X62.9046 Y125.8630
G1 X63.6887 Y125.6150
G1 X63.9176 Y120.0770
G1 X63.6887 Y125.6150
G1 X63.1610 Y120.6780
G1 X63.6887 Y125.6150
G1 X62.9046 Y125.8630
G1 X63.1610 Y120.6780
G1 X63.9176 Y120.0770
G1 X65.0861 Y115.3410
G1 X67.1629 Y115.1550
G1 X68.4469 Y111.3290
G1 X70.9454 Y111.9720
G1 X71.7296 Y108.8670
G1 X74.0971 Y110.1490
G1 X74.9131 Y107.8600
G1 X76.8435 Y109.7900
G1 X77.8700 Y108.6600
G1 X77.4276 Y112.4380
G1 X78.6722 Y111.2560
G1 X76.4428 Y114.7830
G1 X77.4276 Y112.4380
G1 X76.8435 Y109.7900
G1 X77.4276 Y112.4380
G1 X76.4428 Y114.7830
G1 X74.2806 Y115.9260
G1 X71.9392 Y116.7330
G1 X76.4428 Y114.7830
G1 X74.2418 Y116.5260
G1 X77.4276 Y112.4380
G1 X75.6447 Y114.9020
G1 X76.8435 Y109.7900
G1 X75.5964 Y112.4600
G1 X74.9131 Y107.8600
G1 X75.5964 Y112.4600
G1 X76.8435 Y109.7900
G1 X75.6447 Y114.9020
G1 X74.2418 Y116.5260
G1 X71.8538 Y118.2230
G1 X75.6447 Y114.9020
G1 X75.5964 Y112.4600
G1 X74.0971 Y110.1490
G1 X75.5964 Y112.4600
G1 X75.6447 Y114.9020
G1 X73.6850 Y117.5760
G1 X75.5964 Y112.4600
G1 X73.6850 Y117.5760
G1 X74.1910 Y115.8580
G1 X75.5964 Y112.4600
G1 X74.1910 Y115.8580
G1 X74.0971 Y110.1490
G1 X73.1464 Y113.7100
G1 X71.7296 Y108.8670
G1 X73.1464 Y113.7100
G1 X74.0971 Y110.1490
G1 X74.1910 Y115.8580
G1 X73.6850 Y117.5760
G1 X72.1928 Y119.9620
G1 X74.1910 Y115.8580
G1 X73.1464 Y113.7100
G1 X70.9454 Y111.9720
G1 X73.1464 Y113.7100
G1 X74.1910 Y115.8580
G1 X72.9410 Y118.9230
G1 X73.1464 Y113.7100
G1 X72.9410 Y118.9230
G1 X72.0478 Y117.3850
G1 X73.1464 Y113.7100
G1 X72.0478 Y117.3850
G1 X70.9454 Y111.9720
G1 X69.8362 Y115.9390
G1 X68.4469 Y111.3290
G1 X69.8362 Y115.9390
G1 X67.1629 Y115.1550
G1 X66.1335 Y119.9560
G1 X65.0861 Y115.3410
G1 X66.1335 Y119.9560
G1 X63.9176 Y120.0770
G1 X65.9529 Y125.3510
G1 X63.6887 Y125.6150
G1 X66.9467 Y130.9230
G1 X64.7168 Y131.3970
G0 Z90.0
G1 X66.9467 Y130.9230
G1 Z0.0000
G1 X65.9529 Y125.3510
G1 X66.1335 Y119.9560
G1 X68.9557 Y120.3710
G1 X68.8164 Y125.1790
G1 X71.1482 Y125.1680
G1 X71.8993 Y129.3090
G1 X68.8164 Y125.1790
G1 X68.9557 Y120.3710
G1 X71.1482 Y125.1680
G1 X68.8164 Y125.1790
G1 X66.1335 Y119.9560
G1 X68.8164 Y125.1790
G1 X71.8993 Y129.3090
G1 X69.7039 Y130.1210
G1 X68.8164 Y125.1790
G1 X65.9529 Y125.3510
G1 X68.8164 Y125.1790
G1 X69.7039 Y130.1210
G1 X71.7078 Y134.8120
G1 X66.9467 Y130.9230
G0 Z90.0
G1 X84.8251 Y147.1220
G1 Z0.0000
G1 X79.9112 Y146.8430
G1 X86.3229 Y146.1210
G1 X87.0963 Y143.7850
G1 X90.2490 Y140.0940
G1 X86.8344 Y141.0150
G1 X88.5899 Y138.1160
G1 X85.6382 Y138.9010
G1 X86.7407 Y137.5230
G1 X88.5899 Y138.1160
G1 X90.2490 Y140.0940
G1 X91.0593 Y142.6920
G1 X87.0963 Y143.7850
G1 X91.0593 Y142.6920
G1 X86.3229 Y146.1210
G1 X84.8251 Y147.1220
G1 X86.3229 Y146.1210
G1 X90.7094 Y144.8900
G1 X86.3229 Y146.1210
G1 X91.0593 Y142.6920
G1 X94.3776 Y140.4110
G1 X90.7094 Y144.8900
G1 X91.0593 Y142.6920
G1 X90.2490 Y140.0940
G1 X88.5899 Y138.1160
G1 X86.7407 Y137.5230
G1 X89.0157 Y135.9940
G1 X88.5899 Y138.1160
G1 X91.0361 Y136.4750
G1 X90.2490 Y140.0940
G1 X93.0935 Y138.1640
G1 X94.3776 Y140.4110
G1 X91.0593 Y142.6920
G1 X93.0935 Y138.1640
G1 X90.2490 Y140.0940
G1 X91.0361 Y136.4750
G1 X88.5899 Y138.1160
G1 X89.0157 Y135.9940
G1 X91.0361 Y136.4750
G1 X93.0935 Y138.1640
G1 X91.0593 Y142.6920
G1 X90.7094 Y144.8900
G1 X84.8251 Y147.1220
G0 Z90.0
G1 X89.3467 Y145.8390
G1 Z0.0000
G1 X84.8251 Y147.1220
G1 X90.7094 Y144.8900
G1 X94.3776 Y140.4110
G1 X95.1799 Y135.4870
G1 X92.8122 Y134.2110
G1 X93.8308 Y131.6170
G1 X95.1799 Y135.4870
G1 X96.8418 Y137.2300
G1 X94.3776 Y140.4110
G1 X93.0935 Y138.1640
G1 X92.8122 Y134.2110
G1 X91.0361 Y136.4750
G1 X90.6696 Y133.8980
G1 X92.8122 Y134.2110
G1 X95.1799 Y135.4870
G1 X93.0935 Y138.1640
G1 X91.0361 Y136.4750
G1 X89.0157 Y135.9940
G1 X90.6696 Y133.8980
G1 X91.0361 Y136.4750
G1 X92.8122 Y134.2110
G1 X93.0935 Y138.1640
G1 X95.1799 Y135.4870
G1 X94.3776 Y140.4110
G1 X94.3914 Y142.3330
G1 X90.7094 Y144.8900
G1 X89.3467 Y145.8390
G1 X90.7094 Y144.8900
G1 X94.3914 Y142.3330
G1 X94.3776 Y140.4110
G1 X96.8418 Y137.2300
G1 X97.1571 Y138.7510
G1 X94.3914 Y142.3330
G1 X96.8418 Y137.2300
G1 X95.1799 Y135.4870
G1 X96.4022 Y132.3930
G1 X98.3549 Y133.5110
G1 X96.8418 Y137.2300
G1 X96.4022 Y132.3930
G1 X95.1799 Y135.4870
G1 X93.8308 Y131.6170
G1 X94.0361 Y128.9780
G1 X96.4022 Y132.3930
G1 X94.0361 Y128.9780
G1 X96.6957 Y129.2630
G1 X96.4022 Y132.3930
G1 X96.6957 Y129.2630
G1 X98.3549 Y133.5110
G1 X97.1571 Y138.7510
G1 X96.8418 Y137.2300
G1 X98.3549 Y133.5110
G1 X96.4022 Y132.3930
G1 X93.8308 Y131.6170
G1 X92.8122 Y134.2110
G1 X90.6696 Y133.8980
G1 X89.0157 Y135.9940
G1 X87.8071 Y136.8950
G1 X89.5837 Y134.6570
G1 X89.0157 Y135.9940
G1 X89.5837 Y134.6570
G1 X90.6696 Y133.8980
G1 X91.6574 Y131.4820
G1 X92.8122 Y134.2110
G1 X91.6574 Y131.4820
G1 X93.8308 Y131.6170
G1 X96.4022 Y132.3930
G1 X96.8418 Y137.2300
G1 X94.3914 Y142.3330
G1 X89.3467 Y145.8390
G0 Z90.0
G1 X85.9056 Y134.8010
G1 Z0.0000
G1 X91.7113 Y136.9120
G1 X90.4543 Y137.9220
G1 X96.8872 Y139.2080
G1 X103.1350 Y137.9410
G1 X103.2770 Y135.0990
G1 X102.3790 Y132.8160
G1 X100.8080 Y131.9700
G1 X103.7840 Y131.7870
G1 X102.3790 Y132.8160
G1 X105.7990 Y132.6050
G1 X103.2770 Y135.0990
G1 X107.2500 Y134.8410
G1 X103.1350 Y137.9410
G1 X102.0090 Y140.2310
G1 X96.8872 Y139.2080
G1 X95.4193 Y140.1080
G1 X96.8872 Y139.2080
G1 X102.0090 Y140.2310
G1 X95.4193 Y140.1080
G1 X102.0090 Y140.2310
G1 X103.1350 Y137.9410
G1 X107.5650 Y137.6260
G1 X103.1350 Y137.9410
G1 X107.2500 Y134.8410
G1 X103.2770 Y135.0990
G1 X105.7990 Y132.6050
G1 X102.3790 Y132.8160
G1 X103.7840 Y131.7870
G1 X105.7990 Y132.6050
G1 X107.2500 Y134.8410
G1 X107.5650 Y137.6260
G1 X102.0090 Y140.2310
G1 X100.3500 Y141.0690
G1 X102.0090 Y140.2310
G1 X106.6200 Y139.8690
G1 X102.0090 Y140.2310
G1 X107.5650 Y137.6260
G1 X107.2500 Y134.8410
G1 X105.7990 Y132.6050
G1 X103.7840 Y131.7870
G1 X106.2260 Y130.7610
G1 X105.7990 Y132.6050
G1 X108.5850 Y131.4230
G1 X107.2500 Y134.8410
G1 X110.4680 Y133.4490
G1 X107.5650 Y137.6260
G1 X106.6200 Y139.8690
G1 X100.3500 Y141.0690
G1 X95.4193 Y140.1080
G1 X90.4543 Y137.9220
G1 X85.9056 Y134.8010
G1 X82.1436 Y131.2160
G1 X79.4590 Y127.8410
G1 X78.1735 Y125.4720
G1 X77.4707 Y123.6560
G1 X76.6822 Y122.6880
G1 X76.4660 Y120.2800
G1 X75.6832 Y119.9560
G1 X76.3379 Y117.3370
G1 X75.5263 Y117.0830
G1 X78.4243 Y115.5240
G1 X77.3493 Y115.0770
G1 X81.1361 Y115.2200
G1 X79.9649 Y114.5360
G1 X83.4278 Y116.5290
G1 X81.1361 Y115.2200
G1 X78.4243 Y115.5240
G1 X76.3379 Y117.3370
G1 X77.8936 Y118.0340
G1 X75.6832 Y119.9560
G1 X77.8936 Y118.0340
G1 X76.4660 Y120.2800
G1 X78.4106 Y121.4860
G1 X76.6822 Y122.6880
G1 X78.4106 Y121.4860
G1 X77.4707 Y123.6560
G1 X79.6410 Y126.2040
G1 X78.1735 Y125.4720
G1 X79.6410 Y126.2040
G1 X79.4590 Y127.8410
G1 X79.6410 Y126.2040
G1 X77.4707 Y123.6560
G1 X78.4106 Y121.4860
G1 X76.4660 Y120.2800
G1 X77.8936 Y118.0340
G1 X76.3379 Y117.3370
G1 X78.4243 Y115.5240
G1 X81.1361 Y115.2200
G1 X83.4278 Y116.5290
G1 X84.4268 Y118.9470
G1 X84.9824 Y121.2120
G1 X83.4278 Y116.5290
G1 X84.8018 Y118.8100
G1 X81.1361 Y115.2200
G1 X83.0640 Y117.1270
G1 X78.4243 Y115.5240
G1 X80.4224 Y116.8280
G1 X76.3379 Y117.3370
G1 X80.4224 Y116.8280
G1 X78.4243 Y115.5240
G1 X83.0640 Y117.1270
G1 X81.1361 Y115.2200
G1 X84.8018 Y118.8100
G1 X84.9824 Y121.2120
G1 X85.0389 Y124.0790
G1 X84.8018 Y118.8100
G1 X83.0640 Y117.1270
G1 X80.4224 Y116.8280
G1 X77.8936 Y118.0340
G1 X80.4224 Y116.8280
G1 X83.0640 Y117.1270
G1 X84.8018 Y118.8100
G1 X86.0047 Y121.9390
G1 X83.0640 Y117.1270
G1 X85.3528 Y120.1050
G1 X80.4224 Y116.8280
G1 X83.3092 Y119.2810
G1 X77.8936 Y118.0340
G1 X80.6482 Y119.8060
G1 X76.4660 Y120.2800
G1 X80.6482 Y119.8060
G1 X78.4106 Y121.4860
G1 X81.2546 Y124.2490
G1 X77.4707 Y123.6560
G1 X81.2546 Y124.2490
G1 X79.6410 Y126.2040
G1 X82.8326 Y129.8240
G1 X79.4590 Y127.8410
G1 X82.8326 Y129.8240
G1 X82.1436 Y131.2160
G1 X86.9128 Y133.6210
G1 X85.9056 Y134.8010
G0 Z90.0
G1 X86.9128 Y133.6210
G1 Z0.0000
G1 X88.6436 Y131.5530
G1 X82.8326 Y129.8240
G1 X84.6268 Y127.8690
G1 X81.2546 Y124.2490
G1 X83.6842 Y122.7500
G1 X86.8260 Y126.1190
G1 X81.2546 Y124.2490
G1 X86.8260 Y126.1190
G1 X91.5197 Y128.0250
G1 X90.4103 Y129.4010
G1 X86.8260 Y126.1190
G1 X84.6268 Y127.8690
G1 X86.8260 Y126.1190
G1 X90.4103 Y129.4010
G1 X84.6268 Y127.8690
G1 X88.6436 Y131.5530
G1 X90.4103 Y129.4010
G1 X94.4961 Y132.2040
G1 X88.6436 Y131.5530
G1 X94.4961 Y132.2040
G1 X93.2600 Y134.7190
G1 X88.6436 Y131.5530
G1 X84.6268 Y127.8690
G1 X90.4103 Y129.4010
G1 X88.6436 Y131.5530
G1 X93.2600 Y134.7190
G1 X86.9128 Y133.6210
G1 X93.2600 Y134.7190
G1 X91.7113 Y136.9120
G1 X93.2600 Y134.7190
G1 X94.4961 Y132.2040
G1 X90.4103 Y129.4010
G1 X94.9290 Y130.3640
G1 X90.4103 Y129.4010
G1 X91.5197 Y128.0250
G1 X86.8260 Y126.1190
G1 X88.5610 Y125.2640
G1 X86.8260 Y126.1190
G1 X83.6842 Y122.7500
G1 X88.5610 Y125.2640
G1 X83.6842 Y122.7500
G1 X85.9678 Y122.2920
G1 X88.5610 Y125.2640
G1 X91.5197 Y128.0250
G1 X88.5610 Y125.2640
G1 X91.5553 Y127.9340
G1 X91.5197 Y128.0250
G1 X94.9290 Y130.3640
G1 X94.4961 Y132.2040
G1 X98.8964 Y134.1860
G1 X93.2600 Y134.7190
G1 X98.2253 Y136.9390
G1 X93.2600 Y134.7190
G1 X98.8964 Y134.1860
G1 X94.4961 Y132.2040
G1 X98.6426 Y132.0320
G1 X94.4961 Y132.2040
G1 X94.9290 Y130.3640
G1 X91.5197 Y128.0250
G1 X94.4093 Y129.8960
G1 X91.5197 Y128.0250
G1 X91.5553 Y127.9340
G1 X94.4093 Y129.8960
G1 X94.9290 Y130.3640
G1 X98.6426 Y132.0320
G1 X98.8964 Y134.1860
G1 X98.2253 Y136.9390
G1 X91.7113 Y136.9120
G1 X86.9128 Y133.6210
G0 Z90.0
G1 X85.9056 Y134.8010
G1 Z0.0000
G1 X86.9128 Y133.6210
G1 X82.1436 Y131.2160
G1 X82.8326 Y129.8240
G1 X86.9128 Y133.6210
G1 X91.7113 Y136.9120
G1 X96.8872 Y139.2080
G1 X98.2253 Y136.9390
G1 X103.2770 Y135.0990
G1 X98.8964 Y134.1860
G1 X102.3790 Y132.8160
G1 X98.6426 Y132.0320
G1 X97.5790 Y131.3050
G1 X100.8080 Y131.9700
G1 X98.6426 Y132.0320
G1 X100.8080 Y131.9700
G1 X102.3790 Y132.8160
G1 X103.2770 Y135.0990
G1 X103.1350 Y137.9410
G1 X98.2253 Y136.9390
G1 X103.1350 Y137.9410
G1 X96.8872 Y139.2080
G1 X90.4543 Y137.9220
G1 X91.7113 Y136.9120
G1 X98.2253 Y136.9390
G1 X98.8964 Y134.1860
G1 X98.6426 Y132.0320
G1 X94.9290 Y130.3640
G1 X94.4093 Y129.8960
G1 X97.5790 Y131.3050
G1 X94.9290 Y130.3640
G1 X97.5790 Y131.3050
G1 X98.6426 Y132.0320
G1 X102.3790 Y132.8160
G1 X98.8964 Y134.1860
G1 X103.2770 Y135.0990
G1 X98.2253 Y136.9390
G1 X96.8872 Y139.2080
G1 X91.7113 Y136.9120
G1 X85.9056 Y134.8010
G0 Z90.0
G1 X86.9128 Y133.6210
G1 Z0.0000
G1 X82.8326 Y129.8240
G1 X79.6410 Y126.2040
G1 X81.2546 Y124.2490
G1 X78.4106 Y121.4860
G1 X80.6482 Y119.8060
G1 X77.8936 Y118.0340
G1 X83.3092 Y119.2810
G1 X80.4224 Y116.8280
G1 X85.3528 Y120.1050
G1 X83.3092 Y119.2810
G1 X85.3528 Y120.1050
G1 X87.2229 Y123.0400
G1 X83.3092 Y119.2810
G1 X80.6482 Y119.8060
G1 X83.3092 Y119.2810
G1 X87.2229 Y123.0400
G1 X85.9678 Y122.2920
G1 X83.3092 Y119.2810
G1 X85.9678 Y122.2920
G1 X87.2229 Y123.0400
G1 X89.1689 Y125.6200
G1 X85.9678 Y122.2920
G1 X80.6482 Y119.8060
G1 X83.6842 Y122.7500
G1 X78.4106 Y121.4860
G1 X83.6842 Y122.7500
G1 X80.6482 Y119.8060
G1 X85.9678 Y122.2920
G1 X89.1689 Y125.6200
G1 X91.5553 Y127.9340
G1 X88.5610 Y125.2640
G1 X89.1689 Y125.6200
G1 X88.5610 Y125.2640
G1 X85.9678 Y122.2920
G1 X83.6842 Y122.7500
G1 X81.2546 Y124.2490
G1 X84.6268 Y127.8690
G1 X79.6410 Y126.2040
G1 X84.6268 Y127.8690
G1 X82.8326 Y129.8240
G1 X88.6436 Y131.5530
G1 X86.9128 Y133.6210
G0 Z90.0
G1 X80.7350 Y122.7810
G1 Z0.0000
G1 X79.4826 Y123.1910
G1 X77.2901 Y123.7630
G1 X76.0028 Y124.3840
G1 X74.0463 Y123.7180
G1 X76.0028 Y124.3840
G1 X73.9401 Y124.5050
G1 X74.0463 Y123.7180
G1 X72.4574 Y124.7310
G1 X74.0463 Y123.7180
G1 X73.9401 Y124.5050
G1 X72.4574 Y124.7310
G1 X71.1026 Y123.3590
G1 X72.4574 Y124.7310
G1 X69.4601 Y124.6830
G1 X71.1026 Y123.3590
G1 X68.4664 Y124.0790
G1 X71.1026 Y123.3590
G1 X69.4601 Y124.6830
G1 X68.4664 Y124.0790
G1 X67.9951 Y122.0840
G1 X64.7608 Y121.7530
G1 X65.4554 Y119.3540
G1 X66.5731 Y117.0720
G1 X65.4554 Y119.3540
G1 X62.4981 Y118.0050
G1 X65.4554 Y119.3540
G1 X61.2303 Y120.0380
G1 X65.4554 Y119.3540
G1 X64.7608 Y121.7530
G1 X67.9951 Y122.0840
G1 X64.7608 Y123.3250
G1 X67.9951 Y122.0840
G1 X68.4664 Y124.0790
G1 X64.7608 Y123.3250
G1 Y121.7530
G1 X61.2303 Y120.0380
G1 X62.4981 Y118.0050
G1 X59.7294 Y115.5870
G1 X64.0525 Y115.9340
G1 X62.4981 Y118.0050
G1 X66.5731 Y117.0720
G1 X62.4981 Y118.0050
G1 X57.9424 Y117.1310
G1 X59.7294 Y115.5870
G1 X62.4981 Y118.0050
G1 X64.0525 Y115.9340
G1 X59.7294 Y115.5870
G1 X57.9424 Y117.1310
G1 X62.4981 Y118.0050
G1 X61.2303 Y120.0380
G1 X64.7608 Y121.7530
G1 X60.7481 Y121.2310
G1 X64.7608 Y121.7530
G1 Y123.3250
G1 X68.4664 Y124.0790
G1 X65.4417 Y123.4740
G1 X68.4664 Y124.0790
G1 X69.4601 Y124.6830
G1 X65.4417 Y123.4740
G1 X64.7608 Y123.3250
G1 X60.7481 Y121.2310
G1 X61.2303 Y120.0380
G1 X57.9424 Y117.1310
G1 X55.3187 Y113.2470
G1 X52.2979 Y108.5390
G1 X53.6733 Y108.6680
G1 X55.3187 Y113.2470
G1 X57.9424 Y117.1310
G1 X61.2303 Y120.0380
G1 X57.0508 Y117.9270
G1 X57.9424 Y117.1310
G1 X54.1210 Y113.5990
G1 X55.3187 Y113.2470
G1 X54.1210 Y113.5990
G1 X57.9424 Y117.1310
G1 X57.0508 Y117.9270
G1 X61.2303 Y120.0380
G1 X60.7481 Y121.2310
G1 X57.0508 Y117.9270
G1 X54.1210 Y113.5990
G1 X52.2979 Y108.5390
G1 X55.3187 Y113.2470
G1 X59.7294 Y115.5870
G1 X61.7114 Y113.9000
G1 X59.8137 Y111.0970
G1 X63.1074 Y112.7340
G1 X59.8137 Y111.0970
G1 X61.3463 Y110.1430
G1 X60.2203 Y107.0170
G1 X61.5212 Y109.7930
G1 X60.2203 Y107.0170
G1 X60.3360 Y106.5160
G1 X61.5212 Y109.7930
G1 X61.3463 Y110.1430
G1 X63.1074 Y112.7340
G1 X61.7114 Y113.9000
G1 X64.0525 Y115.9340
G1 X66.5731 Y117.0720
G1 X69.0990 Y117.2500
G1 X70.2374 Y116.3000
G1 X73.2346 Y116.4670
G1 X69.0990 Y117.2500
G1 X66.5731 Y117.0720
G1 X67.6740 Y115.8010
G1 X70.2374 Y116.3000
G1 X66.5731 Y117.0720
G1 X64.0525 Y115.9340
G1 X65.2806 Y114.6360
G1 X61.7114 Y113.9000
G1 X63.1074 Y112.7340
G1 X61.3463 Y110.1430
G1 X63.3871 Y112.5270
G1 X61.3463 Y110.1430
G1 X61.5212 Y109.7930
G1 X63.3871 Y112.5270
G1 X63.1074 Y112.7340
G1 X65.2806 Y114.6360
G1 X67.6740 Y115.8010
G1 X68.3313 Y116.0140
G1 X71.2128 Y116.9620
G1 X67.6740 Y115.8010
G1 X65.2806 Y114.6360
G1 X65.7158 Y114.6030
G1 X68.3313 Y116.0140
G1 X65.2806 Y114.6360
G1 X63.1074 Y112.7340
G1 X63.3871 Y112.5270
G1 X65.7158 Y114.6030
G1 X63.1074 Y112.7340
G1 X65.7158 Y114.6030
G1 X65.2806 Y114.6360
G1 X68.3313 Y116.0140
G1 X67.6740 Y115.8010
G1 X64.0525 Y115.9340
G1 X61.7114 Y113.9000
G1 X65.2806 Y114.6360
G1 X64.0525 Y115.9340
G1 X67.6740 Y115.8010
G1 X66.5731 Y117.0720
G1 X70.2374 Y116.3000
G1 X69.0990 Y117.2500
G1 X65.4554 Y119.3540
G1 X68.2392 Y119.4620
G1 X69.0990 Y117.2500
G1 X71.7463 Y116.6340
G1 X73.2346 Y116.4670
G1 X76.6258 Y116.6500
G1 X71.7463 Y116.6340
G1 X68.2392 Y119.4620
G1 X64.7608 Y121.7530
G1 X68.2392 Y119.4620
G1 X65.4554 Y119.3540
G1 X69.0990 Y117.2500
G1 X68.2392 Y119.4620
G1 X67.9951 Y122.0840
G1 X70.4124 Y120.9040
G1 X68.4664 Y124.0790
G1 X70.4124 Y120.9040
G1 X71.1026 Y123.3590
G1 X72.5758 Y121.6750
G1 X72.4574 Y124.7310
G1 X72.5758 Y121.6750
G1 X74.0463 Y123.7180
G1 X75.0606 Y122.7100
G1 X76.0028 Y124.3840
G1 X75.0606 Y122.7100
G1 X77.2901 Y123.7630
G1 X78.2656 Y123.3310
G1 X79.4826 Y123.1910
G1 X78.2656 Y123.3310
G1 X80.7350 Y122.7810
G0 Z90.0
G1 X78.9008 Y123.2860
G1 Z0.0000
G1 X78.2656 Y123.3310
G1 X77.2901 Y123.7630
G1 X75.0606 Y122.7100
G1 X74.0463 Y123.7180
G1 X72.5758 Y121.6750
G1 X71.1026 Y123.3590
G1 X70.4124 Y120.9040
G1 X67.9951 Y122.0840
G1 X68.2392 Y119.4620
G1 X70.6603 Y118.3270
G1 X71.7463 Y116.6340
G1 X74.6926 Y115.9470
G1 X70.6603 Y118.3270
G1 X68.2392 Y119.4620
G1 X71.7463 Y116.6340
G1 X70.6603 Y118.3270
G1 X67.9951 Y122.0840
G1 X70.6603 Y118.3270
G1 X70.4124 Y120.9040
G1 X70.6603 Y118.3270
G1 X72.9851 Y116.8540
G1 X74.6926 Y115.9470
G1 X77.2072 Y115.3250
G1 X72.9851 Y116.8540
G1 X70.4124 Y120.9040
G1 X72.1692 Y119.0410
G1 X71.1026 Y123.3590
G1 X72.1692 Y119.0410
G1 X70.4124 Y120.9040
G1 X72.9851 Y116.8540
G1 X72.1692 Y119.0410
G1 X72.5758 Y121.6750
G1 X72.1692 Y119.0410
G1 X72.9851 Y116.8540
G1 X75.0065 Y115.8580
G1 X72.1692 Y119.0410
G1 X75.0065 Y115.8580
G1 X73.6494 Y117.8080
G1 X72.1692 Y119.0410
G1 X73.6494 Y117.8080
G1 X72.5758 Y121.6750
G1 X73.6657 Y120.4300
G1 X74.0463 Y123.7180
G1 X73.6657 Y120.4300
G1 X75.0606 Y122.7100
G1 X75.9008 Y122.2270
G1 X77.2901 Y123.7630
G1 X75.9008 Y122.2270
G1 X78.2656 Y123.3310
G1 X75.9008 Y122.2270
G1 X75.0606 Y122.7100
G1 X73.6657 Y120.4300
G1 X72.5758 Y121.6750
G1 X73.6494 Y117.8080
G1 X73.6657 Y120.4300
G1 X73.6494 Y117.8080
G1 X75.0065 Y115.8580
G1 X76.3943 Y115.2390
G1 X73.6494 Y117.8080
G1 X74.7406 Y117.2120
G1 X73.6657 Y120.4300
G1 X74.5490 Y119.8870
G1 X75.0606 Y122.7100
G1 X74.5490 Y119.8870
G1 X73.6657 Y120.4300
G1 X74.7406 Y117.2120
G1 X73.6494 Y117.8080
G1 X76.3943 Y115.2390
G1 X74.7406 Y117.2120
G1 X74.5490 Y119.8870
G1 X75.9008 Y122.2270
G1 X76.4879 Y122.1650
G1 X78.2656 Y123.3310
G1 X76.4879 Y122.1650
G1 X78.9008 Y123.2860
G0 Z90.0
G1 X76.7058 Y122.3690
G1 Z0.0000
G1 X75.6832 Y119.9560
G1 X75.1953 Y119.7950
G1 X75.5263 Y117.0830
G1 X77.3493 Y115.0770
G1 X79.9649 Y114.5360
G1 X82.3665 Y115.6690
G1 X83.4278 Y116.5290
G1 X79.9649 Y114.5360
G1 X81.1361 Y115.2200
G1 X77.3493 Y115.0770
G1 X78.4243 Y115.5240
G1 X75.5263 Y117.0830
G1 X76.3379 Y117.3370
G1 X75.1953 Y119.7950
G1 X76.3379 Y117.3370
G1 X75.6832 Y119.9560
G1 X76.4660 Y120.2800
G1 X76.7058 Y122.3690
G1 X76.4879 Y122.1650
G1 X75.9008 Y122.2270
G1 X74.5490 Y119.8870
G1 X74.7406 Y117.2120
G1 X76.3943 Y115.2390
G1 X78.8639 Y114.7180
G1 X79.9649 Y114.5360
G1 X76.3943 Y115.2390
G1 X77.3493 Y115.0770
G1 X74.7406 Y117.2120
G1 X75.5263 Y117.0830
G1 X74.5490 Y119.8870
G1 X75.1953 Y119.7950
G1 X75.9008 Y122.2270
G1 X75.1953 Y119.7950
G1 X76.4879 Y122.1650
G1 X75.1953 Y119.7950
G1 X74.5490 Y119.8870
G1 X75.5263 Y117.0830
G1 X74.7406 Y117.2120
G1 X77.3493 Y115.0770
G1 X76.3943 Y115.2390
G1 X79.9649 Y114.5360
G1 X77.3493 Y115.0770
G1 X75.5263 Y117.0830
G1 X75.1953 Y119.7950
G1 X75.6832 Y119.9560
G1 X76.4879 Y122.1650
G1 X75.6832 Y119.9560
G1 X76.7058 Y122.3690
G0 Z90.0
G1 X73.0331 Y114.2940
G1 Z0.0000
G1 X70.8657 Y113.2470
G1 X70.5044 Y112.6490
G1 X69.0040 Y111.1780
G1 X68.1026 Y109.9170
G1 X67.4151 Y108.3370
G1 X66.1225 Y105.8640
G1 X65.2667 Y102.0270
G1 X65.1908 Y97.4090
G1 X66.1046 Y92.4782
G1 X65.7215 Y97.1014
G1 X65.1908 Y97.4090
G1 X65.8290 Y101.1650
G1 X65.2667 Y102.0270
G1 X66.7206 Y104.4240
G1 X66.1225 Y105.8640
G1 X66.7206 Y104.4240
G1 X65.2667 Y102.0270
G1 X65.8290 Y101.1650
G1 X65.1908 Y97.4090
G1 X65.7215 Y97.1014
G1 X66.1046 Y92.4782
G1 X68.0643 Y87.6607
G1 X66.5371 Y92.6878
G1 X66.1046 Y92.4782
G1 X66.5371 Y92.6878
G1 X65.7215 Y97.1014
G1 X65.8290 Y101.1650
G1 X66.7206 Y104.4240
G1 X65.8290 Y101.1650
G1 X65.7215 Y97.1014
G1 X66.5371 Y92.6878
G1 X68.0643 Y87.6607
G1 X70.9951 Y83.3487
G1 X68.3147 Y88.3358
G1 X68.0643 Y87.6607
G1 X68.3147 Y88.3358
G1 X66.5371 Y92.6878
G1 X67.6342 Y97.0258
G1 X65.7215 Y97.1014
G1 X67.7651 Y100.4200
G1 X65.8290 Y101.1650
G1 X67.7651 Y100.4200
G1 X65.7215 Y97.1014
G1 X67.6342 Y97.0258
G1 X66.5371 Y92.6878
G1 X68.3147 Y88.3358
G1 X68.3204 Y93.2829
G1 X66.5371 Y92.6878
G1 X68.3204 Y93.2829
G1 X67.6342 Y97.0258
G1 X67.7651 Y100.4200
G1 X67.6342 Y97.0258
G1 X68.3204 Y93.2829
G1 X68.3147 Y88.3358
G1 X70.9951 Y83.3487
G1 X70.9757 Y84.4264
G1 X68.3147 Y88.3358
G1 X69.8528 Y89.5483
G1 X68.3204 Y93.2829
G1 X70.1947 Y97.2175
G1 X72.3896 Y97.5978
G1 X73.3697 Y98.0179
G1 X72.9231 Y94.6457
G1 X73.9401 Y94.8803
G1 X73.3697 Y98.0179
G1 X73.4536 Y100.9660
G1 X72.3896 Y97.5978
G1 X72.9231 Y94.6457
G1 X73.3697 Y98.0179
G1 X72.3896 Y97.5978
G1 X73.4536 Y100.9660
G1 X74.0890 Y103.6670
G1 X72.5029 Y100.2990
G1 X73.4536 Y100.9660
G1 X72.5029 Y100.2990
G1 X72.3896 Y97.5978
G1 X70.7732 Y94.0340
G1 X72.9231 Y94.6457
G1 X74.1426 Y91.6750
G1 X75.2118 Y91.7561
G1 X73.9401 Y94.8803
G1 X74.1426 Y91.6750
G1 X73.9401 Y94.8803
G1 X72.9231 Y94.6457
G1 X72.3896 Y97.5978
G1 X72.5029 Y100.2990
G1 X74.0890 Y103.6670
G1 X75.1474 Y106.3410
G1 X73.2110 Y102.6360
G1 X74.0890 Y103.6670
G1 X73.2110 Y102.6360
G1 X72.5029 Y100.2990
G1 X70.1947 Y97.2175
G1 X70.7732 Y94.0340
G1 X72.3896 Y97.5978
G1 X70.1947 Y97.2175
G1 X67.6342 Y97.0258
G1 X70.1947 Y97.2175
G1 X72.5029 Y100.2990
G1 X73.2110 Y102.6360
G1 X70.3269 Y100.0880
G1 X72.5029 Y100.2990
G1 X70.3269 Y100.0880
G1 X70.1947 Y97.2175
G1 X68.3204 Y93.2829
G1 X70.7732 Y94.0340
G1 X72.0881 Y90.8300
G1 X74.1426 Y91.6750
G1 X76.0113 Y88.9533
G1 X77.1715 Y88.9050
G1 X75.2118 Y91.7561
G1 X76.0113 Y88.9533
G1 X75.2118 Y91.7561
G1 X74.1426 Y91.6750
G1 X72.9231 Y94.6457
G1 X72.0881 Y90.8300
G1 X72.9231 Y94.6457
G1 X70.7732 Y94.0340
G1 X70.1947 Y97.2175
G1 X70.3269 Y100.0880
G1 X67.6342 Y97.0258
G1 X70.3269 Y100.0880
G1 X67.7651 Y100.4200
G1 X68.6361 Y103.1010
G1 X65.8290 Y101.1650
G1 X68.6361 Y103.1010
G1 X66.7206 Y104.4240
G1 X68.2185 Y106.3490
G1 X66.1225 Y105.8640
G1 X68.2185 Y106.3490
G1 X67.4151 Y108.3370
G1 X68.8856 Y108.9070
G1 X68.1026 Y109.9170
G1 X68.8856 Y108.9070
G1 X69.0040 Y111.1780
G1 X69.8182 Y111.0290
G1 X70.5044 Y112.6490
G1 X69.8182 Y111.0290
G1 X70.8657 Y113.2470
G1 X71.2446 Y113.3490
G1 X73.0331 Y114.2940
G0 Z90.0
G1 X71.3397 Y113.4700
G1 Z0.0000
G1 X71.2446 Y113.3490
G1 X70.8657 Y113.2470
G1 X69.8182 Y111.0290
G1 X69.0040 Y111.1780
G1 X68.8856 Y108.9070
G1 X67.4151 Y108.3370
G1 X68.2185 Y106.3490
G1 X66.7206 Y104.4240
G1 X68.6361 Y103.1010
G1 X67.7651 Y100.4200
G1 X70.3269 Y100.0880
G1 X71.1260 Y102.4150
G1 X73.2110 Y102.6360
G1 X71.1260 Y102.4150
G1 X70.3269 Y100.0880
G1 X73.2110 Y102.6360
G1 X74.5063 Y104.7420
G1 X75.1474 Y106.3410
G1 X76.3324 Y109.3600
G1 X74.5063 Y104.7420
G1 X71.1260 Y102.4150
G1 X67.7651 Y100.4200
G1 X71.1260 Y102.4150
G1 X68.6361 Y103.1010
G1 X71.1260 Y102.4150
G1 X74.5063 Y104.7420
G1 X72.6239 Y104.1200
G1 X71.1260 Y102.4150
G1 X72.6239 Y104.1200
G1 X74.5063 Y104.7420
G1 X76.2456 Y107.1030
G1 X72.6239 Y104.1200
G1 X68.6361 Y103.1010
G1 X70.2138 Y104.7330
G1 X66.7206 Y104.4240
G1 X70.2138 Y104.7330
G1 X68.2185 Y106.3490
G1 X70.2085 Y106.7110
G1 X67.4151 Y108.3370
G1 X70.2085 Y106.7110
G1 X68.8856 Y108.9070
G1 X70.3104 Y108.4870
G1 X69.0040 Y111.1780
G1 X70.3104 Y108.4870
G1 X69.8182 Y111.0290
G1 X70.3886 Y110.8680
G1 X70.8657 Y113.2470
G1 X70.3886 Y110.8680
G1 X71.2446 Y113.3490
G1 X70.3886 Y110.8680
G1 X69.8182 Y111.0290
G1 X70.3104 Y108.4870
G1 X68.8856 Y108.9070
G1 X70.2085 Y106.7110
G1 X68.2185 Y106.3490
G1 X70.2138 Y104.7330
G1 X68.6361 Y103.1010
G1 X72.6239 Y104.1200
G1 X70.2138 Y104.7330
G1 X72.6239 Y104.1200
G1 X74.7751 Y105.6050
G1 X76.2456 Y107.1030
G1 X77.8056 Y109.4010
G1 X74.7751 Y105.6050
G1 X70.2138 Y104.7330
G1 X72.4656 Y105.4490
G1 X68.2185 Y106.3490
G1 X72.4656 Y105.4490
G1 X70.2138 Y104.7330
G1 X74.7751 Y105.6050
G1 X72.4656 Y105.4490
G1 X70.2085 Y106.7110
G1 X72.4656 Y105.4490
G1 X74.7751 Y105.6050
G1 X76.7899 Y107.1820
G1 X72.4656 Y105.4490
G1 X74.6304 Y106.1100
G1 X70.2085 Y106.7110
G1 X72.1525 Y106.6040
G1 X68.8856 Y108.9070
G1 X72.1525 Y106.6040
G1 X70.2085 Y106.7110
G1 X74.6304 Y106.1100
G1 X72.1525 Y106.6040
G1 X70.3104 Y108.4870
G1 X72.1525 Y106.6040
G1 X74.6304 Y106.1100
G1 X76.7899 Y107.1820
G1 X78.0010 Y108.1050
G1 X74.6304 Y106.1100
G1 X75.8690 Y106.6240
G1 X72.1525 Y106.6040
G1 X73.2536 Y106.7050
G1 X70.3104 Y108.4870
G1 X71.1564 Y108.3260
G1 X69.8182 Y111.0290
G1 X71.1564 Y108.3260
G1 X70.3886 Y110.8680
G1 X70.5072 Y110.9270
G1 X71.2446 Y113.3490
G1 X70.5072 Y110.9270
G1 X71.3397 Y113.4700
G0 Z90.0
G1 X70.5072 Y110.9270
G1 Z0.0000
G1 X70.3886 Y110.8680
G1 X71.1564 Y108.3260
G1 X70.3104 Y108.4870
G1 X73.2536 Y106.7050
G1 X72.1525 Y106.6040
G1 X75.8690 Y106.6240
G1 X73.2536 Y106.7050
G1 X71.1564 Y108.3260
G1 X73.2536 Y106.7050
G1 X75.8690 Y106.6240
G1 X78.0010 Y108.1050
G1 X78.3414 Y108.3820
G1 X75.8690 Y106.6240
G1 X76.1753 Y106.8070
G1 X73.2536 Y106.7050
G1 X73.4935 Y106.8100
G1 X71.1564 Y108.3260
G1 X71.3285 Y108.3820
G1 X70.3886 Y110.8680
G1 X71.3285 Y108.3820
G1 X70.5072 Y110.9270
G0 Z90.0
G1 X71.3285 Y108.3820
G1 Z0.0000
G1 X71.1564 Y108.3260
G1 X73.4935 Y106.8100
G1 X73.2536 Y106.7050
G1 X76.1753 Y106.8070
G1 X73.4935 Y106.8100
G1 X71.3285 Y108.3820
G0 Z90.0
G1 X77.1289 Y100.1420
G1 Z0.0000
G1 X79.2483 Y98.8339
G1 X78.7851 Y98.4479
G1 X81.1844 Y98.0606
G1 X80.5119 Y96.7789
G1 X82.9000 Y97.1635
G1 X83.1508 Y95.1900
G1 X85.3211 Y96.5200
G1 X86.8179 Y98.3626
G1 X85.9483 Y100.7340
G1 X85.4371 Y102.5200
G1 X83.3850 Y105.1370
G1 X85.9483 Y100.7340
G1 X85.3211 Y96.5200
G1 X84.9824 Y98.6822
G1 X83.1508 Y95.1900
G1 X84.9824 Y98.6822
G1 X85.3211 Y96.5200
G1 X85.9483 Y100.7340
G1 X84.9824 Y98.6822
G1 X82.9000 Y97.1635
G1 X84.9824 Y98.6822
G1 X85.9483 Y100.7340
G1 X84.9065 Y103.4940
G1 X84.9824 Y98.6822
G1 X84.9796 Y101.1900
G1 X82.9000 Y97.1635
G1 X83.5572 Y99.1108
G1 X80.5119 Y96.7789
G1 X83.5572 Y99.1108
G1 X81.1844 Y98.0606
G1 X81.8018 Y99.0625
G1 X78.7851 Y98.4479
G1 X81.8018 Y99.0625
G1 X79.2483 Y98.8339
G1 X79.0981 Y98.9785
G1 X77.1289 Y100.1420
G1 X77.2858 Y100.1150
G1 X78.7851 Y98.4479
G1 X78.7506 Y97.6651
G1 X78.7851 Y98.4479
G1 X78.2821 Y99.4664
G1 X78.7506 Y97.6651
G1 X80.5119 Y96.7789
G1 X78.7506 Y97.6651
G1 X80.1124 Y95.7471
G1 X80.5119 Y96.7789
G1 X81.1583 Y94.8993
G1 X80.5119 Y96.7789
G1 X80.1124 Y95.7471
G1 X81.1583 Y94.8993
G1 X83.1508 Y95.1900
G1 X84.5965 Y92.9785
G1 X86.5268 Y94.4874
G1 X88.1243 Y96.3313
G1 X86.5268 Y94.4874
G1 X88.4989 Y92.5015
G1 X89.9801 Y88.5385
G1 X93.5963 Y85.1856
G1 X93.4406 Y86.8599
G1 X89.9801 Y88.5385
G1 X91.0703 Y90.6896
G1 X88.4989 Y92.5015
G1 X86.5268 Y94.4874
G1 X86.9556 Y90.6660
G1 X86.5268 Y94.4874
G1 X84.5965 Y92.9785
G1 X83.1508 Y95.1900
G1 X83.0943 Y92.3858
G1 X83.1508 Y95.1900
G1 X81.1583 Y94.8993
G1 X83.0943 Y92.3858
G1 X84.5965 Y92.9785
G1 X86.9556 Y90.6660
G1 X88.4989 Y92.5015
G1 X91.0703 Y90.6896
G1 X90.0067 Y94.4489
G1 X91.0703 Y90.6896
G1 X92.3961 Y92.7636
G1 X95.1590 Y91.4350
G1 X93.4435 Y93.9458
G1 X95.1590 Y91.4350
G1 X96.3594 Y92.5432
G1 X93.4435 Y93.9458
G1 X92.3961 Y92.7636
G1 X90.0067 Y94.4489
G1 X88.4989 Y92.5015
G1 X88.1243 Y96.3313
G1 X88.4989 Y92.5015
G1 X86.9556 Y90.6660
G1 X89.9801 Y88.5385
G1 X86.9556 Y90.6660
G1 X84.5965 Y92.9785
G1 X85.9758 Y89.6642
G1 X84.5965 Y92.9785
G1 X83.0943 Y92.3858
G1 X81.1583 Y94.8993
G1 X82.5926 Y92.9301
G1 X81.1583 Y94.8993
G1 X80.1124 Y95.7471
G1 X82.5926 Y92.9301
G1 X83.0943 Y92.3858
G1 X85.9758 Y89.6642
G1 X86.9556 Y90.6660
G1 X89.5600 Y87.1563
G1 X89.9801 Y88.5385
G1 X89.5600 Y87.1563
G1 X86.9556 Y90.6660
G1 X85.9758 Y89.6642
G1 X89.5600 Y87.1563
G1 X93.5963 Y85.1856
G1 X94.4315 Y84.8703
G1 X99.0603 Y83.5511
G1 X93.5963 Y85.1856
G1 X89.9801 Y88.5385
G1 X88.4989 Y92.5015
G1 X90.0067 Y94.4489
G1 X88.1243 Y96.3313
G1 X86.8179 Y98.3626
G1 X87.0575 Y99.9994
G1 X85.4371 Y102.5200
G1 X86.8179 Y98.3626
G1 X88.1243 Y96.3313
G1 X88.7676 Y97.7781
G1 X87.0575 Y99.9994
G1 X88.1243 Y96.3313
G1 X90.0067 Y94.4489
G1 X90.8815 Y95.7414
G1 X90.7990 Y95.8956
G1 X88.2192 Y98.2811
G1 X90.8815 Y95.7414
G1 X93.4435 Y93.9458
G1 X93.8114 Y93.7969
G1 X90.7990 Y95.8956
G1 X93.4435 Y93.9458
G1 X90.7990 Y95.8956
G1 X90.8815 Y95.7414
G1 X88.7676 Y97.7781
G1 X90.0067 Y94.4489
G1 X92.3961 Y92.7636
G1 X93.4435 Y93.9458
G1 X96.3594 Y92.5432
G1 X97.1751 Y92.1737
G1 X93.8114 Y93.7969
G1 X96.3594 Y92.5432
G1 X93.8114 Y93.7969
G1 X93.4435 Y93.9458
G1 X90.8815 Y95.7414
G1 X92.3961 Y92.7636
G1 X90.8815 Y95.7414
G1 X90.0067 Y94.4489
G1 X88.7676 Y97.7781
G1 X88.1243 Y96.3313
G1 X87.0575 Y99.9994
G1 X86.8179 Y98.3626
G1 X86.5268 Y94.4874
G1 X85.3211 Y96.5200
G1 X84.5965 Y92.9785
G1 X85.3211 Y96.5200
G1 X86.5268 Y94.4874
G1 X86.8179 Y98.3626
G1 X85.4371 Y102.5200
G1 X85.9483 Y100.7340
G1 X86.8179 Y98.3626
G1 X85.3211 Y96.5200
G1 X83.1508 Y95.1900
G1 X82.9000 Y97.1635
G1 X81.1583 Y94.8993
G1 X82.9000 Y97.1635
G1 X80.5119 Y96.7789
G1 X81.1844 Y98.0606
G1 X78.7506 Y97.6651
G1 X81.1844 Y98.0606
G1 X78.7851 Y98.4479
G1 X79.2483 Y98.8339
G1 X77.2858 Y100.1150
G0 Z90.0
G1 X79.0981 Y98.9785
G1 Z0.0000
G1 X79.2483 Y98.8339
G1 X81.8018 Y99.0625
G1 X81.1844 Y98.0606
G1 X83.5572 Y99.1108
G1 X84.9796 Y101.1900
G1 X83.5572 Y99.1108
G1 X82.9000 Y97.1635
G1 X84.9796 Y101.1900
G1 X84.9065 Y103.4940
G1 X83.3850 Y105.1370
G1 X81.4697 Y106.8500
G1 X84.9065 Y103.4940
G1 X83.5918 Y105.5630
G1 X84.9796 Y101.1900
G1 X84.4889 Y103.2310
G1 X83.5572 Y99.1108
G1 X83.8056 Y100.7450
G1 X81.1844 Y98.0606
G1 X83.8056 Y100.7450
G1 X83.5572 Y99.1108
G1 X84.4889 Y103.2310
G1 X83.8056 Y100.7450
G1 X81.8018 Y99.0625
G1 X81.6101 Y99.4608
G1 X79.2483 Y98.8339
G1 X81.6101 Y99.4608
G1 X79.0981 Y98.9785
G0 Z90.0
G1 X91.6601 Y123.6760
G1 Z0.0000
G1 X89.5297 Y124.6580
G1 X88.6065 Y125.5580
G1 X86.0888 Y124.9990
G1 X85.4685 Y126.4470
G1 X83.2874 Y124.8550
G1 X82.2110 Y122.7840
G1 X84.1583 Y118.8290
G1 X83.3343 Y120.8220
G1 X82.2110 Y122.7840
G1 X83.3343 Y120.8220
G1 X83.2874 Y124.8550
G1 X84.0688 Y123.1850
G1 X85.4685 Y126.4470
G1 X84.0688 Y123.1850
G1 X83.2874 Y124.8550
G1 X83.3343 Y120.8220
G1 X84.1583 Y118.8290
G1 X85.6881 Y117.2320
G1 X83.3343 Y120.8220
G1 X84.0688 Y123.1850
G1 X86.0888 Y124.9990
G1 X87.0550 Y124.0280
G1 X88.6065 Y125.5580
G1 X87.0550 Y124.0280
G1 X89.5297 Y124.6580
G1 X90.5344 Y124.1900
G1 X91.6601 Y123.6760
G1 X90.6444 Y124.6480
G1 X89.6303 Y126.1260
G1 X88.2675 Y127.9870
G1 X87.3083 Y128.8290
G1 X85.7706 Y131.2270
G1 X85.2964 Y128.5240
G1 X87.3083 Y128.8290
G1 X87.8981 Y126.9290
G1 X88.2675 Y127.9870
G1 X87.8981 Y126.9290
G1 X89.6303 Y126.1260
G1 X87.8981 Y126.9290
G1 X87.3083 Y128.8290
G1 X85.2964 Y128.5240
G1 X84.6985 Y131.1710
G1 X82.8217 Y129.9940
G1 X81.2546 Y132.7400
G1 X79.6685 Y130.7000
G1 X80.8672 Y128.1490
G1 X81.2546 Y132.7400
G1 X80.8672 Y128.1490
G1 X82.8217 Y129.9940
G1 X83.0104 Y127.1770
G1 X84.6985 Y131.1710
G1 X83.0104 Y127.1770
G1 X85.2964 Y128.5240
G1 X85.4685 Y126.4470
G1 X87.3083 Y128.8290
G1 X85.4685 Y126.4470
G1 X87.8981 Y126.9290
G1 X88.6065 Y125.5580
G1 X89.6303 Y126.1260
G1 X88.6065 Y125.5580
G1 X90.6444 Y124.6480
G1 X88.6065 Y125.5580
G1 X87.8981 Y126.9290
G1 X85.4685 Y126.4470
G1 X85.2964 Y128.5240
G1 X83.0104 Y127.1770
G1 X82.8217 Y129.9940
G1 X80.8672 Y128.1490
G1 X81.3513 Y125.3150
G1 X82.6439 Y121.0340
G1 X82.2110 Y122.7840
G1 X81.3513 Y125.3150
G1 X82.8217 Y129.9940
G1 X81.3513 Y125.3150
G1 X83.0104 Y127.1770
G1 X81.3513 Y125.3150
G1 X82.2110 Y122.7840
G1 X82.6439 Y121.0340
G1 X84.1583 Y118.8290
G1 X82.2110 Y122.7840
G1 X83.0104 Y127.1770
G1 X82.2110 Y122.7840
G1 X83.2874 Y124.8550
G1 X83.0104 Y127.1770
G1 X83.2874 Y124.8550
G1 X85.2964 Y128.5240
G1 X83.2874 Y124.8550
G1 X85.4685 Y126.4470
G1 X86.0888 Y124.9990
G1 X87.8981 Y126.9290
G1 X86.0888 Y124.9990
G1 X88.6065 Y125.5580
G1 X89.5297 Y124.6580
G1 X90.6444 Y124.6480
G1 X89.5297 Y124.6580
G1 X91.6601 Y123.6760
G0 Z90.0
G1 X97.8242 Y124.5300
G1 Z0.0000
G1 X97.1944 Y123.1310
G1 X93.4515 Y123.6030
G1 X92.6137 Y121.4350
G1 X89.8261 Y122.6060
G1 X89.0157 Y120.0480
G1 X86.7240 Y121.1330
G1 X89.4761 Y117.3200
G1 X86.5492 Y118.3890
G1 X91.0224 Y115.4860
G1 X93.0493 Y115.2390
G1 X96.6075 Y116.0380
G1 X91.0224 Y115.4860
G1 X89.4761 Y117.3200
G1 X89.0157 Y120.0480
G1 X89.4761 Y117.3200
G1 X91.0224 Y115.4860
G1 X95.1964 Y115.2930
G1 X89.4761 Y117.3200
G1 X95.1964 Y115.2930
G1 X93.7037 Y116.2730
G1 X89.4761 Y117.3200
G1 X93.7037 Y116.2730
G1 X89.0157 Y120.0480
G1 X92.7103 Y118.6240
G1 X89.8261 Y122.6060
G1 X92.7103 Y118.6240
G1 X89.0157 Y120.0480
G1 X93.7037 Y116.2730
G1 X95.1964 Y115.2930
G1 X98.9926 Y115.6830
G1 X93.7037 Y116.2730
G1 X98.9926 Y115.6830
G1 X102.3140 Y115.9600
G1 X98.1508 Y115.9170
G1 X98.9926 Y115.6830
G1 X98.1508 Y115.9170
G1 X93.7037 Y116.2730
G1 X92.7103 Y118.6240
G1 X92.6137 Y121.4350
G1 X97.0306 Y120.5410
G1 X93.4515 Y123.6030
G1 X97.0306 Y120.5410
G1 X97.1944 Y123.1310
G1 X102.2220 Y122.8710
G1 X97.8242 Y124.5300
G0 Z90.0
G1 X102.2220 Y122.8710
G1 Z0.0000
G1 X102.2010 Y120.1420
G1 X107.5130 Y119.6450
G1 X102.2010 Y120.1420
G1 X102.2150 Y117.4550
G1 X106.9510 Y117.0320
G1 X102.2010 Y120.1420
G1 X97.0306 Y120.5410
G1 X102.2150 Y117.4550
G1 X102.2010 Y120.1420
G1 X106.9510 Y117.0320
G1 X107.5130 Y119.6450
G1 X102.2220 Y122.8710
G0 Z90.0
G1 X107.6510 Y122.3940
G1 Z0.0000
G1 X102.2680 Y124.5620
G1 X102.2220 Y122.8710
G1 X97.1944 Y123.1310
G1 X97.0306 Y120.5410
G1 X92.6137 Y121.4350
G1 X92.7103 Y118.6240
G1 X97.3985 Y117.7710
G1 X98.1508 Y115.9170
G1 X102.2600 Y115.8630
G1 X97.3985 Y117.7710
G1 X92.7103 Y118.6240
G1 X93.7037 Y116.2730
G1 X98.1508 Y115.9170
G1 X92.7103 Y118.6240
G1 X98.1508 Y115.9170
G1 X97.3985 Y117.7710
G1 X92.6137 Y121.4350
G1 X97.3985 Y117.7710
G1 X97.0306 Y120.5410
G1 X97.3985 Y117.7710
G1 X102.2600 Y115.8630
G1 X106.1890 Y115.5840
G1 X109.8780 Y114.8530
G1 X106.9510 Y117.0320
G1 X106.1890 Y115.5840
G1 X102.2150 Y117.4550
G1 X102.2600 Y115.8630
G1 X102.2150 Y117.4550
G1 X106.1890 Y115.5840
G1 X106.9510 Y117.0320
G1 X109.8780 Y114.8530
G1 X111.3790 Y116.1380
G1 X106.9510 Y117.0320
G1 X102.2150 Y117.4550
G1 X97.3985 Y117.7710
G1 X102.2150 Y117.4550
G1 X97.0306 Y120.5410
G1 X102.2010 Y120.1420
G1 X97.1944 Y123.1310
G1 X102.2010 Y120.1420
G1 X102.2220 Y122.8710
G1 X107.5130 Y119.6450
G1 X107.6510 Y122.3940
G0 Z90.0
G1 X107.3150 Y124.1950
G1 Z0.0000
G1 X112.2400 Y123.1780
G1 X106.6380 Y124.3670
G1 X107.3150 Y124.1950
G1 X107.6510 Y122.3940
G1 X112.8490 Y121.3160
G1 X112.5220 Y118.6160
G1 X115.1670 Y114.6360
G1 X111.3790 Y116.1380
G1 X113.0690 Y113.5910
G1 X109.8780 Y114.8530
G1 X108.5990 Y115.2370
G1 X111.3110 Y114.1530
G1 X109.8780 Y114.8530
G1 X111.3110 Y114.1530
G1 X113.0690 Y113.5910
G1 X115.1670 Y114.6360
G1 X116.7830 Y116.9050
G1 X112.5220 Y118.6160
G1 X111.3790 Y116.1380
G1 X109.8780 Y114.8530
G1 X113.0690 Y113.5910
G1 X111.3790 Y116.1380
G1 X115.1670 Y114.6360
G1 X112.5220 Y118.6160
G1 X116.7830 Y116.9050
G1 X112.8490 Y121.3160
G1 X107.3150 Y124.1950
G1 X106.6380 Y124.3670
G1 X112.2400 Y123.1780
G1 X117.2830 Y119.5070
G1 X116.7830 Y116.9050
G1 X119.9070 Y114.5600
G1 X116.7830 Y116.9050
G1 X117.9680 Y112.5640
G1 X115.1670 Y114.6360
G1 X115.4710 Y111.8270
G1 X113.0690 Y113.5910
G1 X113.3850 Y112.6210
G1 X115.4710 Y111.8270
G1 X117.9680 Y112.5640
G1 X119.9070 Y114.5600
G1 X117.2830 Y119.5070
G1 X116.4790 Y121.4270
G1 X117.2830 Y119.5070
G1 X120.5260 Y117.0290
G1 X117.2830 Y119.5070
G1 X119.9070 Y114.5600
G1 X117.9680 Y112.5640
G1 X115.4710 Y111.8270
G1 X113.3850 Y112.6210
G1 X114.5850 Y110.7550
G1 X115.4710 Y111.8270
G1 X116.8370 Y109.6940
G1 X117.9680 Y112.5640
G1 X119.5320 Y110.0790
G1 X119.9070 Y114.5600
G1 X120.5260 Y117.0290
G1 X116.4790 Y121.4270
